Tools/LUT_Grading_MCP/src/lut_grading_mcp/luts/bleach_bypass.cube
LUT_3D_SIZE 17
0.000000 0.000000 0.000000
0.000000 0.000000 0.000000
0.000000 0.000000 0.000000
0.000000 0.000000 0.000000
0.038305 0.000000 0.000000
0.085381 0.000000 0.000000
0.132458 0.000000 0.000000
0.179534 0.000000 0.000000
0.226610 0.000000 0.000000
0.273686 0.000000 0.000000
0.320763 0.000000 0.000000
0.367839 0.010339 0.010339
0.414915 0.024915 0.024915
0.461991 0.039491 0.039491
0.509067 0.054067 0.054067
0.556144 0.068644 0.068644
0.603220 0.083220 0.083220
0.000000 0.000000 0.000000
0.000000 0.000000 0.000000
0.000000 0.000000 0.000000
0.019845 0.000000 0.000000
0.066921 0.000000 0.000000
0.113997 0.000000 0.000000
0.161074 0.000000 0.000000
0.208150 0.013150 0.000000
0.255226 0.027726 0.000000
0.302302 0.042302 0.009802
0.349379 0.056879 0.024379
0.396455 0.071455 0.038955
0.443531 0.086031 0.053531
0.490608 0.100608 0.068107
0.537684 0.115184 0.082684
0.584760 0.129760 0.097260
0.631836 0.144336 0.111836
0.000000 0.000000 0.000000
0.000000 0.000000 0.000000
0.001385 0.001385 0.000000
0.048461 0.015961 0.000000
0.095537 0.030537 0.000000
0.142614 0.045114 0.000000
0.189690 0.059690 0.000000
0.236766 0.074266 0.009266
0.283842 0.088843 0.023842
0.330919 0.103419 0.038419
0.377995 0.117995 0.052995
0.425071 0.132571 0.067571
0.472148 0.147148 0.082148
0.519224 0.161724 0.096724
0.566300 0.176300 0.111300
0.613376 0.190876 0.125876
0.660452 0.205453 0.140452
0.000000 0.033349 0.000000
0.000000 0.047925 0.000000
0.030001 0.062501 0.000000
0.077078 0.077078 0.000000
0.124154 0.091654 0.000000
0.171230 0.106230 0.008730
0.218306 0.120806 0.023306
0.265382 0.135382 0.037882
0.312459 0.149959 0.052459
0.359535 0.164535 0.067035
0.406611 0.179111 0.081611
0.453687 0.193687 0.096187
0.500764 0.208264 0.110764
0.547840 0.222840 0.125340
0.594916 0.237416 0.139916
0.641992 0.251992 0.154492
0.689069 0.266569 0.169069
0.000000 0.094465 0.000000
0.011541 0.109041 0.000000
0.058617 0.123617 0.000000
0.105694 0.138194 0.008194
0.152770 0.152770 0.022770
0.199846 0.167346 0.037346
0.246922 0.181922 0.051922
0.293999 0.196499 0.066499
0.341075 0.211075 0.081075
0.388151 0.225651 0.095651
0.435227 0.240227 0.110227
0.482304 0.254804 0.124804
0.529380 0.269380 0.139380
0.576456 0.283956 0.153956
0.623533 0.298532 0.168532
0.670609 0.313109 0.183109
0.717685 0.327685 0.197685
0.000000 0.155581 0.000000
0.040157 0.170158 0.007657
0.087234 0.184734 0.022234
0.134310 0.199310 0.036810
0.181386 0.213886 0.051386
0.228462 0.228462 0.065962
0.275539 0.243039 0.080539
0.322615 0.257615 0.095115
0.369691 0.272191 0.109691
0.416768 0.286767 0.124267
0.463844 0.301344 0.138844
0.510920 0.315920 0.153420
0.557996 0.330496 0.167996
0.605072 0.345072 0.182572
0.652149 0.359649 0.197149
0.699225 0.374225 0.211725
0.746301 0.388801 0.226301
0.021697 0.216697 0.021697
0.068774 0.231274 0.036274
0.115850 0.245850 0.050850
0.162926 0.260426 0.065426
0.210002 0.275003 0.080002
0.257079 0.289579 0.094579
0.304155 0.304155 0.109155
0.351231 0.318731 0.123731
0.398308 0.333307 0.138307
0.445384 0.347884 0.152884
0.492460 0.362460 0.167460
0.539536 0.377036 0.182036
0.586612 0.391612 0.196612
0.633689 0.406189 0.211189
0.680765 0.420765 0.225765
0.727841 0.435341 0.240341
0.774917 0.449917 0.254917
0.050314 0.277814 0.050314
0.097390 0.292390 0.064890
0.144466 0.306966 0.079466
0.191542 0.321543 0.094043
0.238619 0.336119 0.108619
0.285695 0.350695 0.123195
0.332771 0.365271 0.137771
0.379848 0.379848 0.152347
0.426924 0.394424 0.166924
0.474000 0.409000 0.181500
0.521076 0.423576 0.196076
0.568152 0.438152 0.210652
0.615229 0.452729 0.225229
0.662305 0.467305 0.239805
0.709381 0.481881 0.254381
0.756458 0.496457 0.268957
0.803534 0.511034 0.283534
0.078930 0.338930 0.078930
0.126006 0.353506 0.093506
0.173082 0.368082 0.108082
0.220159 0.382659 0.122659
0.267235 0.397235 0.137235
0.314311 0.411811 0.151811
0.361388 0.426388 0.166388
0.408464 0.440964 0.180964
0.455540 0.455540 0.195540
0.502616 0.470116 0.210116
0.549692 0.484693 0.224692
0.596769 0.499269 0.239269
0.643845 0.513845 0.253845
0.690921 0.528421 0.268421
0.737997 0.542997 0.282998
0.785074 0.557574 0.297574
0.832150 0.572150 0.312150
0.107546 0.400046 0.107546
0.154622 0.414623 0.122122
0.201699 0.429199 0.136699
0.248775 0.443775 0.151275
0.295851 0.458351 0.165851
0.342927 0.472928 0.180427
0.390004 0.487504 0.195004
0.437080 0.502080 0.209580
0.484156 0.516656 0.224156
0.531232 0.531232 0.238732
0.578309 0.545809 0.253309
0.625385 0.560385 0.267885
0.672461 0.574961 0.282461
0.719537 0.589538 0.297037
0.766614 0.604114 0.311614
0.813690 0.618690 0.326190
0.860766 0.633266 0.340766
0.136162 0.461162 0.136162
0.183239 0.475739 0.150739
0.230315 0.490315 0.165315
0.277391 0.504891 0.179891
0.324467 0.519467 0.194467
0.371544 0.534044 0.209044
0.418620 0.548620 0.223620
0.465696 0.563196 0.238196
0.512772 0.577772 0.252772
0.559849 0.592349 0.267349
0.606925 0.606925 0.281925
0.654001 0.621501 0.296501
0.701077 0.636077 0.311077
0.748154 0.650654 0.325654
0.795230 0.665230 0.340230
0.842306 0.679806 0.354806
0.889383 0.694383 0.369382
0.164779 0.522279 0.164779
0.211855 0.536855 0.179355
0.258931 0.551431 0.193931
0.306007 0.566007 0.208507
0.353084 0.580584 0.223084
0.400160 0.595160 0.237660
0.447236 0.609736 0.252236
0.494313 0.624313 0.266813
0.541389 0.638889 0.281389
0.588465 0.653465 0.295965
0.635541 0.668041 0.310541
0.682617 0.682617 0.325117
0.729694 0.697194 0.339694
0.776770 0.711770 0.354270
0.823846 0.726346 0.368846
0.870923 0.740922 0.383422
0.917999 0.755499 0.397999
0.193395 0.583395 0.193395
0.240471 0.597971 0.207971
0.287547 0.612547 0.222547
0.334624 0.627124 0.237124
0.381700 0.641700 0.251700
0.428776 0.656276 0.266276
0.475853 0.670853 0.280852
0.522929 0.685429 0.295429
0.570005 0.700005 0.310005
0.617081 0.714581 0.324581
0.664157 0.729157 0.339157
0.711234 0.743734 0.353734
0.758310 0.758310 0.368310
0.805386 0.772886 0.382886
0.852463 0.787462 0.397463
0.899539 0.802039 0.412039
0.946615 0.816615 0.426615
0.222011 0.644511 0.222011
0.269087 0.659088 0.236587
0.316164 0.673664 0.251164
0.363240 0.688240 0.265740
0.410316 0.702816 0.280316
0.457392 0.717392 0.294893
0.504469 0.731969 0.309469
0.551545 0.746545 0.324045
0.598621 0.761121 0.338621
0.645697 0.775698 0.353197
0.692774 0.790274 0.367774
0.739850 0.804850 0.382350
0.786926 0.819426 0.396926
0.834002 0.834002 0.411502
0.881079 0.848579 0.426079
0.928155 0.863155 0.440655
0.975231 0.877731 0.455231
0.250627 0.705627 0.250627
0.297704 0.720204 0.265204
0.344780 0.734780 0.279780
0.391856 0.749356 0.294356
0.438933 0.763933 0.308932
0.486009 0.778509 0.323509
0.533085 0.793085 0.338085
0.580161 0.807661 0.352661
0.627237 0.822237 0.367237
0.674314 0.836814 0.381814
0.721390 0.851390 0.396390
0.768466 0.865966 0.410966
0.815543 0.880543 0.425543
0.862619 0.895119 0.440119
0.909695 0.909695 0.454695
0.956771 0.924271 0.469271
1.000000 0.938847 0.483847
0.279244 0.766744 0.279244
0.326320 0.781320 0.293820
0.373396 0.795896 0.308396
0.420473 0.810473 0.322972
0.467549 0.825049 0.337549
0.514625 0.839625 0.352125
0.561701 0.854201 0.366701
0.608777 0.868777 0.381277
0.655854 0.883354 0.395854
0.702930 0.897930 0.410430
0.750006 0.912506 0.425006
0.797082 0.927083 0.439582
0.844159 0.941659 0.454159
0.891235 0.956235 0.468735
0.938311 0.970811 0.483311
0.985388 0.985388 0.497887
1.000000 0.999964 0.512464
0.307860 0.827860 0.307860
0.354936 0.842436 0.322436
0.402013 0.857012 0.337012
0.449089 0.871589 0.351589
0.496165 0.886165 0.366165
0.543241 0.900741 0.380741
0.590317 0.915318 0.395317
0.637394 0.929894 0.409894
0.684470 0.944470 0.424470
0.731546 0.959046 0.439046
0.778622 0.973623 0.453622
0.825699 0.988199 0.468199
0.872775 1.000000 0.482775
0.919851 1.000000 0.497351
0.966928 1.000000 0.511927
1.000000 1.000000 0.526504
1.000000 1.000000 0.541080
0.000000 0.000000 0.000000
0.000000 0.000000 0.000000
0.000000 0.000000 0.000000
0.000000 0.000000 0.000000
0.043862 0.000000 0.000000
0.090939 0.000000 0.000000
0.138015 0.000000 0.000000
0.185091 0.000000 0.000000
0.232167 0.000000 0.004667
0.279244 0.000000 0.019244
0.326320 0.001320 0.033820
0.373396 0.015896 0.048396
0.420473 0.030472 0.062972
0.467549 0.045049 0.077549
0.514625 0.059625 0.092125
0.561701 0.074201 0.106701
0.608777 0.088777 0.121277
0.000000 0.000000 0.000000
0.000000 0.000000 0.000000
0.000000 0.000000 0.000000
0.025402 0.000000 0.000000
0.072479 0.000000 0.000000
0.119555 0.000000 0.000000
0.166631 0.004131 0.004131
0.213707 0.018707 0.018707
0.260784 0.033284 0.033284
0.307860 0.047860 0.047860
0.354936 0.062436 0.062436
0.402012 0.077012 0.077012
0.449089 0.091589 0.091589
0.496165 0.106165 0.106165
0.543241 0.120741 0.120741
0.590317 0.135317 0.135317
0.637394 0.149894 0.149894
0.000000 0.000000 0.000000
0.000000 0.000000 0.000000
0.006942 0.006942 0.000000
0.054019 0.021519 0.000000
0.101095 0.036095 0.003595
0.148171 0.050671 0.018171
0.195248 0.065248 0.032747
0.242324 0.079824 0.047324
0.289400 0.094400 0.061900
0.336476 0.108976 0.076476
0.383552 0.123552 0.091052
0.430629 0.138129 0.105629
0.477705 0.152705 0.120205
0.524781 0.167281 0.134781
0.571857 0.181857 0.149357
0.618934 0.196434 0.163934
0.666010 0.211010 0.178510
0.000000 0.038906 0.000000
0.000000 0.053483 0.000000
0.035559 0.068059 0.003059
0.082635 0.082635 0.017635
0.129711 0.097211 0.032211
0.176787 0.111787 0.046787
0.223864 0.126364 0.061364
0.270940 0.140940 0.075940
0.318016 0.155516 0.090516
0.365092 0.170093 0.105092
0.412169 0.184669 0.119669
0.459245 0.199245 0.134245
0.506321 0.213821 0.148821
0.553397 0.228397 0.163397
0.600474 0.242974 0.177974
0.647550 0.257550 0.192550
0.694626 0.272126 0.207126
0.000000 0.100022 0.002522
0.017099 0.114599 0.017099
0.064175 0.129175 0.031675
0.111251 0.143751 0.046251
0.158327 0.158327 0.060827
0.205404 0.172904 0.075404
0.252480 0.187480 0.089980
0.299556 0.202056 0.104556
0.346633 0.216633 0.119133
0.393709 0.231209 0.133709
0.440785 0.245785 0.148285
0.487861 0.260361 0.162861
0.534937 0.274937 0.177437
0.582014 0.289514 0.192014
0.629090 0.304090 0.206590
0.676166 0.318666 0.221166
0.723243 0.333242 0.235742
0.000000 0.161139 0.031139
0.045715 0.175715 0.045715
0.092791 0.190291 0.060291
0.139867 0.204867 0.074867
0.186944 0.219444 0.089444
0.234020 0.234020 0.104020
0.281096 0.248596 0.118596
0.328172 0.263172 0.133172
0.375249 0.277749 0.147749
0.422325 0.292325 0.162325
0.469401 0.306901 0.176901
0.516478 0.321477 0.191477
0.563554 0.336054 0.206054
0.610630 0.350630 0.220630
0.657706 0.365206 0.235206
0.704782 0.379782 0.249782
0.751859 0.394359 0.264359
0.027255 0.222255 0.059755
0.074331 0.236831 0.074331
0.121407 0.251408 0.088908
0.168484 0.265984 0.103484
0.215560 0.280560 0.118060
0.262636 0.295136 0.132636
0.309712 0.309712 0.147212
0.356789 0.324289 0.161789
0.403865 0.338865 0.176365
0.450941 0.353441 0.190941
0.498018 0.368017 0.205517
0.545094 0.382594 0.220094
0.592170 0.397170 0.234670
0.639246 0.411746 0.249246
0.686323 0.426322 0.263822
0.733399 0.440899 0.278399
0.780475 0.455475 0.292975
0.055871 0.283371 0.088371
0.102947 0.297948 0.102947
0.150024 0.312524 0.117524
0.197100 0.327100 0.132100
0.244176 0.341676 0.146676
0.291252 0.356253 0.161252
0.338329 0.370829 0.175829
0.385405 0.385405 0.190405
0.432481 0.399981 0.204981
0.479558 0.414557 0.219557
0.526634 0.429134 0.234134
0.573710 0.443710 0.248710
0.620786 0.458286 0.263286
0.667863 0.472863 0.277863
0.714939 0.487439 0.292439
0.762015 0.502015 0.307015
0.809091 0.516591 0.321591
0.084487 0.344488 0.116987
0.131564 0.359064 0.131564
0.178640 0.373640 0.146140
0.225716 0.388216 0.160716
0.272792 0.402792 0.175292
0.319869 0.417369 0.189869
0.366945 0.431945 0.204445
0.414021 0.446521 0.219021
0.461097 0.461097 0.233597
0.508174 0.475674 0.248174
0.555250 0.490250 0.262750
0.602326 0.504826 0.277326
0.649402 0.519402 0.291902
0.696479 0.533979 0.306479
0.743555 0.548555 0.321055
0.790631 0.563131 0.335631
0.837708 0.577708 0.350208
0.113104 0.405604 0.145604
0.160180 0.420180 0.160180
0.207256 0.434756 0.174756
0.254332 0.449333 0.189332
0.301409 0.463909 0.203909
0.348485 0.478485 0.218485
0.395561 0.493061 0.233061
0.442637 0.507637 0.247637
0.489714 0.522214 0.262214
0.536790 0.536790 0.276790
0.583866 0.551366 0.291366
0.630942 0.565943 0.305942
0.678019 0.580519 0.320519
0.725095 0.595095 0.335095
0.772171 0.609671 0.349671
0.819248 0.624247 0.364248
0.866324 0.638824 0.378824
0.141720 0.466720 0.174220
0.188796 0.481296 0.188796
0.235872 0.495872 0.203372
0.282949 0.510449 0.217949
0.330025 0.525025 0.232525
0.377101 0.539601 0.247101
0.424177 0.554177 0.261678
0.471254 0.568754 0.276254
0.518330 0.583330 0.290830
0.565406 0.597906 0.305406
0.612482 0.612482 0.319982
0.659559 0.627059 0.334559
0.706635 0.641635 0.349135
0.753711 0.656211 0.363711
0.800787 0.670788 0.378287
0.847864 0.685364 0.392864
0.894940 0.699940 0.407440
0.170336 0.527836 0.202836
0.217413 0.542412 0.217413
0.264489 0.556989 0.231989
0.311565 0.571565 0.246565
0.358641 0.586141 0.261141
0.405718 0.600718 0.275718
0.452794 0.615294 0.290294
0.499870 0.629870 0.304870
0.546946 0.644446 0.319446
0.594023 0.659023 0.334022
0.641099 0.673599 0.348599
0.688175 0.688175 0.363175
0.735251 0.702751 0.377751
0.782328 0.717327 0.392327
0.829404 0.731904 0.406904
0.876480 0.746480 0.421480
0.923556 0.761056 0.436056
0.198952 0.588952 0.231452
0.246029 0.603529 0.246029
0.293105 0.618105 0.260605
0.340181 0.632681 0.275181
0.387258 0.647258 0.289758
0.434334 0.661834 0.304334
0.481410 0.676410 0.318910
0.528486 0.690986 0.333486
0.575562 0.705563 0.348063
0.622639 0.720139 0.362639
0.669715 0.734715 0.377215
0.716791 0.749291 0.391791
0.763868 0.763868 0.406367
0.810944 0.778444 0.420944
0.858020 0.793020 0.435520
0.905096 0.807596 0.450096
0.952173 0.822172 0.464672
0.227569 0.650069 0.260069
0.274645 0.664645 0.274645
0.321721 0.679221 0.289221
0.368797 0.693797 0.303797
0.415874 0.708374 0.318374
0.462950 0.722950 0.332950
0.510026 0.737526 0.347526
0.557102 0.752103 0.362102
0.604179 0.766679 0.376679
0.651255 0.781255 0.391255
0.698331 0.795831 0.405831
0.745407 0.810407 0.420407
0.792484 0.824984 0.434984
0.839560 0.839560 0.449560
0.886636 0.854136 0.464136
0.933713 0.868712 0.478713
0.980789 0.883289 0.493289
0.256185 0.711185 0.288685
0.303261 0.725761 0.303261
0.350338 0.740338 0.317838
0.397414 0.754914 0.332414
0.444490 0.769490 0.346990
0.491566 0.784066 0.361566
0.538643 0.798643 0.376142
0.585719 0.813219 0.390719
0.632795 0.827795 0.405295
0.679871 0.842371 0.419871
0.726948 0.856947 0.434447
0.774024 0.871524 0.449024
0.821100 0.886100 0.463600
0.868176 0.900676 0.478176
0.915253 0.915253 0.492752
0.962329 0.929829 0.507329
1.000000 0.944405 0.521905
0.284801 0.772301 0.317301
0.331877 0.786877 0.331877
0.378954 0.801454 0.346454
0.426030 0.816030 0.361030
0.473106 0.830606 0.375606
0.520182 0.845182 0.390182
0.567259 0.859759 0.404759
0.614335 0.874335 0.419335
0.661411 0.888911 0.433911
0.708487 0.903487 0.448487
0.755564 0.918064 0.463064
0.802640 0.932640 0.477640
0.849716 0.947216 0.492216
0.896793 0.961793 0.506793
0.943869 0.976369 0.521369
0.990945 0.990945 0.535945
1.000000 1.000000 0.550521
0.313418 0.833418 0.345917
0.360494 0.847994 0.360494
0.407570 0.862570 0.375070
0.454646 0.877146 0.389646
0.501723 0.891723 0.404222
0.548799 0.906299 0.418799
0.595875 0.920875 0.433375
0.642951 0.935451 0.447951
0.690027 0.950028 0.462527
0.737104 0.964604 0.477104
0.784180 0.979180 0.491680
0.831256 0.993756 0.506256
0.878333 1.000000 0.520832
0.925409 1.000000 0.535409
0.972485 1.000000 0.549985
1.000000 1.000000 0.564561
1.000000 1.000000 0.579137
0.000000 0.000000 0.000000
0.000000 0.000000 0.000000
0.000000 0.000000 0.000000
0.002344 0.000000 0.000000
0.049420 0.000000 0.000000
0.096496 0.000000 0.000000
0.143572 0.000000 0.013572
0.190649 0.000000 0.028149
0.237725 0.000000 0.042725
0.284801 0.000000 0.057301
0.331877 0.006877 0.071878
0.378954 0.021454 0.086454
0.426030 0.036030 0.101030
0.473106 0.050606 0.115606
0.520182 0.065182 0.130182
0.567259 0.079759 0.144759
0.614335 0.094335 0.159335
0.000000 0.000000 0.000000
0.000000 0.000000 0.000000
0.000000 0.000000 0.000000
0.030960 0.000000 0.000000
0.078036 0.000000 0.013036
0.125113 0.000000 0.027612
0.172189 0.009689 0.042189
0.219265 0.024265 0.056765
0.266341 0.038841 0.071341
0.313418 0.053417 0.085917
0.360494 0.067994 0.100494
0.407570 0.082570 0.115070
0.454646 0.097146 0.129646
0.501723 0.111722 0.144222
0.548799 0.126299 0.158799
0.595875 0.140875 0.173375
0.642951 0.155451 0.187951
0.000000 0.000000 0.000000
0.000000 0.000000 0.000000
0.012500 0.012500 0.012500
0.059576 0.027076 0.027076
0.106652 0.041653 0.041653
0.153729 0.056229 0.056229
0.200805 0.070805 0.070805
0.247881 0.085381 0.085381
0.294957 0.099957 0.099957
0.342034 0.114534 0.114534
0.389110 0.129110 0.129110
0.436186 0.143686 0.143686
0.483263 0.158263 0.158263
0.530339 0.172839 0.172839
0.577415 0.187415 0.187415
0.624491 0.201991 0.201991
0.671567 0.216567 0.216567
0.000000 0.044464 0.011964
0.000000 0.059040 0.026540
0.041116 0.073616 0.041116
0.088192 0.088192 0.055692
0.135269 0.102769 0.070269
0.182345 0.117345 0.084845
0.229421 0.131921 0.099421
0.276498 0.146498 0.113997
0.323574 0.161074 0.128574
0.370650 0.175650 0.143150
0.417726 0.190226 0.157726
0.464803 0.204802 0.172302
0.511879 0.219379 0.186879
0.558955 0.233955 0.201455
0.606031 0.248531 0.216031
0.653107 0.263107 0.230607
0.700184 0.277684 0.245184
0.000000 0.105580 0.040580
0.022656 0.120156 0.055156
0.069732 0.134733 0.069732
0.116809 0.149309 0.084309
0.163885 0.163885 0.098885
0.210961 0.178461 0.113461
0.258037 0.193037 0.128037
0.305114 0.207614 0.142614
0.352190 0.222190 0.157190
0.399266 0.236766 0.171766
0.446342 0.251342 0.186342
0.493419 0.265919 0.200919
0.540495 0.280495 0.215495
0.587571 0.295071 0.230071
0.634648 0.309647 0.244647
0.681724 0.324224 0.259224
0.728800 0.338800 0.273800
0.004196 0.166696 0.069196
0.051272 0.181272 0.083773
0.098349 0.195849 0.098349
0.145425 0.210425 0.112925
0.192501 0.225001 0.127501
0.239577 0.239577 0.142077
0.286654 0.254154 0.156654
0.333730 0.268730 0.171230
0.380806 0.283306 0.185806
0.427882 0.297882 0.200382
0.474959 0.312459 0.214959
0.522035 0.327035 0.229535
0.569111 0.341611 0.244111
0.616187 0.356187 0.258687
0.663264 0.370764 0.273264
0.710340 0.385340 0.287840
0.757416 0.399916 0.302416
0.032812 0.227813 0.097812
0.079889 0.242389 0.112389
0.126965 0.256965 0.126965
0.174041 0.271541 0.141541
0.221117 0.286117 0.156117
0.268194 0.300694 0.170694
0.315270 0.315270 0.185270
0.362346 0.329846 0.199846
0.409422 0.344422 0.214422
0.456499 0.358999 0.228999
0.503575 0.373575 0.243575
0.550651 0.388151 0.258151
0.597727 0.402727 0.272728
0.644804 0.417304 0.287304
0.691880 0.431880 0.301880
0.738956 0.446456 0.316456
0.786032 0.461032 0.331032
0.061429 0.288929 0.126429
0.108505 0.303505 0.141005
0.155581 0.318081 0.155581
0.202657 0.332658 0.170158
0.249734 0.347234 0.184734
0.296810 0.361810 0.199310
0.343886 0.376386 0.213886
0.390962 0.390962 0.228462
0.438039 0.405539 0.243039
0.485115 0.420115 0.257615
0.532191 0.434691 0.272191
0.579268 0.449267 0.286767
0.626344 0.463844 0.301344
0.673420 0.478420 0.315920
0.720496 0.492996 0.330496
0.767572 0.507572 0.345072
0.814649 0.522149 0.359649
0.090045 0.350045 0.155045
0.137121 0.364621 0.169621
0.184197 0.379197 0.184197
0.231274 0.393774 0.198774
0.278350 0.408350 0.213350
0.325426 0.422926 0.227926
0.372502 0.437503 0.242503
0.419579 0.452079 0.257079
0.466655 0.466655 0.271655
0.513731 0.481231 0.286231
0.560808 0.495807 0.300807
0.607884 0.510384 0.315384
0.654960 0.524960 0.329960
0.702036 0.539536 0.344536
0.749112 0.554113 0.359113
0.796189 0.568689 0.373689
0.843265 0.583265 0.388265
0.118661 0.411161 0.183661
0.165737 0.425737 0.198237
0.212814 0.440314 0.212814
0.259890 0.454890 0.227390
0.306966 0.469466 0.241966
0.354042 0.484042 0.256542
0.401119 0.498619 0.271119
0.448195 0.513195 0.285695
0.495271 0.527771 0.300271
0.542347 0.542347 0.314847
0.589424 0.556924 0.329424
0.636500 0.571500 0.344000
0.683576 0.586076 0.358576
0.730652 0.600652 0.373152
0.777729 0.615229 0.387729
0.824805 0.629805 0.402305
0.871881 0.644381 0.416881
0.147277 0.472277 0.212277
0.194354 0.486854 0.226854
0.241430 0.501430 0.241430
0.288506 0.516006 0.256006
0.335582 0.530582 0.270582
0.382659 0.545159 0.285159
0.429735 0.559735 0.299735
0.476811 0.574311 0.314311
0.523887 0.588888 0.328887
0.570964 0.603464 0.343464
0.618040 0.618040 0.358040
0.665116 0.632616 0.372616
0.712193 0.647192 0.387192
0.759269 0.661769 0.401769
0.806345 0.676345 0.416345
0.853421 0.690921 0.430921
0.900497 0.705497 0.445497
0.175894 0.533394 0.240894
0.222970 0.547970 0.255470
0.270046 0.562546 0.270046
0.317122 0.577122 0.284623
0.364199 0.591699 0.299199
0.411275 0.606275 0.313775
0.458351 0.620851 0.328351
0.505428 0.635428 0.342928
0.552504 0.650004 0.357504
0.599580 0.664580 0.372080
0.646656 0.679156 0.386656
0.693732 0.693732 0.401232
0.740809 0.708309 0.415809
0.787885 0.722885 0.430385
0.834961 0.737461 0.444961
0.882038 0.752038 0.459537
0.929114 0.766614 0.474114
0.204510 0.594510 0.269510
0.251586 0.609086 0.284086
0.298662 0.623663 0.298662
0.345739 0.638239 0.313239
0.392815 0.652815 0.327815
0.439891 0.667391 0.342391
0.486967 0.681967 0.356967
0.534044 0.696544 0.371544
0.581120 0.711120 0.386120
0.628196 0.725696 0.400696
0.675272 0.740272 0.415272
0.722349 0.754849 0.429849
0.769425 0.769425 0.444425
0.816501 0.784001 0.459001
0.863577 0.798577 0.473577
0.910654 0.813154 0.488154
0.957730 0.827730 0.502730
0.233126 0.655626 0.298126
0.280202 0.670202 0.312702
0.327279 0.684779 0.327279
0.374355 0.699355 0.341855
0.421431 0.713931 0.356431
0.468507 0.728508 0.371007
0.515584 0.743084 0.385584
0.562660 0.757660 0.400160
0.609736 0.772236 0.414736
0.656813 0.786812 0.429312
0.703889 0.801389 0.443889
0.750965 0.815965 0.458465
0.798041 0.830541 0.473041
0.845117 0.845117 0.487617
0.892194 0.859694 0.502194
0.939270 0.874270 0.516770
0.986346 0.888846 0.531346
0.261742 0.716743 0.326742
0.308819 0.731319 0.341319
0.355895 0.745895 0.355895
0.402971 0.760471 0.370471
0.450047 0.775047 0.385047
0.497124 0.789624 0.399624
0.544200 0.804200 0.414200
0.591276 0.818776 0.428776
0.638352 0.833353 0.443352
0.685429 0.847929 0.457929
0.732505 0.862505 0.472505
0.779581 0.877081 0.487081
0.826658 0.891658 0.501658
0.873734 0.906234 0.516234
0.920810 0.920810 0.530810
0.967886 0.935386 0.545386
1.000000 0.949962 0.559962
0.290359 0.777859 0.355359
0.337435 0.792435 0.369935
0.384511 0.807011 0.384511
0.431587 0.821588 0.399087
0.478664 0.836164 0.413664
0.525740 0.850740 0.428240
0.572816 0.865316 0.442816
0.619892 0.879892 0.457392
0.666969 0.894469 0.471969
0.714045 0.909045 0.486545
0.761121 0.923621 0.501121
0.808197 0.938198 0.515697
0.855274 0.952774 0.530274
0.902350 0.967350 0.544850
0.949426 0.981926 0.559426
0.996502 0.996502 0.574002
1.000000 1.000000 0.588579
0.318975 0.838975 0.383975
0.366051 0.853551 0.398551
0.413127 0.868127 0.413127
0.460204 0.882704 0.427704
0.507280 0.897280 0.442280
0.554356 0.911856 0.456856
0.601433 0.926432 0.471432
0.648509 0.941009 0.486009
0.695585 0.955585 0.500585
0.742661 0.970161 0.515161
0.789737 0.984737 0.529737
0.836814 0.999314 0.544314
0.883890 1.000000 0.558890
0.930966 1.000000 0.573466
0.978042 1.000000 0.588043
1.000000 1.000000 0.602619
1.000000 1.000000 0.617195
0.000000 0.000000 0.000000
0.000000 0.000000 0.000000
0.000000 0.000000 0.000000
0.007901 0.000000 0.007901
0.054978 0.000000 0.022477
0.102054 0.000000 0.037054
0.149130 0.000000 0.051630
0.196206 0.000000 0.066206
0.243283 0.000000 0.080782
0.290359 0.000000 0.095359
0.337435 0.012435 0.109935
0.384511 0.027011 0.124511
0.431588 0.041588 0.139087
0.478664 0.056164 0.153664
0.525740 0.070740 0.168240
0.572816 0.085316 0.182816
0.619892 0.099892 0.197392
0.000000 0.000000 0.000000
0.000000 0.000000 0.007365
0.000000 0.000000 0.021941
0.036518 0.000000 0.036518
