Tools/LUT_Grading_MCP/src/lut_grading_mcp/luts/cinematic_teal_orange.cube
LUT_3D_SIZE 9
0.000000 0.020000 0.150000
0.078737 0.018505 0.138788
0.207475 0.017010 0.127575
0.336213 0.015515 0.116362
0.464950 0.014020 0.105150
0.593688 0.012525 0.093937
0.722425 0.011030 0.082725
0.851163 0.009535 0.071512
0.979900 0.008040 0.060300
0.000000 0.142065 0.127988
0.086075 0.140570 0.116775
0.214812 0.139075 0.105562
0.343550 0.137580 0.094350
0.472287 0.136085 0.083138
0.601025 0.134590 0.071925
0.729762 0.133095 0.060712
0.858500 0.131600 0.049500
0.987237 0.130105 0.038287
0.000000 0.264130 0.105975
0.093412 0.262635 0.094762
0.222150 0.261140 0.083550
0.350888 0.259645 0.072338
0.479625 0.258150 0.061125
0.608363 0.256655 0.049913
0.737100 0.255160 0.038700
0.865838 0.253665 0.027488
0.994575 0.252170 0.016275
0.000000 0.386195 0.083962
0.100750 0.384700 0.072750
0.229488 0.383205 0.061537
0.358225 0.381710 0.050325
0.486963 0.380215 0.039113
0.615700 0.378720 0.027900
0.744437 0.377225 0.016688
0.873175 0.375730 0.005475
1.000000 0.375000 0.000000
0.000000 0.508260 0.061950
0.108088 0.506765 0.050738
0.236825 0.505270 0.039525
0.365563 0.503775 0.028312
0.494300 0.502280 0.017100
0.623038 0.500785 0.005888
0.755325 0.500000 0.000000
0.891537 0.500000 0.000000
1.000000 0.500000 0.000000
0.000000 0.630325 0.039938
0.115425 0.628830 0.028725
0.244163 0.627335 0.017513
0.372900 0.625840 0.006300
0.504912 0.625000 0.000000
0.641125 0.625000 0.000000
0.777338 0.625000 0.000000
0.913550 0.625000 0.000000
1.000000 0.625000 0.000000
0.000000 0.752390 0.017925
0.122762 0.750895 0.006713
0.254500 0.750000 0.000000
0.390712 0.750000 0.000000
0.526925 0.750000 0.000000
0.663137 0.750000 0.000000
0.799350 0.750000 0.000000
0.935562 0.750000 0.000000
1.000000 0.750000 0.000000
0.004087 0.875000 0.000000
0.140300 0.875000 0.000000
0.276512 0.875000 0.000000
0.412725 0.875000 0.000000
0.548937 0.875000 0.000000
0.685150 0.875000 0.000000
0.821362 0.875000 0.000000
0.957575 0.875000 0.000000
1.000000 0.875000 0.000000
0.026100 1.000000 0.000000
0.162312 1.000000 0.000000
0.298525 1.000000 0.000000
0.434737 1.000000 0.000000
0.570950 1.000000 0.000000
0.707163 1.000000 0.000000
0.843375 1.000000 0.000000
0.979587 1.000000 0.000000
1.000000 1.000000 0.000000
0.000000 0.019430 0.270725
0.080162 0.017935 0.259513
0.208900 0.016440 0.248300
0.337637 0.014945 0.237088
0.466375 0.013450 0.225875
0.595113 0.011955 0.214662
0.723850 0.010460 0.203450
0.852588 0.008965 0.192238
0.981325 0.007470 0.181025
0.000000 0.141495 0.248713
0.087500 0.140000 0.237500
0.216237 0.138505 0.226287
0.344975 0.137010 0.215075
0.473712 0.135515 0.203863
0.602450 0.134020 0.192650
0.731187 0.132525 0.181438
0.859925 0.131030 0.170225
0.988662 0.129535 0.159013
0.000000 0.263560 0.226700
0.094837 0.262065 0.215487
0.223575 0.260570 0.204275
0.352312 0.259075 0.193063
0.481050 0.257580 0.181850
0.609788 0.256085 0.170638
0.738525 0.254590 0.159425
0.867263 0.253095 0.148212
0.996000 0.251600 0.137000
0.000000 0.385625 0.204687
0.102175 0.384130 0.193475
0.230912 0.382635 0.182262
0.359650 0.381140 0.171050
0.488387 0.379645 0.159838
0.617125 0.378150 0.148625
0.745862 0.376655 0.137413
0.874600 0.375160 0.126200
1.000000 0.375000 0.120995
0.000000 0.507690 0.182675
0.109512 0.506195 0.171463
0.238250 0.504700 0.160250
0.366988 0.503205 0.149037
0.495725 0.501710 0.137825
0.624463 0.500215 0.126613
0.759600 0.500000 0.121160
0.895813 0.500000 0.116675
1.000000 0.500000 0.112190
0.000000 0.629755 0.160663
0.116850 0.628260 0.149450
0.245587 0.626765 0.138238
0.374325 0.625270 0.127025
0.509188 0.625000 0.121325
0.645400 0.625000 0.116840
0.781612 0.625000 0.112355
0.917825 0.625000 0.107870
1.000000 0.625000 0.103385
0.000000 0.751820 0.138650
0.124187 0.750325 0.127438
0.258775 0.750000 0.121490
0.394987 0.750000 0.117005
0.531200 0.750000 0.112520
0.667412 0.750000 0.108035
0.803625 0.750000 0.103550
0.939837 0.750000 0.099065
1.000000 0.750000 0.094580
0.008362 0.875000 0.121655
0.144575 0.875000 0.117170
0.280787 0.875000 0.112685
0.417000 0.875000 0.108200
0.553212 0.875000 0.103715
0.689425 0.875000 0.099230
0.825638 0.875000 0.094745
0.961850 0.875000 0.090260
1.000000 0.875000 0.085775
0.030375 1.000000 0.112850
0.166587 1.000000 0.108365
0.302800 1.000000 0.103880
0.439012 1.000000 0.099395
0.575225 1.000000 0.094910
0.711437 1.000000 0.090425
0.847650 1.000000 0.085940
0.983862 1.000000 0.081455
1.000000 1.000000 0.076970
0.000000 0.018860 0.391450
0.081588 0.017365 0.380238
0.210325 0.015870 0.369025
0.339062 0.014375 0.357812
0.467800 0.012880 0.346600
0.596537 0.011385 0.335388
0.725275 0.009890 0.324175
0.854012 0.008395 0.312962
0.982750 0.006900 0.301750
0.000000 0.140925 0.369437
0.088925 0.139430 0.358225
0.217663 0.137935 0.347013
0.346400 0.136440 0.335800
0.475137 0.134945 0.324587
0.603875 0.133450 0.313375
0.732612 0.131955 0.302163
0.861350 0.130460 0.290950
0.990088 0.128965 0.279737
0.000000 0.262990 0.347425
0.096263 0.261495 0.336213
0.225000 0.260000 0.325000
0.353737 0.258505 0.313787
0.482475 0.257010 0.302575
0.611213 0.255515 0.291363
0.739950 0.254020 0.280150
0.868688 0.252525 0.268937
0.997425 0.251030 0.257725
0.000000 0.385055 0.325412
0.103600 0.383560 0.314200
0.232338 0.382065 0.302987
0.361075 0.380570 0.291775
0.489812 0.379075 0.280562
0.618550 0.377580 0.269350
0.747287 0.376085 0.258138
0.878075 0.375000 0.248770
1.000000 0.375000 0.244285
0.000000 0.507120 0.303400
0.110937 0.505625 0.292187
0.239675 0.504130 0.280975
0.368413 0.502635 0.269763
0.497150 0.501140 0.258550
0.627663 0.500000 0.248935
0.763875 0.500000 0.244450
0.900087 0.500000 0.239965
1.000000 0.500000 0.235480
0.000000 0.629185 0.281388
0.118275 0.627690 0.270175
0.247012 0.626195 0.258962
0.377250 0.625000 0.249100
0.513462 0.625000 0.244615
0.649675 0.625000 0.240130
0.785887 0.625000 0.235645
0.922100 0.625000 0.231160
1.000000 0.625000 0.226675
0.000000 0.751250 0.259375
0.126837 0.750000 0.249265
0.263050 0.750000 0.244780
0.399262 0.750000 0.240295
0.535475 0.750000 0.235810
0.671687 0.750000 0.231325
0.807900 0.750000 0.226840
0.944113 0.750000 0.222355
1.000000 0.750000 0.217870
0.012637 0.875000 0.244945
0.148850 0.875000 0.240460
0.285062 0.875000 0.235975
0.421275 0.875000 0.231490
0.557488 0.875000 0.227005
0.693700 0.875000 0.222520
0.829913 0.875000 0.218035
0.966125 0.875000 0.213550
1.000000 0.875000 0.209065
0.034650 1.000000 0.236140
0.170863 1.000000 0.231655
0.307075 1.000000 0.227170
0.443288 1.000000 0.222685
0.579500 1.000000 0.218200
0.715712 1.000000 0.213715
0.851925 1.000000 0.209230
0.988138 1.000000 0.204745
1.000000 1.000000 0.200260
0.000000 0.018290 0.512175
0.083012 0.016795 0.500962
0.211750 0.015300 0.489750
0.340487 0.013805 0.478538
0.469225 0.012310 0.467325
0.597962 0.010815 0.456113
0.726700 0.009320 0.444900
0.855437 0.007825 0.433688
0.984175 0.006330 0.422475
0.000000 0.140355 0.490163
0.090350 0.138860 0.478950
0.219087 0.137365 0.467737
0.347825 0.135870 0.456525
0.476562 0.134375 0.445312
0.605300 0.132880 0.434100
0.734038 0.131385 0.422887
0.862775 0.129890 0.411675
0.991513 0.128395 0.400462
0.000000 0.262420 0.468150
0.097687 0.260925 0.456937
0.226425 0.259430 0.445725
0.355162 0.257935 0.434513
0.483900 0.256440 0.423300
0.612637 0.254945 0.412087
0.741375 0.253450 0.400875
0.870112 0.251955 0.389663
0.998850 0.250460 0.378450
0.000000 0.384485 0.446138
0.105025 0.382990 0.434925
0.233763 0.381495 0.423712
0.362500 0.380000 0.412500
0.491237 0.378505 0.401288
0.619975 0.377010 0.390075
0.748713 0.375515 0.378862
0.882350 0.375000 0.372060
1.000000 0.375000 0.367575
0.000000 0.506550 0.424125
0.112363 0.505055 0.412913
0.241100 0.503560 0.401700
0.369837 0.502065 0.390487
0.498575 0.500570 0.379275
0.631938 0.500000 0.372225
0.768150 0.500000 0.367740
0.904362 0.500000 0.363255
1.000000 0.500000 0.358770
0.000000 0.628615 0.402112
0.119700 0.627120 0.390900
0.248438 0.625625 0.379688
0.381525 0.625000 0.372390
0.517737 0.625000 0.367905
0.653950 0.625000 0.363420
0.790162 0.625000 0.358935
0.926375 0.625000 0.354450
1.000000 0.625000 0.349965
0.000000 0.750680 0.380100
0.131112 0.750000 0.372555
0.267325 0.750000 0.368070
0.403537 0.750000 0.363585
0.539750 0.750000 0.359100
0.675963 0.750000 0.354615
0.812175 0.750000 0.350130
0.948387 0.750000 0.345645
1.000000 0.750000 0.341160
0.016912 0.875000 0.368235
0.153125 0.875000 0.363750
0.289337 0.875000 0.359265
0.425550 0.875000 0.354780
0.561762 0.875000 0.350295
0.697975 0.875000 0.345810
0.834187 0.875000 0.341325
0.970400 0.875000 0.336840
1.000000 0.875000 0.332355
0.038925 1.000000 0.359430
0.175138 1.000000 0.354945
0.311350 1.000000 0.350460
0.447562 1.000000 0.345975
0.583775 1.000000 0.341490
0.719988 1.000000 0.337005
0.856200 1.000000 0.332520
0.992412 1.000000 0.328035
1.000000 1.000000 0.323550
0.000000 0.017720 0.632900
0.084437 0.016225 0.621687
0.213175 0.014730 0.610475
0.341913 0.013235 0.599263
0.470650 0.011740 0.588050
0.599387 0.010245 0.576838
0.728125 0.008750 0.565625
0.856862 0.007255 0.554412
0.985600 0.005760 0.543200
0.000000 0.139785 0.610888
0.091775 0.138290 0.599675
0.220513 0.136795 0.588462
0.349250 0.135300 0.577250
0.477988 0.133805 0.566037
0.606725 0.132310 0.554825
0.735463 0.130815 0.543612
0.864200 0.129320 0.532400
0.992938 0.127825 0.521188
0.000000 0.261850 0.588875
0.099112 0.260355 0.577662
0.227850 0.258860 0.566450
0.356588 0.257365 0.555238
0.485325 0.255870 0.544025
0.614062 0.254375 0.532813
0.742800 0.252880 0.521600
0.871537 0.251385 0.510387
1.000000 0.250000 0.499670
0.000000 0.383915 0.566863
0.106450 0.382420 0.555650
0.235187 0.380925 0.544438
0.363925 0.379430 0.533225
0.492663 0.377935 0.522012
0.621400 0.376440 0.510800
0.750413 0.375000 0.499835
0.886625 0.375000 0.495350
1.000000 0.375000 0.490865
0.000000 0.505980 0.544850
0.113787 0.504485 0.533637
0.242525 0.502990 0.522425
0.371262 0.501495 0.511212
0.500000 0.500000 0.500000
0.636213 0.500000 0.495515
0.772425 0.500000 0.491030
0.908637 0.500000 0.486545
1.000000 0.500000 0.482060
0.000000 0.628045 0.522838
0.121125 0.626550 0.511625
0.249862 0.625055 0.500413
0.385800 0.625000 0.495680
0.522012 0.625000 0.491195
0.658225 0.625000 0.486710
0.794438 0.625000 0.482225
0.930650 0.625000 0.477740
1.000000 0.625000 0.473255
0.000000 0.750110 0.500825
0.135387 0.750000 0.495845
0.271600 0.750000 0.491360
0.407813 0.750000 0.486875
0.544025 0.750000 0.482390
0.680238 0.750000 0.477905
0.816450 0.750000 0.473420
0.952662 0.750000 0.468935
1.000000 0.750000 0.464450
0.021188 0.875000 0.491525
0.157400 0.875000 0.487040
0.293612 0.875000 0.482555
0.429825 0.875000 0.478070
0.566037 0.875000 0.473585
0.702250 0.875000 0.469100
0.838462 0.875000 0.464615
0.974675 0.875000 0.460130
1.000000 0.875000 0.455645
0.043200 1.000000 0.482720
0.179413 1.000000 0.478235
0.315625 1.000000 0.473750
0.451838 1.000000 0.469265
0.588050 1.000000 0.464780
0.724263 1.000000 0.460295
0.860475 1.000000 0.455810
0.996687 1.000000 0.451325
1.000000 1.000000 0.446840
0.000000 0.017150 0.753625
0.085862 0.015655 0.742413
0.214600 0.014160 0.731200
0.343338 0.012665 0.719988
0.472075 0.011170 0.708775
0.600812 0.009675 0.697562
0.729550 0.008180 0.686350
0.858287 0.006685 0.675137
0.987025 0.005190 0.663925
0.000000 0.139215 0.731612
0.093200 0.137720 0.720400
0.221938 0.136225 0.709187
0.350675 0.134730 0.697975
0.479413 0.133235 0.686763
0.608150 0.131740 0.675550
0.736888 0.130245 0.664338
0.865625 0.128750 0.653125
0.994363 0.127255 0.641912
0.000000 0.261280 0.709600
0.100538 0.259785 0.698387
0.229275 0.258290 0.687175
0.358013 0.256795 0.675963
0.486750 0.255300 0.664750
0.615487 0.253805 0.653537
0.744225 0.252310 0.642325
0.872962 0.250815 0.631112
1.000000 0.250000 0.622960
0.000000 0.383345 0.687588
0.107875 0.381850 0.676375
0.236613 0.380355 0.665162
0.365350 0.378860 0.653950
0.494088 0.377365 0.642737
0.622825 0.375870 0.631525
0.754687 0.375000 0.623125
0.890900 0.375000 0.618640
1.000000 0.375000 0.614155
0.000000 0.505410 0.665575
0.115212 0.503915 0.654362
0.243950 0.502420 0.643150
0.372688 0.500925 0.631938
0.504275 0.500000 0.623290
0.640487 0.500000 0.618805
0.776700 0.500000 0.614320
0.912913 0.500000 0.609835
1.000000 0.500000 0.605350
0.000000 0.627475 0.643563
0.122550 0.625980 0.632350
0.253862 0.625000 0.623455
0.390075 0.625000 0.618970
0.526288 0.625000 0.614485
0.662500 0.625000 0.610000
0.798712 0.625000 0.605515
0.934925 0.625000 0.601030
1.000000 0.625000 0.596545
0.003450 0.750000 0.623620
0.139662 0.750000 0.619135
0.275875 0.750000 0.614650
0.412087 0.750000 0.610165
0.548300 0.750000 0.605680
0.684512 0.750000 0.601195
0.820725 0.750000 0.596710
0.956937 0.750000 0.592225
1.000000 0.750000 0.587740
0.025463 0.875000 0.614815
0.161675 0.875000 0.610330
0.297888 0.875000 0.605845
0.434100 0.875000 0.601360
0.570312 0.875000 0.596875
0.706525 0.875000 0.592390
0.842738 0.875000 0.587905
0.978950 0.875000 0.583420
1.000000 0.875000 0.578935
0.047475 1.000000 0.606010
0.183688 1.000000 0.601525
0.319900 1.000000 0.597040
0.456113 1.000000 0.592555
0.592325 1.000000 0.588070
0.728538 1.000000 0.583585
0.864750 1.000000 0.579100
1.000000 1.000000 0.574615
1.000000 1.000000 0.570130
0.000000 0.016580 0.874350
0.087287 0.015085 0.863138
0.216025 0.013590 0.851925
0.344762 0.012095 0.840712
0.473500 0.010600 0.829500
0.602237 0.009105 0.818288
0.730975 0.007610 0.807075
0.859712 0.006115 0.795863
0.988450 0.004620 0.784650
0.000000 0.138645 0.852337
0.094625 0.137150 0.841125
0.223362 0.135655 0.829912
0.352100 0.134160 0.818700
0.480838 0.132665 0.807488
0.609575 0.131170 0.796275
0.738313 0.129675 0.785062
0.867050 0.128180 0.773850
0.995788 0.126685 0.762637
0.000000 0.260710 0.830325
0.101962 0.259215 0.819113
0.230700 0.257720 0.807900
0.359438 0.256225 0.796687
0.488175 0.254730 0.785475
0.616912 0.253235 0.774262
0.745650 0.251740 0.763050
0.874387 0.250245 0.751838
1.000000 0.250000 0.746250
0.000000 0.382775 0.808312
0.109300 0.381280 0.797100
0.238038 0.379785 0.785887
0.366775 0.378290 0.774675
0.495513 0.376795 0.763463
0.624250 0.375300 0.752250
0.758962 0.375000 0.746415
0.895175 0.375000 0.741930
1.000000 0.375000 0.737445
0.000000 0.504840 0.786300
0.116638 0.503345 0.775088
0.245375 0.501850 0.763875
0.374113 0.500355 0.752663
0.508550 0.500000 0.746580
0.644763 0.500000 0.742095
0.780975 0.500000 0.737610
0.917188 0.500000 0.733125
1.000000 0.500000 0.728640
0.000000 0.626905 0.764288
0.123975 0.625410 0.753075
0.258137 0.625000 0.746745
0.394350 0.625000 0.742260
0.530562 0.625000 0.737775
0.666775 0.625000 0.733290
0.802987 0.625000 0.728805
0.939200 0.625000 0.724320
1.000000 0.625000 0.719835
0.007725 0.750000 0.746910
0.143937 0.750000 0.742425
0.280150 0.750000 0.737940
0.416362 0.750000 0.733455
0.552575 0.750000 0.728970
0.688787 0.750000 0.724485
0.825000 0.750000 0.720000
0.961213 0.750000 0.715515
1.000000 0.750000 0.711030
0.029738 0.875000 0.738105
0.165950 0.875000 0.733620
0.302163 0.875000 0.729135
0.438375 0.875000 0.724650
0.574588 0.875000 0.720165
0.710800 0.875000 0.715680
0.847013 0.875000 0.711195
0.983225 0.875000 0.706710
1.000000 0.875000 0.702225
0.051750 1.000000 0.729300
0.187963 1.000000 0.724815
0.324175 1.000000 0.720330
0.460388 1.000000 0.715845
0.596600 1.000000 0.711360
0.732812 1.000000 0.706875
0.869025 1.000000 0.702390
1.000000 1.000000 0.697905
1.000000 1.000000 0.693420
0.000000 0.016010 0.995075
0.088712 0.014515 0.983862
0.217450 0.013020 0.972650
0.346187 0.011525 0.961437
0.474925 0.010030 0.950225
0.603662 0.008535 0.939013
0.732400 0.007040 0.927800
0.861138 0.005545 0.916587
0.989875 0.004050 0.905375
0.000000 0.138075 0.973063
0.096050 0.136580 0.961850
0.224788 0.135085 0.950638
0.353525 0.133590 0.939425
0.482262 0.132095 0.928212
0.611000 0.130600 0.917000
0.739738 0.129105 0.905787
0.868475 0.127610 0.894575
0.997213 0.126115 0.883363
0.000000 0.260140 0.951050
0.103387 0.258645 0.939837
0.232125 0.257150 0.928625
0.360862 0.255655 0.917412
0.489600 0.254160 0.906200
0.618337 0.252665 0.894988
0.747075 0.251170 0.883775
0.877437 0.250000 0.874025
1.000000 0.250000 0.869540
0.000000 0.382205 0.929037
0.110725 0.380710 0.917825
0.239462 0.379215 0.906613
0.368200 0.377720 0.895400
0.496937 0.376225 0.884188
0.627025 0.375000 0.874190
0.763238 0.375000 0.869705
0.899450 0.375000 0.865220
1.000000 0.375000 0.860735
0.000000 0.504270 0.907025
0.118063 0.502775 0.895813
0.246800 0.501280 0.884600
0.376613 0.500000 0.874355
0.512825 0.500000 0.869870
0.649038 0.500000 0.865385
0.785250 0.500000 0.860900
0.921462 0.500000 0.856415
1.000000 0.500000 0.851930
0.000000 0.626335 0.885012
0.126200 0.625000 0.874520
0.262412 0.625000 0.870035
0.398625 0.625000 0.865550
0.534837 0.625000 0.861065
0.671050 0.625000 0.856580
0.807262 0.625000 0.852095
0.943475 0.625000 0.847610
1.000000 0.625000 0.843125
0.012000 0.750000 0.870200
0.148212 0.750000 0.865715
0.284425 0.750000 0.861230
0.420637 0.750000 0.856745
0.556850 0.750000 0.852260
0.693063 0.750000 0.847775
0.829275 0.750000 0.843290
0.965488 0.750000 0.838805
1.000000 0.750000 0.834320
0.034013 0.875000 0.861395
0.170225 0.875000 0.856910
0.306437 0.875000 0.852425
0.442650 0.875000 0.847940
0.578862 0.875000 0.843455
0.715075 0.875000 0.838970
0.851287 0.875000 0.834485
0.987500 0.875000 0.830000
1.000000 0.875000 0.825515
0.056025 1.000000 0.852590
0.192238 1.000000 0.848105
0.328450 1.000000 0.843620
0.464662 1.000000 0.839135
0.600875 1.000000 0.834650
0.737088 1.000000 0.830165
0.873300 1.000000 0.825680
1.000000 1.000000 0.821195
1.000000 1.000000 0.816710
0.000000 0.015440 1.000000
0.090138 0.013945 1.000000
0.218875 0.012450 1.000000
0.347612 0.010955 1.000000
0.476350 0.009460 1.000000
0.605088 0.007965 1.000000
0.733825 0.006470 1.000000
0.862563 0.004975 1.000000
0.991300 0.003480 1.000000
0.000000 0.137505 1.000000
0.097475 0.136010 1.000000
0.226212 0.134515 1.000000
0.354950 0.133020 1.000000
0.483687 0.131525 1.000000
0.612425 0.130030 1.000000
0.741162 0.128535 1.000000
0.869900 0.127040 1.000000
0.998637 0.125545 1.000000
0.000000 0.259570 1.000000
0.104813 0.258075 1.000000
0.233550 0.256580 1.000000
0.362287 0.255085 1.000000
0.491025 0.253590 1.000000
0.619762 0.252095 1.000000
0.748500 0.250600 1.000000
0.881713 0.250000 0.997315
1.000000 0.250000 0.992830
0.000000 0.381635 1.000000
0.112150 0.380140 1.000000
0.240888 0.378645 1.000000
0.369625 0.377150 1.000000
0.498362 0.375655 1.000000
0.631300 0.375000 0.997480
0.767513 0.375000 0.992995
0.903725 0.375000 0.988510
1.000000 0.375000 0.984025
0.000000 0.503700 1.000000
0.119487 0.502205 1.000000
0.248225 0.500710 1.000000
0.380887 0.500000 0.997645
0.517100 0.500000 0.993160
0.653312 0.500000 0.988675
0.789525 0.500000 0.984190
0.925737 0.500000 0.979705
1.000000 0.500000 0.975220
0.000000 0.625765 1.000000
0.130475 0.625000 0.997810
0.266687 0.625000 0.993325
0.402900 0.625000 0.988840
0.539112 0.625000 0.984355
0.675325 0.625000 0.979870
0.811538 0.625000 0.975385
0.947750 0.625000 0.970900
1.000000 0.625000 0.966415
0.016275 0.750000 0.993490
0.152487 0.750000 0.989005
0.288700 0.750000 0.984520
0.424912 0.750000 0.980035
0.561125 0.750000 0.975550
0.697337 0.750000 0.971065
0.833550 0.750000 0.966580
0.969762 0.750000 0.962095
1.000000 0.750000 0.957610
0.038287 0.875000 0.984685
0.174500 0.875000 0.980200
0.310713 0.875000 0.975715
0.446925 0.875000 0.971230
0.583137 0.875000 0.966745
0.719350 0.875000 0.962260
0.855563 0.875000 0.957775
0.991775 0.875000 0.953290
1.000000 0.875000 0.948805
0.060300 1.000000 0.975880
0.196512 1.000000 0.971395
0.332725 1.000000 0.966910
0.468938 1.000000 0.962425
0.605150 1.000000 0.957940
0.741362 1.000000 0.953455
0.877575 1.000000 0.948970
1.000000 1.000000 0.944485
1.000000 1.000000 0.940000
