Tools/LUT_Grading_MCP/src/lut_grading_mcp/luts/cinematic_teal_orange.cube
LUT_3D_SIZE 5
0.000000 0.020000 0.150000
0.207475 0.017010 0.127575
0.464950 0.014020 0.105150
0.722425 0.011030 0.082725
0.979900 0.008040 0.060300
0.000000 0.264130 0.105975
0.222150 0.261140 0.083550
0.479625 0.258150 0.061125
0.737100 0.255160 0.038700
0.994575 0.252170 0.016275
0.000000 0.508260 0.061950
0.236825 0.505270 0.039525
0.494300 0.502280 0.017100
0.755325 0.500000 0.000000
1.000000 0.500000 0.000000
0.000000 0.752390 0.017925
0.254500 0.750000 0.000000
0.526925 0.750000 0.000000
0.799350 0.750000 0.000000
1.000000 0.750000 0.000000
0.026100 1.000000 0.000000
0.298525 1.000000 0.000000
0.570950 1.000000 0.000000
0.843375 1.000000 0.000000
1.000000 1.000000 0.000000
0.000000 0.018860 0.391450
0.210325 0.015870 0.369025
0.467800 0.012880 0.346600
0.725275 0.009890 0.324175
0.982750 0.006900 0.301750
0.000000 0.262990 0.347425
0.225000 0.260000 0.325000
0.482475 0.257010 0.302575
0.739950 0.254020 0.280150
0.997425 0.251030 0.257725
0.000000 0.507120 0.303400
0.239675 0.504130 0.280975
0.497150 0.501140 0.258550
0.763875 0.500000 0.244450
1.000000 0.500000 0.235480
0.000000 0.751250 0.259375
0.263050 0.750000 0.244780
0.535475 0.750000 0.235810
0.807900 0.750000 0.226840
1.000000 0.750000 0.217870
0.034650 1.000000 0.236140
0.307075 1.000000 0.227170
0.579500 1.000000 0.218200
0.851925 1.000000 0.209230
1.000000 1.000000 0.200260
0.000000 0.017720 0.632900
0.213175 0.014730 0.610475
0.470650 0.011740 0.588050
0.728125 0.008750 0.565625
0.985600 0.005760 0.543200
0.000000 0.261850 0.588875
0.227850 0.258860 0.566450
0.485325 0.255870 0.544025
0.742800 0.252880 0.521600
1.000000 0.250000 0.499670
0.000000 0.505980 0.544850
0.242525 0.502990 0.522425
0.500000 0.500000 0.500000
0.772425 0.500000 0.491030
1.000000 0.500000 0.482060
0.000000 0.750110 0.500825
0.271600 0.750000 0.491360
0.544025 0.750000 0.482390
0.816450 0.750000 0.473420
1.000000 0.750000 0.464450
0.043200 1.000000 0.482720
0.315625 1.000000 0.473750
0.588050 1.000000 0.464780
0.860475 1.000000 0.455810
1.000000 1.000000 0.446840
0.000000 0.016580 0.874350
0.216025 0.013590 0.851925
0.473500 0.010600 0.829500
0.730975 0.007610 0.807075
0.988450 0.004620 0.784650
0.000000 0.260710 0.830325
0.230700 0.257720 0.807900
0.488175 0.254730 0.785475
0.745650 0.251740 0.763050
1.000000 0.250000 0.746250
0.000000 0.504840 0.786300
0.245375 0.501850 0.763875
0.508550 0.500000 0.746580
0.780975 0.500000 0.737610
1.000000 0.500000 0.728640
0.007725 0.750000 0.746910
0.280150 0.750000 0.737940
0.552575 0.750000 0.728970
0.825000 0.750000 0.720000
1.000000 0.750000 0.711030
0.051750 1.000000 0.729300
0.324175 1.000000 0.720330
0.596600 1.000000 0.711360
0.869025 1.000000 0.702390
1.000000 1.000000 0.693420
0.000000 0.015440 1.000000
0.218875 0.012450 1.000000
0.476350 0.009460 1.000000
0.733825 0.006470 1.000000
0.991300 0.003480 1.000000
0.000000 0.259570 1.000000
0.233550 0.256580 1.000000
0.491025 0.253590 1.000000
0.748500 0.250600 1.000000
1.000000 0.250000 0.992830
0.000000 0.503700 1.000000
0.248225 0.500710 1.000000
0.517100 0.500000 0.993160
0.789525 0.500000 0.984190
1.000000 0.500000 0.975220
0.016275 0.750000 0.993490
0.288700 0.750000 0.984520
0.561125 0.750000 0.975550
0.833550 0.750000 0.966580
1.000000 0.750000 0.957610
0.060300 1.000000 0.975880
0.332725 1.000000 0.966910
0.605150 1.000000 0.957940
0.877575 1.000000 0.948970
1.000000 1.000000 0.940000
