Tools/LUT_Grading_MCP/src/lut_grading_mcp/luts/cinematic_teal_orange.cube
LUT_3D_SIZE 17
0.000000 0.020000 0.150000
0.014369 0.019252 0.144394
0.078737 0.018505 0.138788
0.143106 0.017757 0.133181
0.207475 0.017010 0.127575
0.271844 0.016262 0.121969
0.336213 0.015515 0.116362
0.400581 0.014768 0.110756
0.464950 0.014020 0.105150
0.529319 0.013273 0.099544
0.593688 0.012525 0.093937
0.658056 0.011778 0.088331
0.722425 0.011030 0.082725
0.786794 0.010282 0.077119
0.851163 0.009535 0.071512
0.915531 0.008788 0.065906
0.979900 0.008040 0.060300
0.000000 0.081033 0.138994
0.018037 0.080285 0.133387
0.082406 0.079537 0.127781
0.146775 0.078790 0.122175
0.211144 0.078043 0.116569
0.275512 0.077295 0.110963
0.339881 0.076548 0.105356
0.404250 0.075800 0.099750
0.468619 0.075052 0.094144
0.532987 0.074305 0.088538
0.597356 0.073557 0.082931
0.661725 0.072810 0.077325
0.726094 0.072063 0.071719
0.790462 0.071315 0.066112
0.854831 0.070568 0.060506
0.919200 0.069820 0.054900
0.983569 0.069072 0.049294
0.000000 0.142065 0.127988
0.021706 0.141318 0.122381
0.086075 0.140570 0.116775
0.150444 0.139822 0.111169
0.214812 0.139075 0.105562
0.279181 0.138327 0.099956
0.343550 0.137580 0.094350
0.407919 0.136832 0.088744
0.472287 0.136085 0.083138
0.536656 0.135337 0.077531
0.601025 0.134590 0.071925
0.665394 0.133843 0.066319
0.729762 0.133095 0.060712
0.794131 0.132348 0.055106
0.858500 0.131600 0.049500
0.922869 0.130853 0.043894
0.987237 0.130105 0.038287
0.000000 0.203097 0.116981
0.025375 0.202350 0.111375
0.089744 0.201602 0.105769
0.154112 0.200855 0.100163
0.218481 0.200107 0.094556
0.282850 0.199360 0.088950
0.347219 0.198612 0.083344
0.411587 0.197865 0.077738
0.475956 0.197118 0.072131
0.540325 0.196370 0.066525
0.604694 0.195623 0.060919
0.669063 0.194875 0.055313
0.733431 0.194128 0.049706
0.797800 0.193380 0.044100
0.862169 0.192633 0.038494
0.926538 0.191885 0.032888
0.990906 0.191137 0.027281
0.000000 0.264130 0.105975
0.029044 0.263383 0.100369
0.093412 0.262635 0.094762
0.157781 0.261887 0.089156
0.222150 0.261140 0.083550
0.286519 0.260393 0.077944
0.350888 0.259645 0.072338
0.415256 0.258898 0.066731
0.479625 0.258150 0.061125
0.543994 0.257402 0.055519
0.608363 0.256655 0.049913
0.672731 0.255908 0.044306
0.737100 0.255160 0.038700
0.801469 0.254412 0.033094
0.865838 0.253665 0.027488
0.930206 0.252918 0.021881
0.994575 0.252170 0.016275
0.000000 0.325163 0.094969
0.032712 0.324415 0.089362
0.097081 0.323667 0.083756
0.161450 0.322920 0.078150
0.225819 0.322173 0.072544
0.290187 0.321425 0.066937
0.354556 0.320678 0.061331
0.418925 0.319930 0.055725
0.483294 0.319182 0.050119
0.547662 0.318435 0.044513
0.612031 0.317688 0.038906
0.676400 0.316940 0.033300
0.740769 0.316192 0.027694
0.805137 0.315445 0.022088
0.869506 0.314698 0.016481
0.933875 0.313950 0.010875
0.998244 0.313202 0.005269
0.000000 0.386195 0.083962
0.036381 0.385447 0.078356
0.100750 0.384700 0.072750
0.165119 0.383952 0.067144
0.229488 0.383205 0.061537
0.293856 0.382458 0.055931
0.358225 0.381710 0.050325
0.422594 0.380962 0.044719
0.486963 0.380215 0.039113
0.551331 0.379468 0.033506
0.615700 0.378720 0.027900
0.680069 0.377972 0.022294
0.744437 0.377225 0.016688
0.808806 0.376478 0.011081
0.873175 0.375730 0.005475
0.937631 0.375000 0.000000
1.000000 0.375000 0.000000
0.000000 0.447228 0.072956
0.040050 0.446480 0.067350
0.104419 0.445732 0.061744
0.168788 0.444985 0.056137
0.233156 0.444238 0.050531
0.297525 0.443490 0.044925
0.361894 0.442742 0.039319
0.426262 0.441995 0.033712
0.490631 0.441248 0.028106
0.555000 0.440500 0.022500
0.619369 0.439752 0.016894
0.683737 0.439005 0.011288
0.748106 0.438258 0.005681
0.812475 0.437510 0.000075
0.880531 0.437500 0.000000
0.948638 0.437500 0.000000
1.000000 0.437500 0.000000
0.000000 0.508260 0.061950
0.043719 0.507513 0.056344
0.108088 0.506765 0.050738
0.172456 0.506018 0.045131
0.236825 0.505270 0.039525
0.301194 0.504522 0.033919
0.365563 0.503775 0.028312
0.429931 0.503027 0.022706
0.494300 0.502280 0.017100
0.558669 0.501533 0.011494
0.623038 0.500785 0.005888
0.687406 0.500038 0.000281
0.755325 0.500000 0.000000
0.823431 0.500000 0.000000
0.891537 0.500000 0.000000
0.959644 0.500000 0.000000
1.000000 0.500000 0.000000
0.000000 0.569292 0.050944
0.047387 0.568545 0.045338
0.111756 0.567797 0.039731
0.176125 0.567050 0.034125
0.240494 0.566303 0.028519
0.304862 0.565555 0.022913
0.369231 0.564808 0.017306
0.433600 0.564060 0.011700
0.497969 0.563312 0.006094
0.562338 0.562565 0.000488
0.630119 0.562500 0.000000
0.698225 0.562500 0.000000
0.766331 0.562500 0.000000
0.834437 0.562500 0.000000
0.902544 0.562500 0.000000
0.970650 0.562500 0.000000
1.000000 0.562500 0.000000
0.000000 0.630325 0.039938
0.051056 0.629578 0.034331
0.115425 0.628830 0.028725
0.179794 0.628082 0.023119
0.244163 0.627335 0.017513
0.308531 0.626587 0.011906
0.372900 0.625840 0.006300
0.437269 0.625093 0.000694
0.504912 0.625000 0.000000
0.573019 0.625000 0.000000
0.641125 0.625000 0.000000
0.709231 0.625000 0.000000
0.777338 0.625000 0.000000
0.845444 0.625000 0.000000
0.913550 0.625000 0.000000
0.981656 0.625000 0.000000
1.000000 0.625000 0.000000
0.000000 0.691357 0.028931
0.054725 0.690610 0.023325
0.119094 0.689863 0.017719
0.183463 0.689115 0.012112
0.247831 0.688368 0.006506
0.312200 0.687620 0.000900
0.379706 0.687500 0.000000
0.447813 0.687500 0.000000
0.515919 0.687500 0.000000
0.584025 0.687500 0.000000
0.652131 0.687500 0.000000
0.720237 0.687500 0.000000
0.788344 0.687500 0.000000
0.856450 0.687500 0.000000
0.924556 0.687500 0.000000
0.992663 0.687500 0.000000
1.000000 0.687500 0.000000
0.000000 0.752390 0.017925
0.058394 0.751642 0.012319
0.122762 0.750895 0.006713
0.187131 0.750147 0.001106
0.254500 0.750000 0.000000
0.322606 0.750000 0.000000
0.390712 0.750000 0.000000
0.458819 0.750000 0.000000
0.526925 0.750000 0.000000
0.595031 0.750000 0.000000
0.663137 0.750000 0.000000
0.731244 0.750000 0.000000
0.799350 0.750000 0.000000
0.867456 0.750000 0.000000
0.935562 0.750000 0.000000
1.000000 0.750000 0.000000
1.000000 0.750000 0.000000
0.000000 0.813423 0.006919
0.062062 0.812675 0.001313
0.129294 0.812500 0.000000
0.197400 0.812500 0.000000
0.265506 0.812500 0.000000
0.333612 0.812500 0.000000
0.401719 0.812500 0.000000
0.469825 0.812500 0.000000
0.537931 0.812500 0.000000
0.606038 0.812500 0.000000
0.674144 0.812500 0.000000
0.742250 0.812500 0.000000
0.810356 0.812500 0.000000
0.878462 0.812500 0.000000
0.946569 0.812500 0.000000
1.000000 0.812500 0.000000
1.000000 0.812500 0.000000
0.004087 0.875000 0.000000
0.072194 0.875000 0.000000
0.140300 0.875000 0.000000
0.208406 0.875000 0.000000
0.276512 0.875000 0.000000
0.344619 0.875000 0.000000
0.412725 0.875000 0.000000
0.480831 0.875000 0.000000
0.548937 0.875000 0.000000
0.617044 0.875000 0.000000
0.685150 0.875000 0.000000
0.753256 0.875000 0.000000
0.821362 0.875000 0.000000
0.889469 0.875000 0.000000
0.957575 0.875000 0.000000
1.000000 0.875000 0.000000
1.000000 0.875000 0.000000
0.015094 0.937500 0.000000
0.083200 0.937500 0.000000
0.151306 0.937500 0.000000
0.219413 0.937500 0.000000
0.287519 0.937500 0.000000
0.355625 0.937500 0.000000
0.423731 0.937500 0.000000
0.491837 0.937500 0.000000
0.559944 0.937500 0.000000
0.628050 0.937500 0.000000
0.696156 0.937500 0.000000
0.764262 0.937500 0.000000
0.832369 0.937500 0.000000
0.900475 0.937500 0.000000
0.968581 0.937500 0.000000
1.000000 0.937500 0.000000
1.000000 0.937500 0.000000
0.026100 1.000000 0.000000
0.094206 1.000000 0.000000
0.162312 1.000000 0.000000
0.230419 1.000000 0.000000
0.298525 1.000000 0.000000
0.366631 1.000000 0.000000
0.434737 1.000000 0.000000
0.502844 1.000000 0.000000
0.570950 1.000000 0.000000
0.639056 1.000000 0.000000
0.707163 1.000000 0.000000
0.775269 1.000000 0.000000
0.843375 1.000000 0.000000
0.911481 1.000000 0.000000
0.979587 1.000000 0.000000
1.000000 1.000000 0.000000
1.000000 1.000000 0.000000
0.000000 0.019715 0.210363
0.015081 0.018967 0.204756
0.079450 0.018220 0.199150
0.143819 0.017472 0.193544
0.208187 0.016725 0.187937
0.272556 0.015977 0.182331
0.336925 0.015230 0.176725
0.401294 0.014483 0.171119
0.465662 0.013735 0.165513
0.530031 0.012988 0.159906
0.594400 0.012240 0.154300
0.658769 0.011493 0.148694
0.723137 0.010745 0.143087
0.787506 0.009997 0.137481
0.851875 0.009250 0.131875
0.916244 0.008503 0.126269
0.980612 0.007755 0.120663
0.000000 0.080747 0.199356
0.018750 0.080000 0.193750
0.083119 0.079253 0.188144
0.147487 0.078505 0.182537
0.211856 0.077758 0.176931
0.276225 0.077010 0.171325
0.340594 0.076262 0.165719
0.404963 0.075515 0.160112
0.469331 0.074768 0.154506
0.533700 0.074020 0.148900
0.598069 0.073273 0.143294
0.662438 0.072525 0.137688
0.726806 0.071777 0.132081
0.791175 0.071030 0.126475
0.855544 0.070282 0.120869
0.919913 0.069535 0.115263
0.984281 0.068788 0.109656
0.000000 0.141780 0.188350
0.022419 0.141033 0.182744
0.086787 0.140285 0.177138
0.151156 0.139538 0.171531
0.215525 0.138790 0.165925
0.279894 0.138043 0.160319
0.344263 0.137295 0.154713
0.408631 0.136547 0.149106
0.473000 0.135800 0.143500
0.537369 0.135052 0.137894
0.601738 0.134305 0.132288
0.666106 0.133557 0.126681
0.730475 0.132810 0.121075
0.794844 0.132062 0.115469
0.859213 0.131315 0.109863
0.923581 0.130568 0.104256
0.987950 0.129820 0.098650
0.000000 0.202813 0.177344
0.026087 0.202065 0.171737
0.090456 0.201318 0.166131
0.154825 0.200570 0.160525
0.219194 0.199823 0.154919
0.283562 0.199075 0.149313
0.347931 0.198327 0.143706
0.412300 0.197580 0.138100
0.476669 0.196832 0.132494
0.541037 0.196085 0.126887
0.605406 0.195337 0.121281
0.669775 0.194590 0.115675
0.734144 0.193843 0.110069
0.798512 0.193095 0.104463
0.862881 0.192348 0.098856
0.927250 0.191600 0.093250
0.991619 0.190853 0.087644
0.000000 0.263845 0.166337
0.029756 0.263097 0.160731
0.094125 0.262350 0.155125
0.158494 0.261603 0.149519
0.222862 0.260855 0.143912
0.287231 0.260107 0.138306
0.351600 0.259360 0.132700
0.415969 0.258613 0.127094
0.480337 0.257865 0.121487
0.544706 0.257117 0.115881
0.609075 0.256370 0.110275
0.673444 0.255622 0.104669
0.737812 0.254875 0.099062
0.802181 0.254128 0.093456
0.866550 0.253380 0.087850
0.930919 0.252632 0.082244
0.995287 0.251885 0.076638
0.000000 0.324877 0.155331
0.033425 0.324130 0.149725
0.097794 0.323383 0.144119
0.162162 0.322635 0.138512
0.226531 0.321887 0.132906
0.290900 0.321140 0.127300
0.355269 0.320393 0.121694
0.419637 0.319645 0.116088
0.484006 0.318898 0.110481
0.548375 0.318150 0.104875
0.612744 0.317402 0.099269
0.677113 0.316655 0.093663
0.741481 0.315908 0.088056
0.805850 0.315160 0.082450
0.870219 0.314412 0.076844
0.934588 0.313665 0.071238
0.998956 0.312918 0.065631
0.000000 0.385910 0.144325
0.037094 0.385163 0.138719
0.101462 0.384415 0.133112
0.165831 0.383667 0.127506
0.230200 0.382920 0.121900
0.294569 0.382173 0.116294
0.358938 0.381425 0.110687
0.423306 0.380678 0.105081
0.487675 0.379930 0.099475
0.552044 0.379182 0.093869
0.616413 0.378435 0.088263
0.680781 0.377688 0.082656
0.745150 0.376940 0.077050
0.809519 0.376192 0.071444
0.873888 0.375445 0.065837
0.939769 0.375000 0.061592
1.000000 0.375000 0.059350
0.000000 0.446943 0.133319
0.040763 0.446195 0.127713
0.105131 0.445447 0.122106
0.169500 0.444700 0.116500
0.233869 0.443953 0.110894
0.298237 0.443205 0.105288
0.362606 0.442458 0.099681
0.426975 0.441710 0.094075
0.491344 0.440962 0.088469
0.555713 0.440215 0.082863
0.620081 0.439468 0.077256
0.684450 0.438720 0.071650
0.748819 0.437972 0.066044
0.814563 0.437500 0.061675
0.882669 0.437500 0.059432
0.950775 0.437500 0.057190
1.000000 0.437500 0.054947
0.000000 0.507975 0.122313
0.044431 0.507228 0.116706
0.108800 0.506480 0.111100
0.173169 0.505733 0.105494
0.237537 0.504985 0.099888
0.301906 0.504238 0.094281
0.366275 0.503490 0.088675
0.430644 0.502742 0.083069
0.495012 0.501995 0.077463
0.559381 0.501247 0.071856
0.623750 0.500500 0.066250
0.689356 0.500000 0.061757
0.757463 0.500000 0.059515
0.825569 0.500000 0.057272
0.893675 0.500000 0.055030
0.961781 0.500000 0.052788
1.000000 0.500000 0.050545
0.000000 0.569007 0.111306
0.048100 0.568260 0.105700
0.112469 0.567512 0.100094
0.176838 0.566765 0.094488
0.241206 0.566017 0.088881
0.305575 0.565270 0.083275
0.369944 0.564523 0.077669
0.434312 0.563775 0.072063
0.498681 0.563028 0.066456
0.564150 0.562500 0.061840
0.632256 0.562500 0.059597
0.700362 0.562500 0.057355
0.768469 0.562500 0.055113
0.836575 0.562500 0.052870
0.904681 0.562500 0.050627
0.972788 0.562500 0.048385
1.000000 0.562500 0.046142
0.000000 0.630040 0.100300
0.051769 0.629293 0.094694
0.116137 0.628545 0.089088
0.180506 0.627798 0.083481
0.244875 0.627050 0.077875
0.309244 0.626302 0.072269
0.373613 0.625555 0.066663
0.438944 0.625000 0.061922
0.507050 0.625000 0.059680
0.575156 0.625000 0.057437
0.643262 0.625000 0.055195
0.711369 0.625000 0.052952
0.779475 0.625000 0.050710
0.847581 0.625000 0.048467
0.915687 0.625000 0.046225
0.983794 0.625000 0.043983
1.000000 0.625000 0.041740
0.000000 0.691072 0.089294
0.055438 0.690325 0.083687
0.119806 0.689577 0.078081
0.184175 0.688830 0.072475
0.248544 0.688083 0.066869
0.313738 0.687500 0.062005
0.381844 0.687500 0.059762
0.449950 0.687500 0.057520
0.518056 0.687500 0.055277
0.586163 0.687500 0.053035
0.654269 0.687500 0.050793
0.722375 0.687500 0.048550
0.790481 0.687500 0.046307
0.858588 0.687500 0.044065
0.926694 0.687500 0.041822
0.994800 0.687500 0.039580
1.000000 0.687500 0.037337
0.000000 0.752105 0.078288
0.059106 0.751358 0.072681
0.123475 0.750610 0.067075
0.188531 0.750000 0.062088
0.256638 0.750000 0.059845
0.324744 0.750000 0.057602
0.392850 0.750000 0.055360
0.460956 0.750000 0.053117
0.529062 0.750000 0.050875
0.597169 0.750000 0.048632
0.665275 0.750000 0.046390
0.733381 0.750000 0.044148
0.801488 0.750000 0.041905
0.869594 0.750000 0.039663
0.937700 0.750000 0.037420
1.000000 0.750000 0.035178
1.000000 0.750000 0.032935
0.000000 0.813137 0.067281
0.063325 0.812500 0.062170
0.131431 0.812500 0.059928
0.199537 0.812500 0.057685
0.267644 0.812500 0.055442
0.335750 0.812500 0.053200
0.403856 0.812500 0.050958
0.471963 0.812500 0.048715
0.540069 0.812500 0.046472
0.608175 0.812500 0.044230
0.676281 0.812500 0.041988
0.744387 0.812500 0.039745
0.812494 0.812500 0.037503
0.880600 0.812500 0.035260
0.948706 0.812500 0.033017
1.000000 0.812500 0.030775
1.000000 0.812500 0.028533
0.006225 0.875000 0.060010
0.074331 0.875000 0.057767
0.142438 0.875000 0.055525
0.210544 0.875000 0.053282
0.278650 0.875000 0.051040
0.346756 0.875000 0.048798
0.414863 0.875000 0.046555
0.482969 0.875000 0.044312
0.551075 0.875000 0.042070
0.619181 0.875000 0.039828
0.687288 0.875000 0.037585
0.755394 0.875000 0.035342
0.823500 0.875000 0.033100
0.891606 0.875000 0.030857
0.959712 0.875000 0.028615
1.000000 0.875000 0.026373
1.000000 0.875000 0.024130
0.017231 0.937500 0.055607
0.085337 0.937500 0.053365
0.153444 0.937500 0.051122
0.221550 0.937500 0.048880
0.289656 0.937500 0.046637
0.357762 0.937500 0.044395
0.425869 0.937500 0.042152
0.493975 0.937500 0.039910
0.562081 0.937500 0.037668
0.630188 0.937500 0.035425
0.698294 0.937500 0.033182
0.766400 0.937500 0.030940
0.834506 0.937500 0.028697
0.902613 0.937500 0.026455
0.970719 0.937500 0.024212
1.000000 0.937500 0.021970
1.000000 0.937500 0.019728
0.028238 1.000000 0.051205
0.096344 1.000000 0.048963
0.164450 1.000000 0.046720
0.232556 1.000000 0.044477
0.300662 1.000000 0.042235
0.368769 1.000000 0.039993
0.436875 1.000000 0.037750
0.504981 1.000000 0.035507
0.573087 1.000000 0.033265
0.641194 1.000000 0.031023
0.709300 1.000000 0.028780
0.777406 1.000000 0.026537
0.845513 1.000000 0.024295
0.913619 1.000000 0.022052
0.981725 1.000000 0.019810
1.000000 1.000000 0.017568
1.000000 1.000000 0.015325
0.000000 0.019430 0.270725
0.015794 0.018683 0.265119
0.080162 0.017935 0.259513
0.144531 0.017188 0.253906
0.208900 0.016440 0.248300
0.273269 0.015693 0.242694
0.337637 0.014945 0.237088
0.402006 0.014198 0.231481
0.466375 0.013450 0.225875
0.530744 0.012702 0.220269
0.595113 0.011955 0.214662
0.659481 0.011208 0.209056
0.723850 0.010460 0.203450
0.788219 0.009712 0.197844
0.852588 0.008965 0.192238
0.916956 0.008218 0.186631
0.981325 0.007470 0.181025
0.000000 0.080463 0.259719
0.019462 0.079715 0.254112
0.083831 0.078967 0.248506
0.148200 0.078220 0.242900
0.212569 0.077472 0.237294
0.276938 0.076725 0.231687
0.341306 0.075978 0.226081
0.405675 0.075230 0.220475
0.470044 0.074482 0.214869
0.534412 0.073735 0.209262
0.598781 0.072987 0.203656
0.663150 0.072240 0.198050
0.727519 0.071493 0.192444
0.791887 0.070745 0.186837
0.856256 0.069998 0.181231
0.920625 0.069250 0.175625
0.984994 0.068503 0.170019
0.000000 0.141495 0.248713
0.023131 0.140747 0.243106
0.087500 0.140000 0.237500
0.151869 0.139253 0.231894
0.216237 0.138505 0.226287
0.280606 0.137758 0.220681
0.344975 0.137010 0.215075
0.409344 0.136263 0.209469
0.473712 0.135515 0.203863
0.538081 0.134768 0.198256
0.602450 0.134020 0.192650
0.666819 0.133273 0.187044
0.731187 0.132525 0.181438
0.795556 0.131777 0.175831
0.859925 0.131030 0.170225
0.924294 0.130282 0.164619
0.988662 0.129535 0.159013
0.000000 0.202527 0.237706
0.026800 0.201780 0.232100
0.091169 0.201033 0.226494
0.155537 0.200285 0.220888
0.219906 0.199538 0.215281
0.284275 0.198790 0.209675
0.348644 0.198043 0.204069
0.413013 0.197295 0.198462
0.477381 0.196548 0.192856
0.541750 0.195800 0.187250
0.606119 0.195052 0.181644
0.670488 0.194305 0.176038
0.734856 0.193557 0.170431
0.799225 0.192810 0.164825
0.863594 0.192062 0.159219
0.927963 0.191315 0.153613
0.992331 0.190568 0.148006
0.000000 0.263560 0.226700
0.030469 0.262813 0.221094
0.094837 0.262065 0.215487
0.159206 0.261317 0.209881
0.223575 0.260570 0.204275
0.287944 0.259823 0.198669
0.352312 0.259075 0.193063
0.416681 0.258327 0.187456
0.481050 0.257580 0.181850
0.545419 0.256833 0.176244
0.609788 0.256085 0.170638
0.674156 0.255337 0.165031
0.738525 0.254590 0.159425
0.802894 0.253843 0.153819
0.867263 0.253095 0.148212
0.931631 0.252348 0.142606
0.996000 0.251600 0.137000
0.000000 0.324593 0.215694
0.034138 0.323845 0.210087
0.098506 0.323097 0.204481
0.162875 0.322350 0.198875
0.227244 0.321603 0.193269
0.291612 0.320855 0.187663
0.355981 0.320107 0.182056
0.420350 0.319360 0.176450
0.484719 0.318613 0.170844
0.549087 0.317865 0.165238
0.613456 0.317117 0.159631
0.677825 0.316370 0.154025
0.742194 0.315623 0.148419
0.806562 0.314875 0.142813
0.870931 0.314128 0.137206
0.935300 0.313380 0.131600
0.999669 0.312632 0.125994
0.000000 0.385625 0.204687
0.037806 0.384877 0.199081
0.102175 0.384130 0.193475
0.166544 0.383383 0.187869
0.230912 0.382635 0.182262
0.295281 0.381887 0.176656
0.359650 0.381140 0.171050
0.424019 0.380393 0.165444
0.488387 0.379645 0.159838
0.552756 0.378897 0.154231
0.617125 0.378150 0.148625
0.681494 0.377402 0.143019
0.745862 0.376655 0.137413
0.810231 0.375908 0.131806
0.874600 0.375160 0.126200
0.941906 0.375000 0.123237
1.000000 0.375000 0.120995
0.000000 0.446657 0.193681
0.041475 0.445910 0.188075
0.105844 0.445163 0.182469
0.170212 0.444415 0.176863
0.234581 0.443667 0.171256
0.298950 0.442920 0.165650
0.363319 0.442173 0.160044
0.427687 0.441425 0.154438
0.492056 0.440677 0.148831
0.556425 0.439930 0.143225
0.620794 0.439182 0.137619
0.685163 0.438435 0.132013
0.749531 0.437688 0.126406
0.816700 0.437500 0.123320
0.884806 0.437500 0.121078
0.952912 0.437500 0.118835
1.000000 0.437500 0.116593
0.000000 0.507690 0.182675
0.045144 0.506942 0.177069
0.109512 0.506195 0.171463
0.173881 0.505448 0.165856
0.238250 0.504700 0.160250
0.302619 0.503953 0.154644
0.366988 0.503205 0.149037
0.431356 0.502458 0.143431
0.495725 0.501710 0.137825
0.560094 0.500962 0.132219
0.624463 0.500215 0.126613
0.691494 0.500000 0.123403
0.759600 0.500000 0.121160
0.827706 0.500000 0.118917
0.895813 0.500000 0.116675
0.963919 0.500000 0.114433
1.000000 0.500000 0.112190
0.000000 0.568723 0.171669
0.048812 0.567975 0.166063
0.113181 0.567227 0.160456
0.177550 0.566480 0.154850
0.241919 0.565732 0.149244
0.306287 0.564985 0.143638
0.370656 0.564237 0.138031
0.435025 0.563490 0.132425
0.499394 0.562743 0.126819
0.566288 0.562500 0.123485
0.634394 0.562500 0.121243
0.702500 0.562500 0.119000
0.770606 0.562500 0.116758
0.838712 0.562500 0.114515
0.906819 0.562500 0.112273
0.974925 0.562500 0.110030
1.000000 0.562500 0.107788
0.000000 0.629755 0.160663
0.052481 0.629008 0.155056
0.116850 0.628260 0.149450
0.181219 0.627513 0.143844
0.245587 0.626765 0.138238
0.309956 0.626018 0.132631
0.374325 0.625270 0.127025
0.441081 0.625000 0.123568
0.509188 0.625000 0.121325
0.577294 0.625000 0.119083
0.645400 0.625000 0.116840
0.713506 0.625000 0.114598
0.781612 0.625000 0.112355
0.849719 0.625000 0.110113
0.917825 0.625000 0.107870
0.985931 0.625000 0.105628
1.000000 0.625000 0.103385
0.000000 0.690787 0.149656
0.056150 0.690040 0.144050
0.120519 0.689292 0.138444
0.184888 0.688545 0.132837
0.249256 0.687797 0.127231
0.315875 0.687500 0.123650
0.383981 0.687500 0.121408
0.452088 0.687500 0.119165
0.520194 0.687500 0.116922
0.588300 0.687500 0.114680
0.656406 0.687500 0.112438
0.724513 0.687500 0.110195
0.792619 0.687500 0.107953
0.860725 0.687500 0.105710
0.928831 0.687500 0.103467
0.996938 0.687500 0.101225
1.000000 0.687500 0.098983
0.000000 0.751820 0.138650
0.059819 0.751073 0.133044
0.124187 0.750325 0.127438
0.190669 0.750000 0.123732
0.258775 0.750000 0.121490
0.326881 0.750000 0.119248
0.394987 0.750000 0.117005
0.463094 0.750000 0.114763
0.531200 0.750000 0.112520
0.599306 0.750000 0.110278
0.667412 0.750000 0.108035
0.735519 0.750000 0.105793
0.803625 0.750000 0.103550
0.871731 0.750000 0.101308
0.939837 0.750000 0.099065
1.000000 0.750000 0.096823
1.000000 0.750000 0.094580
0.000000 0.812852 0.127644
0.065462 0.812500 0.123815
0.133569 0.812500 0.121573
0.201675 0.812500 0.119330
0.269781 0.812500 0.117087
0.337888 0.812500 0.114845
0.405994 0.812500 0.112603
0.474100 0.812500 0.110360
0.542206 0.812500 0.108118
0.610313 0.812500 0.105875
0.678419 0.812500 0.103633
0.746525 0.812500 0.101390
0.814631 0.812500 0.099147
0.882737 0.812500 0.096905
0.950844 0.812500 0.094662
1.000000 0.812500 0.092420
1.000000 0.812500 0.090178
0.008362 0.875000 0.121655
0.076469 0.875000 0.119413
0.144575 0.875000 0.117170
0.212681 0.875000 0.114928
0.280787 0.875000 0.112685
0.348894 0.875000 0.110443
0.417000 0.875000 0.108200
0.485106 0.875000 0.105958
0.553212 0.875000 0.103715
0.621319 0.875000 0.101473
0.689425 0.875000 0.099230
0.757531 0.875000 0.096988
0.825638 0.875000 0.094745
0.893744 0.875000 0.092503
0.961850 0.875000 0.090260
1.000000 0.875000 0.088017
1.000000 0.875000 0.085775
0.019369 0.937500 0.117253
0.087475 0.937500 0.115010
0.155581 0.937500 0.112767
0.223687 0.937500 0.110525
0.291794 0.937500 0.108283
0.359900 0.937500 0.106040
0.428006 0.937500 0.103798
0.496112 0.937500 0.101555
0.564219 0.937500 0.099313
0.632325 0.937500 0.097070
0.700431 0.937500 0.094828
0.768537 0.937500 0.092585
0.836644 0.937500 0.090342
0.904750 0.937500 0.088100
0.972856 0.937500 0.085858
1.000000 0.937500 0.083615
1.000000 0.937500 0.081373
0.030375 1.000000 0.112850
0.098481 1.000000 0.110608
0.166587 1.000000 0.108365
0.234694 1.000000 0.106123
0.302800 1.000000 0.103880
0.370906 1.000000 0.101638
0.439012 1.000000 0.099395
0.507119 1.000000 0.097153
0.575225 1.000000 0.094910
0.643331 1.000000 0.092668
0.711437 1.000000 0.090425
0.779544 1.000000 0.088183
0.847650 1.000000 0.085940
0.915756 1.000000 0.083698
0.983862 1.000000 0.081455
1.000000 1.000000 0.079213
1.000000 1.000000 0.076970
0.000000 0.019145 0.331087
0.016506 0.018398 0.325481
0.080875 0.017650 0.319875
0.145244 0.016903 0.314269
0.209613 0.016155 0.308663
0.273981 0.015408 0.303056
0.338350 0.014660 0.297450
0.402719 0.013912 0.291844
0.467087 0.013165 0.286237
0.531456 0.012418 0.280631
0.595825 0.011670 0.275025
0.660194 0.010922 0.269419
0.724562 0.010175 0.263813
0.788931 0.009428 0.258206
0.853300 0.008680 0.252600
0.917669 0.007933 0.246994
0.982038 0.007185 0.241388
0.000000 0.080177 0.320081
0.020175 0.079430 0.314475
0.084544 0.078683 0.308869
0.148913 0.077935 0.303262
