Tools/LUT_Grading_MCP/src/lut_grading_mcp/luts/cool_blue.cube
LUT_3D_SIZE 17
0.000000 0.000000 0.080000
0.022500 0.000000 0.080000
0.085000 0.000000 0.080000
0.147500 0.000000 0.080000
0.210000 0.000000 0.080000
0.272500 0.000000 0.080000
0.335000 0.000000 0.080000
0.397500 0.000000 0.080000
0.460000 0.000000 0.080000
0.522500 0.000000 0.080000
0.585000 0.000000 0.080000
0.647500 0.000000 0.080000
0.710000 0.000000 0.080000
0.772500 0.000000 0.080000
0.835000 0.000000 0.080000
0.897500 0.000000 0.080000
0.960000 0.000000 0.080000
0.000000 0.062500 0.080000
0.022500 0.062500 0.080000
0.085000 0.062500 0.080000
0.147500 0.062500 0.080000
0.210000 0.062500 0.080000
0.272500 0.062500 0.080000
0.335000 0.062500 0.080000
0.397500 0.062500 0.080000
0.460000 0.062500 0.080000
0.522500 0.062500 0.080000
0.585000 0.062500 0.080000
0.647500 0.062500 0.080000
0.710000 0.062500 0.080000
0.772500 0.062500 0.080000
0.835000 0.062500 0.080000
0.897500 0.062500 0.080000
0.960000 0.062500 0.080000
0.000000 0.125000 0.080000
0.022500 0.125000 0.080000
0.085000 0.125000 0.080000
0.147500 0.125000 0.080000
0.210000 0.125000 0.080000
0.272500 0.125000 0.080000
0.335000 0.125000 0.080000
0.397500 0.125000 0.080000
0.460000 0.125000 0.080000
0.522500 0.125000 0.080000
0.585000 0.125000 0.080000
0.647500 0.125000 0.080000
0.710000 0.125000 0.080000
0.772500 0.125000 0.080000
0.835000 0.125000 0.080000
0.897500 0.125000 0.080000
0.960000 0.125000 0.080000
0.000000 0.187500 0.080000
0.022500 0.187500 0.080000
0.085000 0.187500 0.080000
0.147500 0.187500 0.080000
0.210000 0.187500 0.080000
0.272500 0.187500 0.080000
0.335000 0.187500 0.080000
0.397500 0.187500 0.080000
0.460000 0.187500 0.080000
0.522500 0.187500 0.080000
0.585000 0.187500 0.080000
0.647500 0.187500 0.080000
0.710000 0.187500 0.080000
0.772500 0.187500 0.080000
0.835000 0.187500 0.080000
0.897500 0.187500 0.080000
0.960000 0.187500 0.080000
0.000000 0.250000 0.080000
0.022500 0.250000 0.080000
0.085000 0.250000 0.080000
0.147500 0.250000 0.080000
0.210000 0.250000 0.080000
0.272500 0.250000 0.080000
0.335000 0.250000 0.080000
0.397500 0.250000 0.080000
0.460000 0.250000 0.080000
0.522500 0.250000 0.080000
0.585000 0.250000 0.080000
0.647500 0.250000 0.080000
0.710000 0.250000 0.080000
0.772500 0.250000 0.080000
0.835000 0.250000 0.080000
0.897500 0.250000 0.080000
0.960000 0.250000 0.080000
0.000000 0.312500 0.080000
0.022500 0.312500 0.080000
0.085000 0.312500 0.080000
0.147500 0.312500 0.080000
0.210000 0.312500 0.080000
0.272500 0.312500 0.080000
0.335000 0.312500 0.080000
0.397500 0.312500 0.080000
0.460000 0.312500 0.080000
0.522500 0.312500 0.080000
0.585000 0.312500 0.080000
0.647500 0.312500 0.080000
0.710000 0.312500 0.080000
0.772500 0.312500 0.080000
0.835000 0.312500 0.080000
0.897500 0.312500 0.080000
0.960000 0.312500 0.080000
0.000000 0.375000 0.080000
0.022500 0.375000 0.080000
0.085000 0.375000 0.080000
0.147500 0.375000 0.080000
0.210000 0.375000 0.080000
0.272500 0.375000 0.080000
0.335000 0.375000 0.080000
0.397500 0.375000 0.080000
0.460000 0.375000 0.080000
0.522500 0.375000 0.080000
0.585000 0.375000 0.080000
0.647500 0.375000 0.080000
0.710000 0.375000 0.080000
0.772500 0.375000 0.080000
0.835000 0.375000 0.080000
0.897500 0.375000 0.080000
0.960000 0.375000 0.080000
0.000000 0.437500 0.080000
0.022500 0.437500 0.080000
0.085000 0.437500 0.080000
0.147500 0.437500 0.080000
0.210000 0.437500 0.080000
0.272500 0.437500 0.080000
0.335000 0.437500 0.080000
0.397500 0.437500 0.080000
0.460000 0.437500 0.080000
0.522500 0.437500 0.080000
0.585000 0.437500 0.080000
0.647500 0.437500 0.080000
0.710000 0.437500 0.080000
0.772500 0.437500 0.080000
0.835000 0.437500 0.080000
0.897500 0.437500 0.080000
0.960000 0.437500 0.080000
0.000000 0.500000 0.080000
0.022500 0.500000 0.080000
0.085000 0.500000 0.080000
0.147500 0.500000 0.080000
0.210000 0.500000 0.080000
0.272500 0.500000 0.080000
0.335000 0.500000 0.080000
0.397500 0.500000 0.080000
0.460000 0.500000 0.080000
0.522500 0.500000 0.080000
0.585000 0.500000 0.080000
0.647500 0.500000 0.080000
0.710000 0.500000 0.080000
0.772500 0.500000 0.080000
0.835000 0.500000 0.080000
0.897500 0.500000 0.080000
0.960000 0.500000 0.080000
0.000000 0.562500 0.080000
0.022500 0.562500 0.080000
0.085000 0.562500 0.080000
0.147500 0.562500 0.080000
0.210000 0.562500 0.080000
0.272500 0.562500 0.080000
0.335000 0.562500 0.080000
0.397500 0.562500 0.080000
0.460000 0.562500 0.080000
0.522500 0.562500 0.080000
0.585000 0.562500 0.080000
0.647500 0.562500 0.080000
0.710000 0.562500 0.080000
0.772500 0.562500 0.080000
0.835000 0.562500 0.080000
0.868516 0.567016 0.132766
0.926635 0.568885 0.134635
0.000000 0.625000 0.080000
0.022500 0.625000 0.080000
0.085000 0.625000 0.080000
0.147500 0.625000 0.080000
0.210000 0.625000 0.080000
0.272500 0.625000 0.080000
0.335000 0.625000 0.080000
0.397500 0.625000 0.080000
0.460000 0.625000 0.080000
0.522500 0.625000 0.080000
0.585000 0.625000 0.080000
0.647500 0.625000 0.080000
0.710000 0.625000 0.080000
0.755947 0.623197 0.132697
0.814066 0.625066 0.134566
0.872185 0.626935 0.136435
0.930303 0.628803 0.138303
0.000000 0.687500 0.080000
0.022500 0.687500 0.080000
0.085000 0.687500 0.080000
0.147500 0.687500 0.080000
0.210000 0.687500 0.080000
0.272500 0.687500 0.080000
0.335000 0.687500 0.080000
0.397500 0.687500 0.080000
0.460000 0.687500 0.080000
0.522500 0.687500 0.080000
0.585000 0.687500 0.080000
0.643378 0.679378 0.132628
0.701497 0.681247 0.134497
0.759616 0.683116 0.136366
0.817735 0.684985 0.138235
0.875853 0.686854 0.140103
0.933972 0.688722 0.141972
0.000000 0.750000 0.080000
0.022500 0.750000 0.080000
0.085000 0.750000 0.080000
0.147500 0.750000 0.080000
0.210000 0.750000 0.080000
0.272500 0.750000 0.080000
0.335000 0.750000 0.080000
0.397500 0.750000 0.080000
0.460000 0.750000 0.080000
0.530810 0.735560 0.132560
0.588928 0.737429 0.134428
0.647047 0.739297 0.136297
0.705166 0.741166 0.138166
0.763285 0.743035 0.140035
0.821403 0.744903 0.141903
0.879522 0.746772 0.143772
0.937641 0.748641 0.145641
0.000000 0.812500 0.080000
0.022500 0.812500 0.080000
0.085000 0.812500 0.080000
0.147500 0.812500 0.080000
0.210000 0.812500 0.080000
0.272500 0.812500 0.080000
0.335000 0.812500 0.080000
0.418241 0.791741 0.132491
0.476360 0.793610 0.134360
0.534478 0.795478 0.136228
0.592597 0.797347 0.138097
0.650716 0.799216 0.139966
0.708835 0.801085 0.141835
0.766953 0.802953 0.143703
0.825072 0.804822 0.145572
0.883191 0.806691 0.147441
0.941310 0.808560 0.149310
0.000000 0.875000 0.080000
0.022500 0.875000 0.080000
0.085000 0.875000 0.080000
0.147500 0.875000 0.080000
0.210000 0.875000 0.080000
0.305672 0.847922 0.132422
0.363791 0.849791 0.134291
0.421910 0.851660 0.136160
0.480029 0.853529 0.138028
0.538147 0.855397 0.139897
0.596266 0.857266 0.141766
0.654385 0.859135 0.143635
0.712503 0.861004 0.145503
0.770622 0.862872 0.147372
0.828741 0.864741 0.149241
0.886860 0.866610 0.151110
0.944978 0.868479 0.152978
0.000000 0.937500 0.080000
0.022500 0.937500 0.080000
0.085000 0.937500 0.080000
0.193103 0.904103 0.132353
0.251222 0.905972 0.134222
0.309341 0.907841 0.136091
0.367460 0.909710 0.137960
0.425579 0.911579 0.139828
0.483697 0.913447 0.141697
0.541816 0.915316 0.143566
0.599935 0.917185 0.145435
0.658053 0.919053 0.147303
0.716172 0.920922 0.149172
0.774291 0.922791 0.151041
0.832410 0.924660 0.152910
0.890528 0.926528 0.154778
0.948647 0.928397 0.156647
0.000000 1.000000 0.080000
0.080535 0.960285 0.132285
0.138653 0.962153 0.134153
0.196772 0.964022 0.136022
0.254891 0.965891 0.137891
0.313010 0.967760 0.139760
0.371129 0.969629 0.141628
0.429247 0.971497 0.143497
0.487366 0.973366 0.145366
0.545485 0.975235 0.147235
0.603603 0.977104 0.149103
0.661722 0.978972 0.150972
0.719841 0.980841 0.152841
0.777960 0.982710 0.154710
0.836078 0.984579 0.156578
0.894197 0.986447 0.158447
0.952316 0.988316 0.160316
0.000000 0.000000 0.142500
0.022500 0.000000 0.142500
0.085000 0.000000 0.142500
0.147500 0.000000 0.142500
0.210000 0.000000 0.142500
0.272500 0.000000 0.142500
0.335000 0.000000 0.142500
0.397500 0.000000 0.142500
0.460000 0.000000 0.142500
0.522500 0.000000 0.142500
0.585000 0.000000 0.142500
0.647500 0.000000 0.142500
0.710000 0.000000 0.142500
0.772500 0.000000 0.142500
0.835000 0.000000 0.142500
0.897500 0.000000 0.142500
0.960000 0.000000 0.142500
0.000000 0.062500 0.142500
0.022500 0.062500 0.142500
0.085000 0.062500 0.142500
0.147500 0.062500 0.142500
0.210000 0.062500 0.142500
0.272500 0.062500 0.142500
0.335000 0.062500 0.142500
0.397500 0.062500 0.142500
0.460000 0.062500 0.142500
0.522500 0.062500 0.142500
0.585000 0.062500 0.142500
0.647500 0.062500 0.142500
0.710000 0.062500 0.142500
0.772500 0.062500 0.142500
0.835000 0.062500 0.142500
0.897500 0.062500 0.142500
0.960000 0.062500 0.142500
0.000000 0.125000 0.142500
0.022500 0.125000 0.142500
0.085000 0.125000 0.142500
0.147500 0.125000 0.142500
0.210000 0.125000 0.142500
0.272500 0.125000 0.142500
0.335000 0.125000 0.142500
0.397500 0.125000 0.142500
0.460000 0.125000 0.142500
0.522500 0.125000 0.142500
0.585000 0.125000 0.142500
0.647500 0.125000 0.142500
0.710000 0.125000 0.142500
0.772500 0.125000 0.142500
0.835000 0.125000 0.142500
0.897500 0.125000 0.142500
0.960000 0.125000 0.142500
0.000000 0.187500 0.142500
0.022500 0.187500 0.142500
0.085000 0.187500 0.142500
0.147500 0.187500 0.142500
0.210000 0.187500 0.142500
0.272500 0.187500 0.142500
0.335000 0.187500 0.142500
0.397500 0.187500 0.142500
0.460000 0.187500 0.142500
0.522500 0.187500 0.142500
0.585000 0.187500 0.142500
0.647500 0.187500 0.142500
0.710000 0.187500 0.142500
0.772500 0.187500 0.142500
0.835000 0.187500 0.142500
0.897500 0.187500 0.142500
0.960000 0.187500 0.142500
0.000000 0.250000 0.142500
0.022500 0.250000 0.142500
0.085000 0.250000 0.142500
0.147500 0.250000 0.142500
0.210000 0.250000 0.142500
0.272500 0.250000 0.142500
0.335000 0.250000 0.142500
0.397500 0.250000 0.142500
0.460000 0.250000 0.142500
0.522500 0.250000 0.142500
0.585000 0.250000 0.142500
0.647500 0.250000 0.142500
0.710000 0.250000 0.142500
0.772500 0.250000 0.142500
0.835000 0.250000 0.142500
0.897500 0.250000 0.142500
0.960000 0.250000 0.142500
0.000000 0.312500 0.142500
0.022500 0.312500 0.142500
0.085000 0.312500 0.142500
0.147500 0.312500 0.142500
0.210000 0.312500 0.142500
0.272500 0.312500 0.142500
0.335000 0.312500 0.142500
0.397500 0.312500 0.142500
0.460000 0.312500 0.142500
0.522500 0.312500 0.142500
0.585000 0.312500 0.142500
0.647500 0.312500 0.142500
0.710000 0.312500 0.142500
0.772500 0.312500 0.142500
0.835000 0.312500 0.142500
0.897500 0.312500 0.142500
0.960000 0.312500 0.142500
0.000000 0.375000 0.142500
0.022500 0.375000 0.142500
0.085000 0.375000 0.142500
0.147500 0.375000 0.142500
0.210000 0.375000 0.142500
0.272500 0.375000 0.142500
0.335000 0.375000 0.142500
0.397500 0.375000 0.142500
0.460000 0.375000 0.142500
0.522500 0.375000 0.142500
0.585000 0.375000 0.142500
0.647500 0.375000 0.142500
0.710000 0.375000 0.142500
0.772500 0.375000 0.142500
0.835000 0.375000 0.142500
0.897500 0.375000 0.142500
0.960000 0.375000 0.142500
0.000000 0.437500 0.142500
0.022500 0.437500 0.142500
0.085000 0.437500 0.142500
0.147500 0.437500 0.142500
0.210000 0.437500 0.142500
0.272500 0.437500 0.142500
0.335000 0.437500 0.142500
0.397500 0.437500 0.142500
0.460000 0.437500 0.142500
0.522500 0.437500 0.142500
0.585000 0.437500 0.142500
0.647500 0.437500 0.142500
0.710000 0.437500 0.142500
0.772500 0.437500 0.142500
0.835000 0.437500 0.142500
0.897500 0.437500 0.142500
0.960000 0.437500 0.142500
0.000000 0.500000 0.142500
0.022500 0.500000 0.142500
0.085000 0.500000 0.142500
0.147500 0.500000 0.142500
0.210000 0.500000 0.142500
0.272500 0.500000 0.142500
0.335000 0.500000 0.142500
0.397500 0.500000 0.142500
0.460000 0.500000 0.142500
0.522500 0.500000 0.142500
0.585000 0.500000 0.142500
0.647500 0.500000 0.142500
0.710000 0.500000 0.142500
0.772500 0.500000 0.142500
0.835000 0.500000 0.142500
0.897500 0.500000 0.142500
0.960000 0.500000 0.142500
0.000000 0.562500 0.142500
0.022500 0.562500 0.142500
0.085000 0.562500 0.142500
0.147500 0.562500 0.142500
0.210000 0.562500 0.142500
0.272500 0.562500 0.142500
0.335000 0.562500 0.142500
0.397500 0.562500 0.142500
0.460000 0.562500 0.142500
0.522500 0.562500 0.142500
0.585000 0.562500 0.142500
0.647500 0.562500 0.142500
0.710000 0.562500 0.142500
0.772500 0.562500 0.142500
0.835000 0.562500 0.142500
0.869228 0.567728 0.189729
0.927347 0.569597 0.191597
0.000000 0.625000 0.142500
0.022500 0.625000 0.142500
0.085000 0.625000 0.142500
0.147500 0.625000 0.142500
0.210000 0.625000 0.142500
0.272500 0.625000 0.142500
0.335000 0.625000 0.142500
0.397500 0.625000 0.142500
0.460000 0.625000 0.142500
0.522500 0.625000 0.142500
0.585000 0.625000 0.142500
0.647500 0.625000 0.142500
0.710000 0.625000 0.142500
0.756660 0.623910 0.189660
0.814778 0.625779 0.191528
0.872897 0.627647 0.193397
0.931016 0.629516 0.195266
0.000000 0.687500 0.142500
0.022500 0.687500 0.142500
0.085000 0.687500 0.142500
0.147500 0.687500 0.142500
0.210000 0.687500 0.142500
0.272500 0.687500 0.142500
0.335000 0.687500 0.142500
0.397500 0.687500 0.142500
0.460000 0.687500 0.142500
0.522500 0.687500 0.142500
0.585000 0.687500 0.142500
0.644091 0.680091 0.189591
0.702210 0.681960 0.191460
0.760328 0.683828 0.193329
0.818447 0.685697 0.195197
0.876566 0.687566 0.197066
0.934685 0.689435 0.198935
0.000000 0.750000 0.142500
0.022500 0.750000 0.142500
0.085000 0.750000 0.142500
0.147500 0.750000 0.142500
0.210000 0.750000 0.142500
0.272500 0.750000 0.142500
0.335000 0.750000 0.142500
0.397500 0.750000 0.142500
0.460000 0.750000 0.142500
0.531522 0.736272 0.189522
0.589641 0.738141 0.191391
0.647760 0.740010 0.193260
0.705878 0.741878 0.195128
0.763997 0.743747 0.196997
0.822116 0.745616 0.198866
0.880235 0.747485 0.200735
0.938353 0.749354 0.202603
0.000000 0.812500 0.142500
0.022500 0.812500 0.142500
0.085000 0.812500 0.142500
0.147500 0.812500 0.142500
0.210000 0.812500 0.142500
0.272500 0.812500 0.142500
0.335000 0.812500 0.142500
0.418953 0.792454 0.189453
0.477072 0.794322 0.191322
0.535191 0.796191 0.193191
0.593310 0.798060 0.195060
0.651428 0.799929 0.196928
0.709547 0.801797 0.198797
0.767666 0.803666 0.200666
0.825785 0.805535 0.202535
0.883903 0.807403 0.204403
0.942022 0.809272 0.206272
0.000000 0.875000 0.142500
0.022500 0.875000 0.142500
0.085000 0.875000 0.142500
0.147500 0.875000 0.142500
0.210000 0.875000 0.142500
0.306385 0.848635 0.189385
0.364504 0.850503 0.191254
0.422622 0.852372 0.193122
0.480741 0.854241 0.194991
0.538860 0.856110 0.196860
0.596978 0.857978 0.198728
0.655097 0.859847 0.200597
0.713216 0.861716 0.202466
0.771335 0.863585 0.204335
0.829453 0.865453 0.206203
0.887572 0.867322 0.208072
0.945691 0.869191 0.209941
0.000000 0.937500 0.142500
0.022500 0.937500 0.142500
0.085000 0.937500 0.142500
0.193816 0.904816 0.189316
0.251935 0.906685 0.191185
0.310053 0.908554 0.193054
0.368172 0.910422 0.194922
0.426291 0.912291 0.196791
0.484410 0.914160 0.198660
0.542528 0.916029 0.200528
0.600647 0.917897 0.202397
0.658766 0.919766 0.204266
0.716885 0.921635 0.206135
0.775003 0.923504 0.208004
0.833122 0.925372 0.209872
0.891241 0.927241 0.211741
0.949360 0.929110 0.213610
0.000000 1.000000 0.142500
0.081247 0.960997 0.189247
0.139366 0.962866 0.191116
0.197485 0.964735 0.192985
0.255603 0.966603 0.194854
0.313722 0.968472 0.196722
0.371841 0.970341 0.198591
0.429960 0.972210 0.200460
0.488079 0.974078 0.202328
0.546197 0.975947 0.204197
0.604316 0.977816 0.206066
0.662435 0.979685 0.207935
0.720553 0.981553 0.209804
0.778672 0.983422 0.211672
0.836791 0.985291 0.213541
0.894910 0.987160 0.215410
0.953028 0.989028 0.217278
0.000000 0.000000 0.205000
0.022500 0.000000 0.205000
0.085000 0.000000 0.205000
0.147500 0.000000 0.205000
0.210000 0.000000 0.205000
0.272500 0.000000 0.205000
0.335000 0.000000 0.205000
0.397500 0.000000 0.205000
0.460000 0.000000 0.205000
0.522500 0.000000 0.205000
0.585000 0.000000 0.205000
0.647500 0.000000 0.205000
0.710000 0.000000 0.205000
0.772500 0.000000 0.205000
0.835000 0.000000 0.205000
0.897500 0.000000 0.205000
0.960000 0.000000 0.205000
0.000000 0.062500 0.205000
0.022500 0.062500 0.205000
0.085000 0.062500 0.205000
0.147500 0.062500 0.205000
0.210000 0.062500 0.205000
0.272500 0.062500 0.205000
0.335000 0.062500 0.205000
0.397500 0.062500 0.205000
0.460000 0.062500 0.205000
0.522500 0.062500 0.205000
0.585000 0.062500 0.205000
0.647500 0.062500 0.205000
0.710000 0.062500 0.205000
0.772500 0.062500 0.205000
0.835000 0.062500 0.205000
0.897500 0.062500 0.205000
0.960000 0.062500 0.205000
0.000000 0.125000 0.205000
0.022500 0.125000 0.205000
0.085000 0.125000 0.205000
0.147500 0.125000 0.205000
0.210000 0.125000 0.205000
0.272500 0.125000 0.205000
0.335000 0.125000 0.205000
0.397500 0.125000 0.205000
0.460000 0.125000 0.205000
0.522500 0.125000 0.205000
0.585000 0.125000 0.205000
0.647500 0.125000 0.205000
0.710000 0.125000 0.205000
0.772500 0.125000 0.205000
0.835000 0.125000 0.205000
0.897500 0.125000 0.205000
0.960000 0.125000 0.205000
0.000000 0.187500 0.205000
0.022500 0.187500 0.205000
0.085000 0.187500 0.205000
0.147500 0.187500 0.205000
0.210000 0.187500 0.205000
0.272500 0.187500 0.205000
0.335000 0.187500 0.205000
0.397500 0.187500 0.205000
0.460000 0.187500 0.205000
0.522500 0.187500 0.205000
0.585000 0.187500 0.205000
0.647500 0.187500 0.205000
0.710000 0.187500 0.205000
0.772500 0.187500 0.205000
0.835000 0.187500 0.205000
0.897500 0.187500 0.205000
0.960000 0.187500 0.205000
0.000000 0.250000 0.205000
0.022500 0.250000 0.205000
0.085000 0.250000 0.205000
0.147500 0.250000 0.205000
0.210000 0.250000 0.205000
0.272500 0.250000 0.205000
0.335000 0.250000 0.205000
0.397500 0.250000 0.205000
0.460000 0.250000 0.205000
0.522500 0.250000 0.205000
0.585000 0.250000 0.205000
0.647500 0.250000 0.205000
0.710000 0.250000 0.205000
0.772500 0.250000 0.205000
0.835000 0.250000 0.205000
0.897500 0.250000 0.205000
0.960000 0.250000 0.205000
0.000000 0.312500 0.205000
0.022500 0.312500 0.205000
0.085000 0.312500 0.205000
0.147500 0.312500 0.205000
0.210000 0.312500 0.205000
0.272500 0.312500 0.205000
0.335000 0.312500 0.205000
0.397500 0.312500 0.205000
0.460000 0.312500 0.205000
0.522500 0.312500 0.205000
0.585000 0.312500 0.205000
0.647500 0.312500 0.205000
0.710000 0.312500 0.205000
0.772500 0.312500 0.205000
0.835000 0.312500 0.205000
0.897500 0.312500 0.205000
0.960000 0.312500 0.205000
0.000000 0.375000 0.205000
0.022500 0.375000 0.205000
0.085000 0.375000 0.205000
0.147500 0.375000 0.205000
0.210000 0.375000 0.205000
0.272500 0.375000 0.205000
0.335000 0.375000 0.205000
0.397500 0.375000 0.205000
0.460000 0.375000 0.205000
0.522500 0.375000 0.205000
0.585000 0.375000 0.205000
0.647500 0.375000 0.205000
0.710000 0.375000 0.205000
0.772500 0.375000 0.205000
0.835000 0.375000 0.205000
0.897500 0.375000 0.205000
0.960000 0.375000 0.205000
0.000000 0.437500 0.205000
0.022500 0.437500 0.205000
0.085000 0.437500 0.205000
0.147500 0.437500 0.205000
0.210000 0.437500 0.205000
0.272500 0.437500 0.205000
0.335000 0.437500 0.205000
0.397500 0.437500 0.205000
0.460000 0.437500 0.205000
0.522500 0.437500 0.205000
0.585000 0.437500 0.205000
0.647500 0.437500 0.205000
0.710000 0.437500 0.205000
0.772500 0.437500 0.205000
0.835000 0.437500 0.205000
0.897500 0.437500 0.205000
0.960000 0.437500 0.205000
0.000000 0.500000 0.205000
0.022500 0.500000 0.205000
0.085000 0.500000 0.205000
0.147500 0.500000 0.205000
0.210000 0.500000 0.205000
0.272500 0.500000 0.205000
0.335000 0.500000 0.205000
0.397500 0.500000 0.205000
0.460000 0.500000 0.205000
0.522500 0.500000 0.205000
0.585000 0.500000 0.205000
0.647500 0.500000 0.205000
0.710000 0.500000 0.205000
0.772500 0.500000 0.205000
0.835000 0.500000 0.205000
0.897500 0.500000 0.205000
0.924391 0.510391 0.244891
0.000000 0.562500 0.205000
0.022500 0.562500 0.205000
0.085000 0.562500 0.205000
0.147500 0.562500 0.205000
0.210000 0.562500 0.205000
0.272500 0.562500 0.205000
0.335000 0.562500 0.205000
0.397500 0.562500 0.205000
0.460000 0.562500 0.205000
0.522500 0.562500 0.205000
0.585000 0.562500 0.205000
0.647500 0.562500 0.205000
0.710000 0.562500 0.205000
0.772500 0.562500 0.205000
0.811822 0.566572 0.244822
0.869941 0.568441 0.246691
0.928060 0.570310 0.248560
0.000000 0.625000 0.205000
0.022500 0.625000 0.205000
0.085000 0.625000 0.205000
0.147500 0.625000 0.205000
0.210000 0.625000 0.205000
0.272500 0.625000 0.205000
0.335000 0.625000 0.205000
0.397500 0.625000 0.205000
0.460000 0.625000 0.205000
0.522500 0.625000 0.205000
0.585000 0.625000 0.205000
0.647500 0.625000 0.205000
0.699253 0.622753 0.244754
0.757372 0.624622 0.246622
0.815491 0.626491 0.248491
0.873610 0.628360 0.250360
0.931728 0.630228 0.252229
0.000000 0.687500 0.205000
0.022500 0.687500 0.205000
0.085000 0.687500 0.205000
0.147500 0.687500 0.205000
0.210000 0.687500 0.205000
0.272500 0.687500 0.205000
0.335000 0.687500 0.205000
0.397500 0.687500 0.205000
0.460000 0.687500 0.205000
0.522500 0.687500 0.205000
0.586685 0.678935 0.244685
0.644803 0.680804 0.246553
0.702922 0.682672 0.248422
0.761041 0.684541 0.250291
0.819160 0.686410 0.252160
0.877278 0.688279 0.254028
0.935397 0.690147 0.255897
0.000000 0.750000 0.205000
0.022500 0.750000 0.205000
0.085000 0.750000 0.205000
0.147500 0.750000 0.205000
0.210000 0.750000 0.205000
0.272500 0.750000 0.205000
0.335000 0.750000 0.205000
0.397500 0.750000 0.205000
0.474116 0.735116 0.244616
0.532235 0.736985 0.246485
0.590353 0.738854 0.248354
0.648472 0.740722 0.250222
0.706591 0.742591 0.252091
0.764710 0.744460 0.253960
0.822828 0.746328 0.255829
0.880947 0.748197 0.257697
0.939066 0.750066 0.259566
0.000000 0.812500 0.205000
0.022500 0.812500 0.205000
0.085000 0.812500 0.205000
0.147500 0.812500 0.205000
0.210000 0.812500 0.205000
0.272500 0.812500 0.205000
0.361547 0.791297 0.244547
0.419666 0.793166 0.246416
0.477785 0.795035 0.248285
0.535903 0.796903 0.250154
0.594022 0.798772 0.252022
0.652141 0.800641 0.253891
0.710260 0.802510 0.255760
0.768378 0.804378 0.257629
0.826497 0.806247 0.259497
0.884616 0.808116 0.261366
0.942735 0.809985 0.263235
0.000000 0.875000 0.205000
0.022500 0.875000 0.205000
0.085000 0.875000 0.205000
0.147500 0.875000 0.205000
0.210000 0.875000 0.205000
0.307097 0.849347 0.246347
0.365216 0.851216 0.248216
0.423335 0.853085 0.250085
0.481453 0.854954 0.251953
0.539572 0.856822 0.253822
0.597691 0.858691 0.255691
0.655810 0.860560 0.257560
0.713928 0.862429 0.259429
0.772047 0.864297 0.261297
0.830166 0.866166 0.263166
0.888285 0.868035 0.265035
0.946403 0.869903 0.266903
0.000000 0.937500 0.205000
0.022500 0.937500 0.205000
0.085000 0.937500 0.205000
0.194528 0.905528 0.246279
0.252647 0.907397 0.248147
0.310766 0.909266 0.250016
0.368885 0.911135 0.251885
0.427004 0.913003 0.253754
0.485122 0.914872 0.255622
0.543241 0.916741 0.257491
0.601360 0.918610 0.259360
0.659478 0.920478 0.261229
0.717597 0.922347 0.263097
0.775716 0.924216 0.264966
0.833835 0.926085 0.266835
0.891953 0.927953 0.268703
0.950072 0.929822 0.270572
0.000000 1.000000 0.205000
0.081960 0.961710 0.246210
0.140078 0.963579 0.248078
0.198197 0.965447 0.249947
0.256316 0.967316 0.251816
0.314435 0.969185 0.253685
0.372554 0.971054 0.255553
0.430672 0.972922 0.257422
0.488791 0.974791 0.259291
0.546910 0.976660 0.261160
0.605028 0.978529 0.263028
0.663147 0.980397 0.264897
0.721266 0.982266 0.266766
0.779385 0.984135 0.268635
0.837503 0.986004 0.270503
0.895622 0.987872 0.272372
0.953741 0.989741 0.274241
0.000000 0.000000 0.267500
0.022500 0.000000 0.267500
0.085000 0.000000 0.267500
0.147500 0.000000 0.267500
0.210000 0.000000 0.267500
0.272500 0.000000 0.267500
0.335000 0.000000 0.267500
0.397500 0.000000 0.267500
0.460000 0.000000 0.267500
0.522500 0.000000 0.267500
0.585000 0.000000 0.267500
0.647500 0.000000 0.267500
0.710000 0.000000 0.267500
0.772500 0.000000 0.267500
0.835000 0.000000 0.267500
0.897500 0.000000 0.267500
0.960000 0.000000 0.267500
0.000000 0.062500 0.267500
0.022500 0.062500 0.267500
0.085000 0.062500 0.267500
0.147500 0.062500 0.267500
