Tools/LUT_Grading_MCP/src/lut_grading_mcp/luts/cool_blue.cube
LUT_3D_SIZE 5
0.000000 0.000000 0.080000
0.210000 0.000000 0.080000
0.460000 0.000000 0.080000
0.710000 0.000000 0.080000
0.960000 0.000000 0.080000
0.000000 0.250000 0.080000
0.210000 0.250000 0.080000
0.460000 0.250000 0.080000
0.710000 0.250000 0.080000
0.960000 0.250000 0.080000
0.000000 0.500000 0.080000
0.210000 0.500000 0.080000
0.460000 0.500000 0.080000
0.710000 0.500000 0.080000
0.960000 0.500000 0.080000
0.000000 0.750000 0.080000
0.210000 0.750000 0.080000
0.460000 0.750000 0.080000
0.705166 0.741166 0.138166
0.937641 0.748641 0.145641
0.000000 1.000000 0.080000
0.254891 0.965891 0.137891
0.487366 0.973366 0.145366
0.719841 0.980841 0.152841
0.952316 0.988316 0.160316
0.000000 0.000000 0.330000
0.210000 0.000000 0.330000
0.460000 0.000000 0.330000
0.710000 0.000000 0.330000
0.960000 0.000000 0.330000
0.000000 0.250000 0.330000
0.210000 0.250000 0.330000
0.460000 0.250000 0.330000
0.710000 0.250000 0.330000
0.960000 0.250000 0.330000
0.000000 0.500000 0.330000
0.210000 0.500000 0.330000
0.460000 0.500000 0.330000
0.710000 0.500000 0.330000
0.925816 0.511816 0.358816
0.000000 0.750000 0.330000
0.210000 0.750000 0.330000
0.475541 0.736541 0.358541
0.708016 0.744016 0.366016
0.940491 0.751491 0.373491
0.025266 0.961266 0.358266
0.257741 0.968741 0.365741
0.490216 0.976216 0.373216
0.722691 0.983691 0.380691
0.955166 0.991166 0.388166
0.000000 0.000000 0.580000
0.210000 0.000000 0.580000
0.460000 0.000000 0.580000
0.710000 0.000000 0.580000
0.960000 0.000000 0.580000
0.000000 0.250000 0.580000
0.210000 0.250000 0.580000
0.460000 0.250000 0.580000
0.710000 0.250000 0.580000
0.960000 0.250000 0.580000
0.000000 0.500000 0.580000
0.210000 0.500000 0.580000
0.460000 0.500000 0.580000
0.710000 0.500000 0.580000
0.928666 0.514666 0.586666
0.000000 0.750000 0.580000
0.210000 0.750000 0.580000
0.478391 0.739391 0.586391
0.710866 0.746866 0.593866
0.943341 0.754341 0.601341
0.028116 0.964116 0.586116
0.260591 0.971591 0.593591
0.493066 0.979066 0.601066
0.725541 0.986541 0.608541
0.958016 0.994016 0.616016
0.000000 0.000000 0.830000
0.210000 0.000000 0.830000
0.460000 0.000000 0.830000
0.710000 0.000000 0.830000
0.960000 0.000000 0.830000
0.000000 0.250000 0.830000
0.210000 0.250000 0.830000
0.460000 0.250000 0.830000
0.710000 0.250000 0.830000
0.960000 0.250000 0.830000
0.000000 0.500000 0.830000
0.210000 0.500000 0.830000
0.460000 0.500000 0.830000
0.699041 0.510041 0.807041
0.931516 0.517516 0.814516
0.000000 0.750000 0.830000
0.210000 0.750000 0.830000
0.481241 0.742241 0.814241
0.713716 0.749716 0.821716
0.946191 0.757191 0.829191
0.030966 0.966966 0.813966
0.263441 0.974441 0.821441
0.495916 0.981916 0.828916
0.728391 0.989391 0.836391
0.960866 0.996866 0.843866
0.000000 0.000000 1.000000
0.210000 0.000000 1.000000
0.460000 0.000000 1.000000
0.710000 0.000000 1.000000
0.960000 0.000000 1.000000
0.000000 0.250000 1.000000
0.210000 0.250000 1.000000
0.460000 0.250000 1.000000
0.710000 0.250000 1.000000
0.960000 0.250000 1.000000
0.000000 0.500000 1.000000
0.210000 0.500000 1.000000
0.460000 0.500000 1.000000
0.701891 0.512891 1.000000
0.934366 0.520366 1.000000
0.000000 0.750000 1.000000
0.251616 0.737616 1.000000
0.484091 0.745091 1.000000
0.716566 0.752566 1.000000
0.949041 0.760041 1.000000
0.033816 0.969816 1.000000
0.266291 0.977291 1.000000
0.498766 0.984766 1.000000
0.731241 0.992241 1.000000
0.963716 0.999716 1.000000
