Tools/LUT_Grading_MCP/src/lut_grading_mcp/luts/cool_blue.cube
LUT_3D_SIZE 9
0.000000 0.000000 0.080000
0.085000 0.000000 0.080000
0.210000 0.000000 0.080000
0.335000 0.000000 0.080000
0.460000 0.000000 0.080000
0.585000 0.000000 0.080000
0.710000 0.000000 0.080000
0.835000 0.000000 0.080000
0.960000 0.000000 0.080000
0.000000 0.125000 0.080000
0.085000 0.125000 0.080000
0.210000 0.125000 0.080000
0.335000 0.125000 0.080000
0.460000 0.125000 0.080000
0.585000 0.125000 0.080000
0.710000 0.125000 0.080000
0.835000 0.125000 0.080000
0.960000 0.125000 0.080000
0.000000 0.250000 0.080000
0.085000 0.250000 0.080000
0.210000 0.250000 0.080000
0.335000 0.250000 0.080000
0.460000 0.250000 0.080000
0.585000 0.250000 0.080000
0.710000 0.250000 0.080000
0.835000 0.250000 0.080000
0.960000 0.250000 0.080000
0.000000 0.375000 0.080000
0.085000 0.375000 0.080000
0.210000 0.375000 0.080000
0.335000 0.375000 0.080000
0.460000 0.375000 0.080000
0.585000 0.375000 0.080000
0.710000 0.375000 0.080000
0.835000 0.375000 0.080000
0.960000 0.375000 0.080000
0.000000 0.500000 0.080000
0.085000 0.500000 0.080000
0.210000 0.500000 0.080000
0.335000 0.500000 0.080000
0.460000 0.500000 0.080000
0.585000 0.500000 0.080000
0.710000 0.500000 0.080000
0.835000 0.500000 0.080000
0.960000 0.500000 0.080000
0.000000 0.625000 0.080000
0.085000 0.625000 0.080000
0.210000 0.625000 0.080000
0.335000 0.625000 0.080000
0.460000 0.625000 0.080000
0.585000 0.625000 0.080000
0.710000 0.625000 0.080000
0.814066 0.625066 0.134566
0.930303 0.628803 0.138303
0.000000 0.750000 0.080000
0.085000 0.750000 0.080000
0.210000 0.750000 0.080000
0.335000 0.750000 0.080000
0.460000 0.750000 0.080000
0.588928 0.737429 0.134428
0.705166 0.741166 0.138166
0.821403 0.744903 0.141903
0.937641 0.748641 0.145641
0.000000 0.875000 0.080000
0.085000 0.875000 0.080000
0.210000 0.875000 0.080000
0.363791 0.849791 0.134291
0.480029 0.853529 0.138028
0.596266 0.857266 0.141766
0.712503 0.861004 0.145503
0.828741 0.864741 0.149241
0.944978 0.868479 0.152978
0.000000 1.000000 0.080000
0.138653 0.962153 0.134153
0.254891 0.965891 0.137891
0.371129 0.969629 0.141628
0.487366 0.973366 0.145366
0.603603 0.977104 0.149103
0.719841 0.980841 0.152841
0.836078 0.984579 0.156578
0.952316 0.988316 0.160316
0.000000 0.000000 0.205000
0.085000 0.000000 0.205000
0.210000 0.000000 0.205000
0.335000 0.000000 0.205000
0.460000 0.000000 0.205000
0.585000 0.000000 0.205000
0.710000 0.000000 0.205000
0.835000 0.000000 0.205000
0.960000 0.000000 0.205000
0.000000 0.125000 0.205000
0.085000 0.125000 0.205000
0.210000 0.125000 0.205000
0.335000 0.125000 0.205000
0.460000 0.125000 0.205000
0.585000 0.125000 0.205000
0.710000 0.125000 0.205000
0.835000 0.125000 0.205000
0.960000 0.125000 0.205000
0.000000 0.250000 0.205000
0.085000 0.250000 0.205000
0.210000 0.250000 0.205000
0.335000 0.250000 0.205000
0.460000 0.250000 0.205000
0.585000 0.250000 0.205000
0.710000 0.250000 0.205000
0.835000 0.250000 0.205000
0.960000 0.250000 0.205000
0.000000 0.375000 0.205000
0.085000 0.375000 0.205000
0.210000 0.375000 0.205000
0.335000 0.375000 0.205000
0.460000 0.375000 0.205000
0.585000 0.375000 0.205000
0.710000 0.375000 0.205000
0.835000 0.375000 0.205000
0.960000 0.375000 0.205000
0.000000 0.500000 0.205000
0.085000 0.500000 0.205000
0.210000 0.500000 0.205000
0.335000 0.500000 0.205000
0.460000 0.500000 0.205000
0.585000 0.500000 0.205000
0.710000 0.500000 0.205000
0.835000 0.500000 0.205000
0.924391 0.510391 0.244891
0.000000 0.625000 0.205000
0.085000 0.625000 0.205000
0.210000 0.625000 0.205000
0.335000 0.625000 0.205000
0.460000 0.625000 0.205000
0.585000 0.625000 0.205000
0.699253 0.622753 0.244754
0.815491 0.626491 0.248491
0.931728 0.630228 0.252229
0.000000 0.750000 0.205000
0.085000 0.750000 0.205000
0.210000 0.750000 0.205000
0.335000 0.750000 0.205000
0.474116 0.735116 0.244616
0.590353 0.738854 0.248354
0.706591 0.742591 0.252091
0.822828 0.746328 0.255829
0.939066 0.750066 0.259566
0.000000 0.875000 0.205000
0.085000 0.875000 0.205000
0.210000 0.875000 0.205000
0.365216 0.851216 0.248216
0.481453 0.854954 0.251953
0.597691 0.858691 0.255691
0.713928 0.862429 0.259429
0.830166 0.866166 0.263166
0.946403 0.869903 0.266903
0.000000 1.000000 0.205000
0.140078 0.963579 0.248078
0.256316 0.967316 0.251816
0.372554 0.971054 0.255553
0.488791 0.974791 0.259291
0.605028 0.978529 0.263028
0.721266 0.982266 0.266766
0.837503 0.986004 0.270503
0.953741 0.989741 0.274241
0.000000 0.000000 0.330000
0.085000 0.000000 0.330000
0.210000 0.000000 0.330000
0.335000 0.000000 0.330000
0.460000 0.000000 0.330000
0.585000 0.000000 0.330000
0.710000 0.000000 0.330000
0.835000 0.000000 0.330000
0.960000 0.000000 0.330000
0.000000 0.125000 0.330000
0.085000 0.125000 0.330000
0.210000 0.125000 0.330000
0.335000 0.125000 0.330000
0.460000 0.125000 0.330000
0.585000 0.125000 0.330000
0.710000 0.125000 0.330000
0.835000 0.125000 0.330000
0.960000 0.125000 0.330000
0.000000 0.250000 0.330000
0.085000 0.250000 0.330000
0.210000 0.250000 0.330000
0.335000 0.250000 0.330000
0.460000 0.250000 0.330000
0.585000 0.250000 0.330000
0.710000 0.250000 0.330000
0.835000 0.250000 0.330000
0.960000 0.250000 0.330000
0.000000 0.375000 0.330000
0.085000 0.375000 0.330000
0.210000 0.375000 0.330000
0.335000 0.375000 0.330000
0.460000 0.375000 0.330000
0.585000 0.375000 0.330000
0.710000 0.375000 0.330000
0.835000 0.375000 0.330000
0.960000 0.375000 0.330000
0.000000 0.500000 0.330000
0.085000 0.500000 0.330000
0.210000 0.500000 0.330000
0.335000 0.500000 0.330000
0.460000 0.500000 0.330000
0.585000 0.500000 0.330000
0.710000 0.500000 0.330000
0.835000 0.500000 0.330000
0.925816 0.511816 0.358816
0.000000 0.625000 0.330000
0.085000 0.625000 0.330000
0.210000 0.625000 0.330000
0.335000 0.625000 0.330000
0.460000 0.625000 0.330000
0.585000 0.625000 0.330000
0.700678 0.624178 0.358679
0.816916 0.627916 0.362416
0.933153 0.631653 0.366154
0.000000 0.750000 0.330000
0.085000 0.750000 0.330000
0.210000 0.750000 0.330000
0.335000 0.750000 0.330000
0.475541 0.736541 0.358541
0.591778 0.740278 0.362279
0.708016 0.744016 0.366016
0.824253 0.747753 0.369754
0.940491 0.751491 0.373491
0.000000 0.875000 0.330000
0.085000 0.875000 0.330000
0.250403 0.848904 0.358403
0.366641 0.852641 0.362141
0.482878 0.856379 0.365878
0.599116 0.860116 0.369616
0.715353 0.863854 0.373354
0.831591 0.867591 0.377091
0.947828 0.871328 0.380829
0.025266 0.961266 0.358266
0.141503 0.965004 0.362003
0.257741 0.968741 0.365741
0.373978 0.972479 0.369478
0.490216 0.976216 0.373216
0.606453 0.979954 0.376953
0.722691 0.983691 0.380691
0.838928 0.987429 0.384429
0.955166 0.991166 0.388166
0.000000 0.000000 0.455000
0.085000 0.000000 0.455000
0.210000 0.000000 0.455000
0.335000 0.000000 0.455000
0.460000 0.000000 0.455000
0.585000 0.000000 0.455000
0.710000 0.000000 0.455000
0.835000 0.000000 0.455000
0.960000 0.000000 0.455000
0.000000 0.125000 0.455000
0.085000 0.125000 0.455000
0.210000 0.125000 0.455000
0.335000 0.125000 0.455000
0.460000 0.125000 0.455000
0.585000 0.125000 0.455000
0.710000 0.125000 0.455000
0.835000 0.125000 0.455000
0.960000 0.125000 0.455000
0.000000 0.250000 0.455000
0.085000 0.250000 0.455000
0.210000 0.250000 0.455000
0.335000 0.250000 0.455000
0.460000 0.250000 0.455000
0.585000 0.250000 0.455000
0.710000 0.250000 0.455000
0.835000 0.250000 0.455000
0.960000 0.250000 0.455000
0.000000 0.375000 0.455000
0.085000 0.375000 0.455000
0.210000 0.375000 0.455000
0.335000 0.375000 0.455000
0.460000 0.375000 0.455000
0.585000 0.375000 0.455000
0.710000 0.375000 0.455000
0.835000 0.375000 0.455000
0.960000 0.375000 0.455000
0.000000 0.500000 0.455000
0.085000 0.500000 0.455000
0.210000 0.500000 0.455000
0.335000 0.500000 0.455000
0.460000 0.500000 0.455000
0.585000 0.500000 0.455000
0.710000 0.500000 0.455000
0.835000 0.500000 0.455000
0.927241 0.513241 0.472741
0.000000 0.625000 0.455000
0.085000 0.625000 0.455000
0.210000 0.625000 0.455000
0.335000 0.625000 0.455000
0.460000 0.625000 0.455000
0.585000 0.625000 0.455000
0.702103 0.625603 0.472604
0.818341 0.629341 0.476341
0.934578 0.633078 0.480078
0.000000 0.750000 0.455000
0.085000 0.750000 0.455000
0.210000 0.750000 0.455000
0.335000 0.750000 0.455000
0.476966 0.737966 0.472466
0.593203 0.741703 0.476204
0.709441 0.745441 0.479941
0.825678 0.749178 0.483679
0.941916 0.752916 0.487416
0.000000 0.875000 0.455000
0.085000 0.875000 0.455000
0.251828 0.850329 0.472329
0.368066 0.854066 0.476066
0.484303 0.857803 0.479803
0.600541 0.861541 0.483541
0.716778 0.865278 0.487279
0.833016 0.869016 0.491016
0.949253 0.872753 0.494754
0.026691 0.962691 0.472191
0.142928 0.966429 0.475928
0.259166 0.970166 0.479666
0.375404 0.973904 0.483403
0.491641 0.977641 0.487141
0.607878 0.981378 0.490878
0.724116 0.985116 0.494616
0.840353 0.988854 0.498354
0.956591 0.992591 0.502091
0.000000 0.000000 0.580000
0.085000 0.000000 0.580000
0.210000 0.000000 0.580000
0.335000 0.000000 0.580000
0.460000 0.000000 0.580000
0.585000 0.000000 0.580000
0.710000 0.000000 0.580000
0.835000 0.000000 0.580000
0.960000 0.000000 0.580000
0.000000 0.125000 0.580000
0.085000 0.125000 0.580000
0.210000 0.125000 0.580000
0.335000 0.125000 0.580000
0.460000 0.125000 0.580000
0.585000 0.125000 0.580000
0.710000 0.125000 0.580000
0.835000 0.125000 0.580000
0.960000 0.125000 0.580000
0.000000 0.250000 0.580000
0.085000 0.250000 0.580000
0.210000 0.250000 0.580000
0.335000 0.250000 0.580000
0.460000 0.250000 0.580000
0.585000 0.250000 0.580000
0.710000 0.250000 0.580000
0.835000 0.250000 0.580000
0.960000 0.250000 0.580000
0.000000 0.375000 0.580000
0.085000 0.375000 0.580000
0.210000 0.375000 0.580000
0.335000 0.375000 0.580000
0.460000 0.375000 0.580000
0.585000 0.375000 0.580000
0.710000 0.375000 0.580000
0.835000 0.375000 0.580000
0.960000 0.375000 0.580000
0.000000 0.500000 0.580000
0.085000 0.500000 0.580000
0.210000 0.500000 0.580000
0.335000 0.500000 0.580000
0.460000 0.500000 0.580000
0.585000 0.500000 0.580000
0.710000 0.500000 0.580000
0.812428 0.510929 0.582928
0.928666 0.514666 0.586666
0.000000 0.625000 0.580000
0.085000 0.625000 0.580000
0.210000 0.625000 0.580000
0.335000 0.625000 0.580000
0.460000 0.625000 0.580000
0.587291 0.623291 0.582791
0.703529 0.627028 0.586529
0.819766 0.630766 0.590266
0.936003 0.634503 0.594003
0.000000 0.750000 0.580000
0.085000 0.750000 0.580000
0.210000 0.750000 0.580000
0.362154 0.735653 0.582653
0.478391 0.739391 0.586391
0.594629 0.743128 0.590128
0.710866 0.746866 0.593866
0.827103 0.750603 0.597603
0.943341 0.754341 0.601341
0.000000 0.875000 0.580000
0.137016 0.848016 0.582516
0.253253 0.851754 0.586253
0.369491 0.855491 0.589991
0.485729 0.859228 0.593728
0.601966 0.862966 0.597466
0.718203 0.866703 0.601204
0.834441 0.870441 0.604941
0.950678 0.874178 0.608678
0.028116 0.964116 0.586116
0.144353 0.967853 0.589853
0.260591 0.971591 0.593591
0.376829 0.975329 0.597328
0.493066 0.979066 0.601066
0.609303 0.982803 0.604803
0.725541 0.986541 0.608541
0.841778 0.990278 0.612278
0.958016 0.994016 0.616016
0.000000 0.000000 0.705000
0.085000 0.000000 0.705000
0.210000 0.000000 0.705000
0.335000 0.000000 0.705000
0.460000 0.000000 0.705000
0.585000 0.000000 0.705000
0.710000 0.000000 0.705000
0.835000 0.000000 0.705000
0.960000 0.000000 0.705000
0.000000 0.125000 0.705000
0.085000 0.125000 0.705000
0.210000 0.125000 0.705000
0.335000 0.125000 0.705000
0.460000 0.125000 0.705000
0.585000 0.125000 0.705000
0.710000 0.125000 0.705000
0.835000 0.125000 0.705000
0.960000 0.125000 0.705000
0.000000 0.250000 0.705000
0.085000 0.250000 0.705000
0.210000 0.250000 0.705000
0.335000 0.250000 0.705000
0.460000 0.250000 0.705000
0.585000 0.250000 0.705000
0.710000 0.250000 0.705000
0.835000 0.250000 0.705000
0.960000 0.250000 0.705000
0.000000 0.375000 0.705000
0.085000 0.375000 0.705000
0.210000 0.375000 0.705000
0.335000 0.375000 0.705000
0.460000 0.375000 0.705000
0.585000 0.375000 0.705000
0.710000 0.375000 0.705000
0.835000 0.375000 0.705000
0.960000 0.375000 0.705000
0.000000 0.500000 0.705000
0.085000 0.500000 0.705000
0.210000 0.500000 0.705000
0.335000 0.500000 0.705000
0.460000 0.500000 0.705000
0.585000 0.500000 0.705000
0.710000 0.500000 0.705000
0.813854 0.512354 0.696854
0.930091 0.516091 0.700591
0.000000 0.625000 0.705000
0.085000 0.625000 0.705000
0.210000 0.625000 0.705000
0.335000 0.625000 0.705000
0.460000 0.625000 0.705000
0.588716 0.624716 0.696716
0.704954 0.628453 0.700453
0.821191 0.632191 0.704191
0.937428 0.635929 0.707928
0.000000 0.750000 0.705000
0.085000 0.750000 0.705000
0.210000 0.750000 0.705000
0.363579 0.737078 0.696578
0.479816 0.740816 0.700316
0.596054 0.744553 0.704053
0.712291 0.748291 0.707791
0.828529 0.752028 0.711529
0.944766 0.755766 0.715266
0.000000 0.875000 0.705000
0.138441 0.849441 0.696441
0.254678 0.853179 0.700178
0.370916 0.856916 0.703916
0.487154 0.860653 0.707653
0.603391 0.864391 0.711391
0.719629 0.868128 0.715128
0.835866 0.871866 0.718866
0.952103 0.875603 0.722603
0.029541 0.965541 0.700041
0.145778 0.969278 0.703778
0.262016 0.973016 0.707516
0.378254 0.976754 0.711253
0.494491 0.980491 0.714991
0.610729 0.984228 0.718728
0.726966 0.987966 0.722466
0.843203 0.991703 0.726204
0.959441 0.995441 0.729941
0.000000 0.000000 0.830000
0.085000 0.000000 0.830000
0.210000 0.000000 0.830000
0.335000 0.000000 0.830000
0.460000 0.000000 0.830000
0.585000 0.000000 0.830000
0.710000 0.000000 0.830000
0.835000 0.000000 0.830000
0.960000 0.000000 0.830000
0.000000 0.125000 0.830000
0.085000 0.125000 0.830000
0.210000 0.125000 0.830000
0.335000 0.125000 0.830000
0.460000 0.125000 0.830000
0.585000 0.125000 0.830000
0.710000 0.125000 0.830000
0.835000 0.125000 0.830000
0.960000 0.125000 0.830000
0.000000 0.250000 0.830000
0.085000 0.250000 0.830000
0.210000 0.250000 0.830000
0.335000 0.250000 0.830000
0.460000 0.250000 0.830000
0.585000 0.250000 0.830000
0.710000 0.250000 0.830000
0.835000 0.250000 0.830000
0.960000 0.250000 0.830000
0.000000 0.375000 0.830000
0.085000 0.375000 0.830000
0.210000 0.375000 0.830000
0.335000 0.375000 0.830000
0.460000 0.375000 0.830000
0.585000 0.375000 0.830000
0.710000 0.375000 0.830000
0.835000 0.375000 0.830000
0.924179 0.397678 0.807179
0.000000 0.500000 0.830000
0.085000 0.500000 0.830000
0.210000 0.500000 0.830000
0.335000 0.500000 0.830000
0.460000 0.500000 0.830000
0.585000 0.500000 0.830000
0.699041 0.510041 0.807041
0.815279 0.513779 0.810778
0.931516 0.517516 0.814516
0.000000 0.625000 0.830000
0.085000 0.625000 0.830000
0.210000 0.625000 0.830000
0.335000 0.625000 0.830000
0.460000 0.625000 0.830000
0.590141 0.626141 0.810641
0.706379 0.629879 0.814379
0.822616 0.633616 0.818116
0.938854 0.637354 0.821854
0.000000 0.750000 0.830000
0.085000 0.750000 0.830000
0.210000 0.750000 0.830000
0.365004 0.738503 0.810503
0.481241 0.742241 0.814241
0.597479 0.745978 0.817978
0.713716 0.749716 0.821716
0.829954 0.753453 0.825453
0.946191 0.757191 0.829191
0.000000 0.875000 0.830000
0.139866 0.850866 0.810366
0.256103 0.854604 0.814103
0.372341 0.858341 0.817841
0.488579 0.862078 0.821578
0.604816 0.865816 0.825316
0.721054 0.869553 0.829053
0.837291 0.873291 0.832791
0.953529 0.877028 0.836529
0.030966 0.966966 0.813966
0.147203 0.970703 0.817703
0.263441 0.974441 0.821441
0.379679 0.978179 0.825178
0.495916 0.981916 0.828916
0.612154 0.985653 0.832653
0.728391 0.989391 0.836391
0.844629 0.993128 0.840128
0.960866 0.996866 0.843866
0.000000 0.000000 0.955000
0.085000 0.000000 0.955000
0.210000 0.000000 0.955000
0.335000 0.000000 0.955000
0.460000 0.000000 0.955000
0.585000 0.000000 0.955000
0.710000 0.000000 0.955000
0.835000 0.000000 0.955000
0.960000 0.000000 0.955000
0.000000 0.125000 0.955000
0.085000 0.125000 0.955000
0.210000 0.125000 0.955000
0.335000 0.125000 0.955000
0.460000 0.125000 0.955000
0.585000 0.125000 0.955000
0.710000 0.125000 0.955000
0.835000 0.125000 0.955000
0.960000 0.125000 0.955000
0.000000 0.250000 0.955000
0.085000 0.250000 0.955000
0.210000 0.250000 0.955000
0.335000 0.250000 0.955000
0.460000 0.250000 0.955000
0.585000 0.250000 0.955000
0.710000 0.250000 0.955000
0.835000 0.250000 0.955000
0.960000 0.250000 0.955000
0.000000 0.375000 0.955000
0.085000 0.375000 0.955000
0.210000 0.375000 0.955000
0.335000 0.375000 0.955000
0.460000 0.375000 0.955000
0.585000 0.375000 0.955000
0.710000 0.375000 0.955000
0.835000 0.375000 0.955000
0.925604 0.399103 0.921103
0.000000 0.500000 0.955000
0.085000 0.500000 0.955000
0.210000 0.500000 0.955000
0.335000 0.500000 0.955000
0.460000 0.500000 0.955000
0.585000 0.500000 0.955000
0.700466 0.511466 0.920966
0.816704 0.515203 0.924703
0.932941 0.518941 0.928441
0.000000 0.625000 0.955000
0.085000 0.625000 0.955000
0.210000 0.625000 0.955000
0.335000 0.625000 0.955000
0.475329 0.623829 0.920829
0.591566 0.627566 0.924566
0.707803 0.631304 0.928303
0.824041 0.635041 0.932041
0.940279 0.638779 0.935778
0.000000 0.750000 0.955000
0.085000 0.750000 0.955000
0.250191 0.736191 0.920691
0.366428 0.739928 0.924428
0.482666 0.743666 0.928166
0.598903 0.747403 0.931903
0.715141 0.751141 0.935641
0.831379 0.754879 0.939379
0.947616 0.758616 0.943116
0.025053 0.848553 0.920554
0.141291 0.852291 0.924291
0.257528 0.856028 0.928028
0.373766 0.859766 0.931766
0.490004 0.863503 0.935503
0.606241 0.867241 0.939241
0.722479 0.870978 0.942978
0.838716 0.874716 0.946716
0.954954 0.878453 0.950453
0.032391 0.968391 0.927891
0.148628 0.972128 0.931628
0.264866 0.975866 0.935366
0.381104 0.979604 0.939103
0.497341 0.983341 0.942841
0.613579 0.987078 0.946578
0.729816 0.990816 0.950316
0.846054 0.994553 0.954053
0.962291 0.998291 0.957791
0.000000 0.000000 1.000000
0.085000 0.000000 1.000000
0.210000 0.000000 1.000000
0.335000 0.000000 1.000000
0.460000 0.000000 1.000000
0.585000 0.000000 1.000000
0.710000 0.000000 1.000000
0.835000 0.000000 1.000000
0.960000 0.000000 1.000000
0.000000 0.125000 1.000000
0.085000 0.125000 1.000000
0.210000 0.125000 1.000000
0.335000 0.125000 1.000000
0.460000 0.125000 1.000000
0.585000 0.125000 1.000000
0.710000 0.125000 1.000000
0.835000 0.125000 1.000000
0.960000 0.125000 1.000000
0.000000 0.250000 1.000000
0.085000 0.250000 1.000000
0.210000 0.250000 1.000000
0.335000 0.250000 1.000000
0.460000 0.250000 1.000000
0.585000 0.250000 1.000000
0.710000 0.250000 1.000000
0.835000 0.250000 1.000000
0.960000 0.250000 1.000000
0.000000 0.375000 1.000000
0.085000 0.375000 1.000000
0.210000 0.375000 1.000000
0.335000 0.375000 1.000000
0.460000 0.375000 1.000000
0.585000 0.375000 1.000000
0.710000 0.375000 1.000000
0.835000 0.375000 1.000000
0.927029 0.400528 1.000000
0.000000 0.500000 1.000000
0.085000 0.500000 1.000000
0.210000 0.500000 1.000000
0.335000 0.500000 1.000000
0.460000 0.500000 1.000000
0.585000 0.500000 1.000000
0.701891 0.512891 1.000000
0.818128 0.516628 1.000000
0.934366 0.520366 1.000000
0.000000 0.625000 1.000000
0.085000 0.625000 1.000000
0.210000 0.625000 1.000000
0.335000 0.625000 1.000000
0.476753 0.625254 1.000000
0.592991 0.628991 1.000000
0.709228 0.632729 1.000000
0.825466 0.636466 1.000000
0.941704 0.640203 1.000000
0.000000 0.750000 1.000000
0.085000 0.750000 1.000000
0.251616 0.737616 1.000000
0.367853 0.741353 1.000000
0.484091 0.745091 1.000000
0.600328 0.748829 1.000000
0.716566 0.752566 1.000000
0.832803 0.756304 1.000000
0.949041 0.760041 1.000000
0.026478 0.849978 1.000000
0.142716 0.853716 1.000000
0.258953 0.857453 1.000000
0.375191 0.861191 1.000000
0.491428 0.864928 1.000000
0.607666 0.868666 1.000000
0.723903 0.872403 1.000000
0.840141 0.876141 1.000000
0.956379 0.879879 1.000000
0.033816 0.969816 1.000000
0.150053 0.973553 1.000000
0.266291 0.977291 1.000000
0.382528 0.981028 1.000000
0.498766 0.984766 1.000000
0.615003 0.988503 1.000000
0.731241 0.992241 1.000000
0.847479 0.995978 1.000000
0.963716 0.999716 1.000000
