Tools/LUT_Grading_MCP/src/lut_grading_mcp/luts/faded_film.cube
LUT_3D_SIZE 17
0.113981 0.085231 0.081481
0.156250 0.089062 0.085312
0.198518 0.092893 0.089143
0.240787 0.096724 0.092974
0.283055 0.100555 0.096805
0.325323 0.104386 0.100636
0.367592 0.108217 0.104467
0.409860 0.112048 0.108298
0.452129 0.115879 0.112129
0.494397 0.119710 0.115960
0.536666 0.123541 0.119791
0.578934 0.127372 0.123622
0.621202 0.131202 0.127453
0.663471 0.135033 0.131283
0.705739 0.138864 0.135114
0.748008 0.142695 0.138945
0.790276 0.146526 0.142776
0.121502 0.131190 0.089002
0.163771 0.135021 0.092833
0.206039 0.138852 0.096664
0.248307 0.142682 0.100495
0.290576 0.146513 0.104326
0.332844 0.150344 0.108157
0.375113 0.154175 0.111988
0.417381 0.158006 0.115819
0.459650 0.161837 0.119650
0.501918 0.165668 0.123481
0.544187 0.169499 0.127312
0.586455 0.173330 0.131142
0.628723 0.177161 0.134973
0.670992 0.180992 0.138804
0.713260 0.184823 0.142635
0.755529 0.188654 0.146466
0.797797 0.192485 0.150297
0.129023 0.177148 0.096523
0.171292 0.180979 0.100354
0.213560 0.184810 0.104185
0.255828 0.188641 0.108016
0.298097 0.192472 0.111847
0.340365 0.196303 0.115678
0.382634 0.200134 0.119509
0.424902 0.203965 0.123340
0.467171 0.207796 0.127171
0.509439 0.211627 0.131002
0.551707 0.215457 0.134833
0.593976 0.219288 0.138663
0.636244 0.223119 0.142494
0.678513 0.226950 0.146325
0.720781 0.230781 0.150156
0.763050 0.234612 0.153987
0.805318 0.238443 0.157818
0.136544 0.223107 0.104044
0.178812 0.226938 0.107875
0.221081 0.230768 0.111706
0.263349 0.234599 0.115537
0.305618 0.238430 0.119368
0.347886 0.242261 0.123199
0.390155 0.246092 0.127030
0.432423 0.249923 0.130861
0.474692 0.253754 0.134692
0.516960 0.257585 0.138522
0.559228 0.261416 0.142353
0.601497 0.265247 0.146184
0.643765 0.269078 0.150015
0.686034 0.272909 0.153846
0.728302 0.276740 0.157677
0.770571 0.280571 0.161508
0.812839 0.284402 0.165339
0.144065 0.269065 0.111565
0.186333 0.272896 0.115396
0.228602 0.276727 0.119227
0.270870 0.280558 0.123058
0.313139 0.284389 0.126889
0.355407 0.288220 0.130720
0.397676 0.292051 0.134551
0.439944 0.295882 0.138382
0.482213 0.299712 0.142213
0.524481 0.303543 0.146043
0.566749 0.307374 0.149874
0.609018 0.311205 0.153705
0.651286 0.315036 0.157536
0.693555 0.318867 0.161367
0.735823 0.322698 0.165198
0.778092 0.326529 0.169029
0.820360 0.330360 0.172860
0.151586 0.315023 0.119086
0.193854 0.318854 0.122917
0.236123 0.322685 0.126748
0.278391 0.326516 0.130579
0.320660 0.330347 0.134410
0.362928 0.334178 0.138241
0.405197 0.338009 0.142072
0.447465 0.341840 0.145902
0.489733 0.345671 0.149733
0.532002 0.349502 0.153564
0.574270 0.353333 0.157395
0.616539 0.357164 0.161226
0.658807 0.360995 0.165057
0.701076 0.364826 0.168888
0.743344 0.368657 0.172719
0.785612 0.372487 0.176550
0.827881 0.376318 0.180381
0.159107 0.360982 0.126607
0.201375 0.364813 0.130438
0.243644 0.368644 0.134269
0.285912 0.372475 0.138100
0.328181 0.376306 0.141931
0.370449 0.380137 0.145762
0.412718 0.383968 0.149593
0.454986 0.387798 0.153423
0.497254 0.391629 0.157254
0.539523 0.395460 0.161085
0.581791 0.399291 0.164916
0.624060 0.403122 0.168747
0.666328 0.406953 0.172578
0.708597 0.410784 0.176409
0.750865 0.414615 0.180240
0.793133 0.418446 0.184071
0.835402 0.422277 0.187902
0.166628 0.406940 0.134128
0.208896 0.410771 0.137959
0.251165 0.414602 0.141790
0.293433 0.418433 0.145621
0.335702 0.422264 0.149452
0.377970 0.426095 0.153282
0.420238 0.429926 0.157113
0.462507 0.433757 0.160944
0.504775 0.437588 0.164775
0.547044 0.441419 0.168606
0.589312 0.445250 0.172437
0.631581 0.449081 0.176268
0.673849 0.452912 0.180099
0.716118 0.456742 0.183930
0.758386 0.460573 0.187761
0.800654 0.464404 0.191592
0.842923 0.468235 0.195423
0.174149 0.452899 0.141649
0.216417 0.456730 0.145480
0.258686 0.460561 0.149311
0.300954 0.464392 0.153142
0.343222 0.468222 0.156973
0.385491 0.472053 0.160803
0.427759 0.475884 0.164634
0.470028 0.479715 0.168465
0.512296 0.483546 0.172296
0.554565 0.487377 0.176127
0.596833 0.491208 0.179958
0.639102 0.495039 0.183789
0.681370 0.498870 0.187620
0.723638 0.502701 0.191451
0.765907 0.506532 0.195282
0.808175 0.510363 0.199113
0.850444 0.514194 0.202944
0.181670 0.498857 0.149170
0.223938 0.502688 0.153001
0.266207 0.506519 0.156832
0.308475 0.510350 0.160663
0.350743 0.514181 0.164493
0.393012 0.518012 0.168324
0.435280 0.521843 0.172155
0.477549 0.525674 0.175986
0.519817 0.529505 0.179817
0.562086 0.533336 0.183648
0.604354 0.537167 0.187479
0.646622 0.540998 0.191310
0.688891 0.544828 0.195141
0.731159 0.548659 0.198972
0.773428 0.552490 0.202803
0.815696 0.556321 0.206634
0.857965 0.560152 0.210465
0.189191 0.544816 0.156691
0.231459 0.548647 0.160522
0.273728 0.552477 0.164353
0.315996 0.556308 0.168183
0.358264 0.560139 0.172014
0.400533 0.563970 0.175845
0.442801 0.567801 0.179676
0.485070 0.571632 0.183507
0.527338 0.575463 0.187338
0.569607 0.579294 0.191169
0.611875 0.583125 0.195000
0.654143 0.586956 0.198831
0.696412 0.590787 0.202662
0.738680 0.594618 0.206493
0.780949 0.598449 0.210324
0.823217 0.602280 0.214155
0.865486 0.606111 0.217986
0.196712 0.590774 0.164212
0.238980 0.594605 0.168043
0.281248 0.598436 0.171873
0.323517 0.602267 0.175704
0.365785 0.606098 0.179535
0.408054 0.609929 0.183366
0.450322 0.613760 0.187197
0.492591 0.617591 0.191028
0.534859 0.621422 0.194859
0.577128 0.625252 0.198690
0.619396 0.629083 0.202521
0.661664 0.632914 0.206352
0.703933 0.636745 0.210183
0.746201 0.640576 0.214014
0.788470 0.644407 0.217845
0.830738 0.648238 0.221676
0.873007 0.652069 0.225507
0.204232 0.636732 0.171733
0.246501 0.640563 0.175563
0.288769 0.644394 0.179394
0.331038 0.648225 0.183225
0.373306 0.652056 0.187056
0.415575 0.655887 0.190887
0.457843 0.659718 0.194718
0.500112 0.663549 0.198549
0.542380 0.667380 0.202380
0.584648 0.671211 0.206211
0.626917 0.675042 0.210042
0.669185 0.678873 0.213873
0.711454 0.682704 0.217704
0.753722 0.686535 0.221535
0.795991 0.690366 0.225366
0.838259 0.694197 0.229197
0.880527 0.698027 0.233027
0.211753 0.682691 0.179253
0.254022 0.686522 0.183084
0.296290 0.690353 0.186915
0.338559 0.694184 0.190746
0.380827 0.698015 0.194577
0.423096 0.701846 0.198408
0.465364 0.705677 0.202239
0.507632 0.709507 0.206070
0.549901 0.713338 0.209901
0.592169 0.717169 0.213732
0.634438 0.721000 0.217563
0.676706 0.724831 0.221394
0.718975 0.728662 0.225225
0.761243 0.732493 0.229056
0.803512 0.736324 0.232887
0.845780 0.740155 0.236717
0.888048 0.743986 0.240548
0.219274 0.728649 0.186774
0.261543 0.732480 0.190605
0.303811 0.736311 0.194436
0.346080 0.740142 0.198267
0.388348 0.743973 0.202098
0.430617 0.747804 0.205929
0.472885 0.751635 0.209760
0.515153 0.755466 0.213591
0.557422 0.759297 0.217422
0.599690 0.763128 0.221253
0.641959 0.766959 0.225084
0.684227 0.770790 0.228915
0.726496 0.774621 0.232746
0.768764 0.778452 0.236577
0.811032 0.782282 0.240407
0.853301 0.786113 0.244238
0.895569 0.789944 0.248069
0.226795 0.774608 0.194295
0.269064 0.778439 0.198126
0.311332 0.782270 0.201957
0.353601 0.786101 0.205788
0.395869 0.789932 0.209619
0.438137 0.793762 0.213450
0.480406 0.797593 0.217281
0.522674 0.801424 0.221112
0.564943 0.805255 0.224943
0.607211 0.809086 0.228774
0.649480 0.812917 0.232605
0.691748 0.816748 0.236436
0.734017 0.820579 0.240267
0.776285 0.824410 0.244097
0.818553 0.828241 0.247928
0.860822 0.832072 0.251759
0.903090 0.835903 0.255590
0.234316 0.820566 0.201816
0.276585 0.824397 0.205647
0.318853 0.828228 0.209478
0.361122 0.832059 0.213309
0.403390 0.835890 0.217140
0.445658 0.839721 0.220971
0.487927 0.843552 0.224802
0.530195 0.847383 0.228633
0.572464 0.851214 0.232464
0.614732 0.855045 0.236295
0.657001 0.858876 0.240126
0.699269 0.862707 0.243957
0.741537 0.866537 0.247787
0.783806 0.870368 0.251618
0.826074 0.874199 0.255449
0.868343 0.878030 0.259280
0.910611 0.881861 0.263111
0.115442 0.086692 0.121379
0.157710 0.090523 0.125210
0.199979 0.094354 0.129041
0.242247 0.098185 0.132872
0.284516 0.102016 0.136703
0.326784 0.105847 0.140534
0.369053 0.109677 0.144365
0.411321 0.113508 0.148196
0.453589 0.117339 0.152027
0.495858 0.121170 0.155858
0.538126 0.125001 0.159689
0.580395 0.128832 0.163520
0.622663 0.132663 0.167351
0.664932 0.136494 0.171182
0.707200 0.140325 0.175012
0.749468 0.144156 0.178843
0.791737 0.147987 0.182674
0.122963 0.132650 0.128900
0.165231 0.136481 0.132731
0.207500 0.140312 0.136562
0.249768 0.144143 0.140393
0.292037 0.147974 0.144224
0.334305 0.151805 0.148055
0.376573 0.155636 0.151886
0.418842 0.159467 0.155717
0.461110 0.163298 0.159548
0.503379 0.167129 0.163379
0.545647 0.170960 0.167210
0.587916 0.174791 0.171041
0.630184 0.178622 0.174872
0.672453 0.182452 0.178702
0.714721 0.186283 0.182533
0.756989 0.190114 0.186364
0.799258 0.193945 0.190195
0.130484 0.178609 0.136421
0.172752 0.182440 0.140252
0.215021 0.186271 0.144083
0.257289 0.190102 0.147914
0.299558 0.193933 0.151745
0.341826 0.197763 0.155576
0.384094 0.201594 0.159407
0.426363 0.205425 0.163238
0.468631 0.209256 0.167069
0.510900 0.213087 0.170900
0.553168 0.216918 0.174731
0.595437 0.220749 0.178562
0.637705 0.224580 0.182392
0.679973 0.228411 0.186223
0.722242 0.232242 0.190054
0.764510 0.236073 0.193885
0.806779 0.239904 0.197716
0.138005 0.224567 0.143942
0.180273 0.228398 0.147773
0.222542 0.232229 0.151604
0.264810 0.236060 0.155435
0.307078 0.239891 0.159266
0.349347 0.243722 0.163097
0.391615 0.247553 0.166928
0.433884 0.251384 0.170759
0.476152 0.255215 0.174590
0.518421 0.259046 0.178421
0.560689 0.262877 0.182252
0.602957 0.266707 0.186083
0.645226 0.270538 0.189913
0.687494 0.274369 0.193744
0.729763 0.278200 0.197575
0.772031 0.282031 0.201406
0.814300 0.285862 0.205237
0.145526 0.270526 0.151463
0.187794 0.274357 0.155294
0.230062 0.278187 0.159125
0.272331 0.282018 0.162956
0.314599 0.285849 0.166787
0.356868 0.289680 0.170618
0.399136 0.293511 0.174449
0.441405 0.297342 0.178280
0.483673 0.301173 0.182111
0.525942 0.305004 0.185942
0.568210 0.308835 0.189772
0.610478 0.312666 0.193603
0.652747 0.316497 0.197434
0.695015 0.320328 0.201265
0.737284 0.324159 0.205096
0.779552 0.327990 0.208927
0.821821 0.331821 0.212758
0.153047 0.316484 0.158984
0.195315 0.320315 0.162815
0.237583 0.324146 0.166646
0.279852 0.327977 0.170477
0.322120 0.331808 0.174308
0.364389 0.335639 0.178139
0.406657 0.339470 0.181970
0.448926 0.343301 0.185801
0.491194 0.347132 0.189632
0.533463 0.350963 0.193463
0.575731 0.354793 0.197293
0.617999 0.358624 0.201124
0.660268 0.362455 0.204955
0.702536 0.366286 0.208786
0.744805 0.370117 0.212617
0.787073 0.373948 0.216448
0.829342 0.377779 0.220279
0.160568 0.362443 0.166505
0.202836 0.366273 0.170336
0.245104 0.370104 0.174167
0.287373 0.373935 0.177998
0.329641 0.377766 0.181829
0.371910 0.381597 0.185660
0.414178 0.385428 0.189491
0.456447 0.389259 0.193322
0.498715 0.393090 0.197152
0.540983 0.396921 0.200983
0.583252 0.400752 0.204814
0.625520 0.404583 0.208645
0.667789 0.408414 0.212476
0.710057 0.412245 0.216307
0.752326 0.416076 0.220138
0.794594 0.419907 0.223969
0.836862 0.423737 0.227800
0.168088 0.408401 0.174026
0.210357 0.412232 0.177857
0.252625 0.416063 0.181688
0.294894 0.419894 0.185519
0.337162 0.423725 0.189350
0.379431 0.427556 0.193181
0.421699 0.431387 0.197012
0.463967 0.435217 0.200842
0.506236 0.439048 0.204673
0.548504 0.442879 0.208504
0.590773 0.446710 0.212335
0.633041 0.450541 0.216166
0.675310 0.454372 0.219997
0.717578 0.458203 0.223828
0.759847 0.462034 0.227659
0.802115 0.465865 0.231490
0.844383 0.469696 0.235321
0.175609 0.454359 0.181547
0.217878 0.458190 0.185378
0.260146 0.462021 0.189209
0.302415 0.465852 0.193040
0.344683 0.469683 0.196871
0.386952 0.473514 0.200702
0.429220 0.477345 0.204533
0.471488 0.481176 0.208363
0.513757 0.485007 0.212194
0.556025 0.488838 0.216025
0.598294 0.492669 0.219856
0.640562 0.496500 0.223687
0.682831 0.500331 0.227518
0.725099 0.504162 0.231349
0.767367 0.507992 0.235180
0.809636 0.511823 0.239011
0.851904 0.515654 0.242842
0.183130 0.500318 0.189068
0.225399 0.504149 0.192899
0.267667 0.507980 0.196730
0.309936 0.511811 0.200561
0.352204 0.515642 0.204392
0.394473 0.519473 0.208222
0.436741 0.523303 0.212053
0.479009 0.527134 0.215884
0.521278 0.530965 0.219715
0.563546 0.534796 0.223546
0.605815 0.538627 0.227377
0.648083 0.542458 0.231208
0.690352 0.546289 0.235039
0.732620 0.550120 0.238870
0.774888 0.553951 0.242701
0.817157 0.557782 0.246532
0.859425 0.561613 0.250363
0.190651 0.546276 0.196589
0.232920 0.550107 0.200420
0.275188 0.553938 0.204251
0.317457 0.557769 0.208082
0.359725 0.561600 0.211913
0.401993 0.565431 0.215743
0.444262 0.569262 0.219574
0.486530 0.573093 0.223405
0.528799 0.576924 0.227236
0.571067 0.580755 0.231067
0.613336 0.584586 0.234898
0.655604 0.588417 0.238729
0.697873 0.592247 0.242560
0.740141 0.596078 0.246391
0.782409 0.599909 0.250222
0.824678 0.603740 0.254053
0.866946 0.607571 0.257884
0.198172 0.592235 0.204110
0.240441 0.596066 0.207941
0.282709 0.599897 0.211772
0.324978 0.603727 0.215602
0.367246 0.607558 0.219433
0.409514 0.611389 0.223264
0.451783 0.615220 0.227095
0.494051 0.619051 0.230926
0.536320 0.622882 0.234757
0.578588 0.626713 0.238588
0.620857 0.630544 0.242419
0.663125 0.634375 0.246250
0.705393 0.638206 0.250081
0.747662 0.642037 0.253912
0.789930 0.645868 0.257743
0.832199 0.649699 0.261574
0.874467 0.653530 0.265405
0.205693 0.638193 0.211631
0.247962 0.642024 0.215462
0.290230 0.645855 0.219293
0.332498 0.649686 0.223123
0.374767 0.653517 0.226954
0.417035 0.657348 0.230785
0.459304 0.661179 0.234616
0.501572 0.665010 0.238447
0.543841 0.668841 0.242278
0.586109 0.672672 0.246109
0.628377 0.676503 0.249940
0.670646 0.680333 0.253771
0.712914 0.684164 0.257602
0.755183 0.687995 0.261433
0.797451 0.691826 0.265264
0.839720 0.695657 0.269095
0.881988 0.699488 0.272926
0.213214 0.684152 0.219152
0.255483 0.687982 0.222982
0.297751 0.691813 0.226813
0.340019 0.695644 0.230644
0.382288 0.699475 0.234475
0.424556 0.703306 0.238306
0.466825 0.707137 0.242137
0.509093 0.710968 0.245968
0.551362 0.714799 0.249799
0.593630 0.718630 0.253630
0.635898 0.722461 0.257461
0.678167 0.726292 0.261292
0.720435 0.730123 0.265123
0.762704 0.733954 0.268954
0.804972 0.737785 0.272785
0.847241 0.741616 0.276616
0.889509 0.745447 0.280447
0.220735 0.730110 0.226672
0.263003 0.733941 0.230503
0.305272 0.737772 0.234334
0.347540 0.741603 0.238165
0.389809 0.745434 0.241996
0.432077 0.749265 0.245827
0.474346 0.753096 0.249658
0.516614 0.756927 0.253489
0.558883 0.760757 0.257320
0.601151 0.764588 0.261151
0.643419 0.768419 0.264982
0.685688 0.772250 0.268813
0.727956 0.776081 0.272644
0.770225 0.779912 0.276475
0.812493 0.783743 0.280306
0.854762 0.787574 0.284137
0.897030 0.791405 0.287967
0.228256 0.776068 0.234193
0.270524 0.779899 0.238024
0.312793 0.783730 0.241855
0.355061 0.787561 0.245686
0.397330 0.791392 0.249517
0.439598 0.795223 0.253348
0.481867 0.799054 0.257179
0.524135 0.802885 0.261010
0.566403 0.806716 0.264841
0.608672 0.810547 0.268672
0.650940 0.814378 0.272503
0.693209 0.818209 0.276334
0.735477 0.822040 0.280165
0.777746 0.825871 0.283996
0.820014 0.829702 0.287827
0.862282 0.833532 0.291657
0.904551 0.837363 0.295488
0.235777 0.822027 0.241714
0.278045 0.825858 0.245545
0.320314 0.829689 0.249376
0.362582 0.833520 0.253207
0.404851 0.837351 0.257038
0.447119 0.841182 0.260869
0.489387 0.845012 0.264700
0.531656 0.848843 0.268531
0.573924 0.852674 0.272362
0.616193 0.856505 0.276193
0.658461 0.860336 0.280024
0.700730 0.864167 0.283855
0.742998 0.867998 0.287686
0.785267 0.871829 0.291517
0.827535 0.875660 0.295347
0.869803 0.879491 0.299178
0.912072 0.883322 0.303009
0.116902 0.088153 0.161277
0.159171 0.091983 0.165108
0.201439 0.095814 0.168939
0.243708 0.099645 0.172770
0.285976 0.103476 0.176601
0.328245 0.107307 0.180432
0.370513 0.111138 0.184263
0.412782 0.114969 0.188094
0.455050 0.118800 0.191925
0.497318 0.122631 0.195756
0.539587 0.126462 0.199587
0.581855 0.130293 0.203418
0.624124 0.134124 0.207249
0.666392 0.137955 0.211080
0.708661 0.141786 0.214911
0.750929 0.145617 0.218742
0.793197 0.149448 0.222573
0.124423 0.134111 0.168798
0.166692 0.137942 0.172629
0.208960 0.141773 0.176460
0.251229 0.145604 0.180291
0.293497 0.149435 0.184122
0.335766 0.153266 0.187953
0.378034 0.157097 0.191784
0.420303 0.160928 0.195615
0.462571 0.164758 0.199446
0.504839 0.168589 0.203277
0.547108 0.172420 0.207108
0.589376 0.176251 0.210939
0.631645 0.180082 0.214770
0.673913 0.183913 0.218601
0.716182 0.187744 0.222432
0.758450 0.191575 0.226262
0.800718 0.195406 0.230093
0.131944 0.180069 0.176319
0.174213 0.183900 0.180150
0.216481 0.187731 0.183981
0.258750 0.191562 0.187812
0.301018 0.195393 0.191643
0.343287 0.199224 0.195474
0.385555 0.203055 0.199305
0.427823 0.206886 0.203136
0.470092 0.210717 0.206967
0.512360 0.214548 0.210798
0.554629 0.218379 0.214629
0.596897 0.222210 0.218460
0.639166 0.226041 0.222291
0.681434 0.229872 0.226122
0.723702 0.233702 0.229953
0.765971 0.237533 0.233783
0.808239 0.241364 0.237614
0.139465 0.226028 0.183840
0.181734 0.229859 0.187671
0.224002 0.233690 0.191502
0.266271 0.237521 0.195333
0.308539 0.241352 0.199164
0.350807 0.245183 0.202995
0.393076 0.249013 0.206826
0.435344 0.252844 0.210657
0.477613 0.256675 0.214488
0.519881 0.260506 0.218319
0.562150 0.264337 0.222150
0.604418 0.268168 0.225981
0.646687 0.271999 0.229812
0.688955 0.275830 0.233642
0.731223 0.279661 0.237473
0.773492 0.283492 0.241304
0.815760 0.287323 0.245135
0.146986 0.271986 0.191361
0.189255 0.275817 0.195192
0.231523 0.279648 0.199023
0.273792 0.283479 0.202854
0.316060 0.287310 0.206685
0.358328 0.291141 0.210516
0.400597 0.294972 0.214347
0.442865 0.298803 0.218178
0.485134 0.302634 0.222009
0.527402 0.306465 0.225840
0.569671 0.310296 0.229671
0.611939 0.314127 0.233502
0.654207 0.317958 0.237333
0.696476 0.321788 0.241163
0.738744 0.325619 0.244994
0.781013 0.329450 0.248825
0.823281 0.333281 0.252656
0.154507 0.317945 0.198882
0.196776 0.321776 0.202713
0.239044 0.325607 0.206544
0.281313 0.329437 0.210375
0.323581 0.333268 0.214206
0.365849 0.337099 0.218037
0.408118 0.340930 0.221868
0.450386 0.344761 0.225699
0.492655 0.348592 0.229530
0.534923 0.352423 0.233361
0.577192 0.356254 0.237192
0.619460 0.360085 0.241022
0.661728 0.363916 0.244853
0.703997 0.367747 0.248684
0.746265 0.371578 0.252515
0.788534 0.375409 0.256346
0.830802 0.379240 0.260177
0.162028 0.363903 0.206403
0.204297 0.367734 0.210234
0.246565 0.371565 0.214065
0.288833 0.375396 0.217896
0.331102 0.379227 0.221727
0.373370 0.383058 0.225558
0.415639 0.386889 0.229389
0.457907 0.390720 0.233220
0.500176 0.394551 0.237051
0.542444 0.398382 0.240882
0.584712 0.402212 0.244712
0.626981 0.406043 0.248543
0.669249 0.409874 0.252374
0.711518 0.413705 0.256205
0.753786 0.417536 0.260036
0.796055 0.421367 0.263867
0.838323 0.425198 0.267698
0.169549 0.409862 0.213924
0.211817 0.413693 0.217755
0.254086 0.417523 0.221586
0.296354 0.421354 0.225417
0.338623 0.425185 0.229248
0.380891 0.429016 0.233079
0.423160 0.432847 0.236910
0.465428 0.436678 0.240741
0.507697 0.440509 0.244572
0.549965 0.444340 0.248402
0.592233 0.448171 0.252233
0.634502 0.452002 0.256064
0.676770 0.455833 0.259895
0.719039 0.459664 0.263726
0.761307 0.463495 0.267557
0.803576 0.467326 0.271388
0.845844 0.471157 0.275219
0.177070 0.455820 0.221445
0.219338 0.459651 0.225276
0.261607 0.463482 0.229107
0.303875 0.467313 0.232938
0.346144 0.471144 0.236769
0.388412 0.474975 0.240600
0.430681 0.478806 0.244431
0.472949 0.482637 0.248262
0.515217 0.486467 0.252092
0.557486 0.490298 0.255923
0.599754 0.494129 0.259754
0.642023 0.497960 0.263585
0.684291 0.501791 0.267416
0.726560 0.505622 0.271247
0.768828 0.509453 0.275078
0.811097 0.513284 0.278909
0.853365 0.517115 0.282740
0.184591 0.501778 0.228966
0.226859 0.505609 0.232797
0.269128 0.509440 0.236628
0.311396 0.513271 0.240459
0.353665 0.517102 0.244290
0.395933 0.520933 0.248121
0.438202 0.524764 0.251952
0.480470 0.528595 0.255783
0.522738 0.532426 0.259613
0.565007 0.536257 0.263444
0.607275 0.540088 0.267275
0.649544 0.543919 0.271106
0.691812 0.547750 0.274937
0.734081 0.551581 0.278768
0.776349 0.555412 0.282599
0.818617 0.559242 0.286430
0.860886 0.563073 0.290261
0.192112 0.547737 0.236487
0.234380 0.551568 0.240318
0.276649 0.555399 0.244149
0.318917 0.559230 0.247980
0.361186 0.563061 0.251811
0.403454 0.566892 0.255642
0.445722 0.570722 0.259472
0.487991 0.574553 0.263303
0.530259 0.578384 0.267134
0.572528 0.582215 0.270965
0.614796 0.586046 0.274796
0.657065 0.589877 0.278627
0.699333 0.593708 0.282458
0.741602 0.597539 0.286289
0.783870 0.601370 0.290120
0.826138 0.605201 0.293951
0.868407 0.609032 0.297782
0.199633 0.593695 0.244008
0.241901 0.597526 0.247839
0.284170 0.601357 0.251670
0.326438 0.605188 0.255501
0.368707 0.609019 0.259332
0.410975 0.612850 0.263162
0.453243 0.616681 0.266993
0.495512 0.620512 0.270824
0.537780 0.624343 0.274655
0.580049 0.628174 0.278486
0.622317 0.632005 0.282317
0.664586 0.635836 0.286148
0.706854 0.639667 0.289979
0.749123 0.643497 0.293810
0.791391 0.647328 0.297641
0.833659 0.651159 0.301472
0.875928 0.654990 0.305303
0.207154 0.639654 0.251529
0.249422 0.643485 0.255360
0.291691 0.647316 0.259191
0.333959 0.651147 0.263022
0.376227 0.654977 0.266852
0.418496 0.658808 0.270683
0.460764 0.662639 0.274514
0.503033 0.666470 0.278345
0.545301 0.670301 0.282176
0.587570 0.674132 0.286007
0.629838 0.677963 0.289838
0.672107 0.681794 0.293669
0.714375 0.685625 0.297500
0.756643 0.689456 0.301331
0.798912 0.693287 0.305162
0.841180 0.697118 0.308993
0.883449 0.700949 0.312824
0.214675 0.685612 0.259050
0.256943 0.689443 0.262881
0.299212 0.693274 0.266712
0.341480 0.697105 0.270542
0.383748 0.700936 0.274373
0.426017 0.704767 0.278204
0.468285 0.708598 0.282035
0.510554 0.712429 0.285866
0.552822 0.716260 0.289697
0.595091 0.720091 0.293528
0.637359 0.723922 0.297359
0.679627 0.727753 0.301190
0.721896 0.731583 0.305021
0.764164 0.735414 0.308852
0.806433 0.739245 0.312683
0.848701 0.743076 0.316514
0.890970 0.746907 0.320345
0.222196 0.731571 0.266571
0.264464 0.735402 0.270402
0.306732 0.739232 0.274232
0.349001 0.743063 0.278063
0.391269 0.746894 0.281894
0.433538 0.750725 0.285725
0.475806 0.754556 0.289556
0.518075 0.758387 0.293387
0.560343 0.762218 0.297218
0.602612 0.766049 0.301049
0.644880 0.769880 0.304880
0.687148 0.773711 0.308711
0.729417 0.777542 0.312542
0.771685 0.781373 0.316373
0.813954 0.785204 0.320204
0.856222 0.789035 0.324035
0.898491 0.792866 0.327866
0.229717 0.777529 0.274092
0.271985 0.781360 0.277922
0.314253 0.785191 0.281753
0.356522 0.789022 0.285584
0.398790 0.792853 0.289415
0.441059 0.796684 0.293246
0.483327 0.800515 0.297077
0.525596 0.804346 0.300908
0.567864 0.808177 0.304739
0.610133 0.812007 0.308570
0.652401 0.815838 0.312401
0.694669 0.819669 0.316232
0.736938 0.823500 0.320063
0.779206 0.827331 0.323894
0.821475 0.831162 0.327725
0.863743 0.834993 0.331556
0.906012 0.838824 0.335387
0.237237 0.823487 0.281612
0.279506 0.827318 0.285443
0.321774 0.831149 0.289274
0.364043 0.834980 0.293105
0.406311 0.838811 0.296936
0.448580 0.842642 0.300767
0.490848 0.846473 0.304598
0.533117 0.850304 0.308429
0.575385 0.854135 0.312260
0.617653 0.857966 0.316091
0.659922 0.861797 0.319922
0.702190 0.865628 0.323753
0.744459 0.869459 0.327584
0.786727 0.873290 0.331415
0.828996 0.877121 0.335246
0.871264 0.880952 0.339077
0.913532 0.884782 0.342907
0.118363 0.089613 0.201176
0.160632 0.093444 0.205007
0.202900 0.097275 0.208838
0.245168 0.101106 0.212668
0.287437 0.104937 0.216499
0.329705 0.108768 0.220330
0.371974 0.112599 0.224161
0.414242 0.116430 0.227992
0.456511 0.120261 0.231823
0.498779 0.124092 0.235654
0.541048 0.127922 0.239485
0.583316 0.131753 0.243316
0.625584 0.135584 0.247147
0.667853 0.139415 0.250978
0.710121 0.143246 0.254809
0.752390 0.147077 0.258640
0.794658 0.150908 0.262471
0.125884 0.135572 0.208697
0.168152 0.139403 0.212528
0.210421 0.143233 0.216358
0.252689 0.147064 0.220189
