Tools/LUT_Grading_MCP/src/lut_grading_mcp/luts/faded_film.cube
LUT_3D_SIZE 5
0.113981 0.085231 0.081481
0.283055 0.100555 0.096805
0.452129 0.115879 0.112129
0.621202 0.131202 0.127453
0.790276 0.146526 0.142776
0.144065 0.269065 0.111565
0.313139 0.284389 0.126889
0.482213 0.299712 0.142213
0.651286 0.315036 0.157536
0.820360 0.330360 0.172860
0.174149 0.452899 0.141649
0.343222 0.468222 0.156973
0.512296 0.483546 0.172296
0.681370 0.498870 0.187620
0.850444 0.514194 0.202944
0.204232 0.636732 0.171733
0.373306 0.652056 0.187056
0.542380 0.667380 0.202380
0.711454 0.682704 0.217704
0.880527 0.698027 0.233027
0.234316 0.820566 0.201816
0.403390 0.835890 0.217140
0.572464 0.851214 0.232464
0.741537 0.866537 0.247787
0.910611 0.881861 0.263111
0.119824 0.091074 0.241074
0.288898 0.106398 0.256397
0.457971 0.121721 0.271721
0.627045 0.137045 0.287045
0.796119 0.152369 0.302369
0.149907 0.274907 0.271157
0.318981 0.290231 0.286481
0.488055 0.305555 0.301805
0.657129 0.320879 0.317129
0.826202 0.336202 0.332452
0.179991 0.458741 0.301241
0.349065 0.474065 0.316565
0.518139 0.489389 0.331889
0.687213 0.504713 0.347212
0.856286 0.520036 0.362536
0.210075 0.642575 0.331325
0.379149 0.657899 0.346649
0.548222 0.673222 0.361972
0.717296 0.688546 0.377296
0.886370 0.703870 0.392620
0.240159 0.826409 0.361409
0.409232 0.841732 0.376732
0.578306 0.857056 0.392056
0.747380 0.872380 0.407380
0.916454 0.887704 0.422704
0.125666 0.096916 0.400666
0.294740 0.112240 0.415990
0.463814 0.127564 0.431314
0.632887 0.142888 0.446638
0.801961 0.158211 0.461961
0.155750 0.280750 0.430750
0.324824 0.296074 0.446074
0.493897 0.311397 0.461398
0.662971 0.326721 0.476721
0.832045 0.342045 0.492045
0.185834 0.464584 0.460834
0.354907 0.479907 0.476158
0.523981 0.495231 0.491481
0.693055 0.510555 0.506805
0.862129 0.525879 0.522129
0.215917 0.648417 0.490918
0.384991 0.663741 0.506241
0.554065 0.679065 0.521565
0.723139 0.694389 0.536889
0.892212 0.709712 0.552212
0.246001 0.832251 0.521001
0.415075 0.847575 0.536325
0.584149 0.862899 0.551649
0.753223 0.878222 0.566972
0.922296 0.893546 0.582296
0.131509 0.102759 0.560259
0.300583 0.118082 0.575582
0.469656 0.133406 0.590906
0.638730 0.148730 0.606230
0.807804 0.164054 0.621554
0.161592 0.286592 0.590342
0.330666 0.301916 0.605666
0.499740 0.317240 0.620990
0.668814 0.332564 0.636314
0.837888 0.347887 0.651637
0.191676 0.470426 0.620426
0.360750 0.485750 0.635750
0.529824 0.501074 0.651074
0.698897 0.516397 0.666397
0.867971 0.531721 0.681721
0.221760 0.654260 0.650510
0.390834 0.669584 0.665834
0.559908 0.684908 0.681157
0.728981 0.700231 0.696481
0.898055 0.715555 0.711805
0.251844 0.838094 0.680594
0.420917 0.853417 0.695917
0.589991 0.868741 0.711241
0.759065 0.884065 0.726565
0.928139 0.899389 0.741889
0.137351 0.108601 0.719851
0.306425 0.123925 0.735175
0.475499 0.139249 0.750499
0.644572 0.154573 0.765822
0.813646 0.169896 0.781146
0.167435 0.292435 0.749935
0.336509 0.307759 0.765259
0.505583 0.323082 0.780582
0.674656 0.338406 0.795906
0.843730 0.353730 0.811230
0.197519 0.476269 0.780019
0.366592 0.491592 0.795342
0.535666 0.506916 0.810666
0.704740 0.522240 0.825990
0.873814 0.537564 0.841314
0.227602 0.660102 0.810102
0.396676 0.675426 0.825426
0.565750 0.690750 0.840750
0.734824 0.706074 0.856074
0.903897 0.721397 0.871397
0.257686 0.843936 0.840186
0.426760 0.859260 0.855510
0.595834 0.874584 0.870834
0.764907 0.889907 0.886157
0.933981 0.905231 0.901481
