Tools/LUT_Grading_MCP/src/lut_grading_mcp/luts/faded_film.cube
LUT_3D_SIZE 9
0.113981 0.085231 0.081481
0.198518 0.092893 0.089143
0.283055 0.100555 0.096805
0.367592 0.108217 0.104467
0.452129 0.115879 0.112129
0.536666 0.123541 0.119791
0.621202 0.131202 0.127453
0.705739 0.138864 0.135114
0.790276 0.146526 0.142776
0.129023 0.177148 0.096523
0.213560 0.184810 0.104185
0.298097 0.192472 0.111847
0.382634 0.200134 0.119509
0.467171 0.207796 0.127171
0.551707 0.215457 0.134833
0.636244 0.223119 0.142494
0.720781 0.230781 0.150156
0.805318 0.238443 0.157818
0.144065 0.269065 0.111565
0.228602 0.276727 0.119227
0.313139 0.284389 0.126889
0.397676 0.292051 0.134551
0.482213 0.299712 0.142213
0.566749 0.307374 0.149874
0.651286 0.315036 0.157536
0.735823 0.322698 0.165198
0.820360 0.330360 0.172860
0.159107 0.360982 0.126607
0.243644 0.368644 0.134269
0.328181 0.376306 0.141931
0.412718 0.383968 0.149593
0.497254 0.391629 0.157254
0.581791 0.399291 0.164916
0.666328 0.406953 0.172578
0.750865 0.414615 0.180240
0.835402 0.422277 0.187902
0.174149 0.452899 0.141649
0.258686 0.460561 0.149311
0.343222 0.468222 0.156973
0.427759 0.475884 0.164634
0.512296 0.483546 0.172296
0.596833 0.491208 0.179958
0.681370 0.498870 0.187620
0.765907 0.506532 0.195282
0.850444 0.514194 0.202944
0.189191 0.544816 0.156691
0.273728 0.552477 0.164353
0.358264 0.560139 0.172014
0.442801 0.567801 0.179676
0.527338 0.575463 0.187338
0.611875 0.583125 0.195000
0.696412 0.590787 0.202662
0.780949 0.598449 0.210324
0.865486 0.606111 0.217986
0.204232 0.636732 0.171733
0.288769 0.644394 0.179394
0.373306 0.652056 0.187056
0.457843 0.659718 0.194718
0.542380 0.667380 0.202380
0.626917 0.675042 0.210042
0.711454 0.682704 0.217704
0.795991 0.690366 0.225366
0.880527 0.698027 0.233027
0.219274 0.728649 0.186774
0.303811 0.736311 0.194436
0.388348 0.743973 0.202098
0.472885 0.751635 0.209760
0.557422 0.759297 0.217422
0.641959 0.766959 0.225084
0.726496 0.774621 0.232746
0.811032 0.782282 0.240407
0.895569 0.789944 0.248069
0.234316 0.820566 0.201816
0.318853 0.828228 0.209478
0.403390 0.835890 0.217140
0.487927 0.843552 0.224802
0.572464 0.851214 0.232464
0.657001 0.858876 0.240126
0.741537 0.866537 0.247787
0.826074 0.874199 0.255449
0.910611 0.881861 0.263111
0.116902 0.088153 0.161277
0.201439 0.095814 0.168939
0.285976 0.103476 0.176601
0.370513 0.111138 0.184263
0.455050 0.118800 0.191925
0.539587 0.126462 0.199587
0.624124 0.134124 0.207249
0.708661 0.141786 0.214911
0.793197 0.149448 0.222573
0.131944 0.180069 0.176319
0.216481 0.187731 0.183981
0.301018 0.195393 0.191643
0.385555 0.203055 0.199305
0.470092 0.210717 0.206967
0.554629 0.218379 0.214629
0.639166 0.226041 0.222291
0.723702 0.233702 0.229953
0.808239 0.241364 0.237614
0.146986 0.271986 0.191361
0.231523 0.279648 0.199023
0.316060 0.287310 0.206685
0.400597 0.294972 0.214347
0.485134 0.302634 0.222009
0.569671 0.310296 0.229671
0.654207 0.317958 0.237333
0.738744 0.325619 0.244994
0.823281 0.333281 0.252656
0.162028 0.363903 0.206403
0.246565 0.371565 0.214065
0.331102 0.379227 0.221727
0.415639 0.386889 0.229389
0.500176 0.394551 0.237051
0.584712 0.402212 0.244712
0.669249 0.409874 0.252374
0.753786 0.417536 0.260036
0.838323 0.425198 0.267698
0.177070 0.455820 0.221445
0.261607 0.463482 0.229107
0.346144 0.471144 0.236769
0.430681 0.478806 0.244431
0.515217 0.486467 0.252092
0.599754 0.494129 0.259754
0.684291 0.501791 0.267416
0.768828 0.509453 0.275078
0.853365 0.517115 0.282740
0.192112 0.547737 0.236487
0.276649 0.555399 0.244149
0.361186 0.563061 0.251811
0.445722 0.570722 0.259472
0.530259 0.578384 0.267134
0.614796 0.586046 0.274796
0.699333 0.593708 0.282458
0.783870 0.601370 0.290120
0.868407 0.609032 0.297782
0.207154 0.639654 0.251529
0.291691 0.647316 0.259191
0.376227 0.654977 0.266852
0.460764 0.662639 0.274514
0.545301 0.670301 0.282176
0.629838 0.677963 0.289838
0.714375 0.685625 0.297500
0.798912 0.693287 0.305162
0.883449 0.700949 0.312824
0.222196 0.731571 0.266571
0.306732 0.739232 0.274232
0.391269 0.746894 0.281894
0.475806 0.754556 0.289556
0.560343 0.762218 0.297218
0.644880 0.769880 0.304880
0.729417 0.777542 0.312542
0.813954 0.785204 0.320204
0.898491 0.792866 0.327866
0.237237 0.823487 0.281612
0.321774 0.831149 0.289274
0.406311 0.838811 0.296936
0.490848 0.846473 0.304598
0.575385 0.854135 0.312260
0.659922 0.861797 0.319922
0.744459 0.869459 0.327584
0.828996 0.877121 0.335246
0.913532 0.884782 0.342907
0.119824 0.091074 0.241074
0.204361 0.098736 0.248736
0.288898 0.106398 0.256397
0.373434 0.114059 0.264059
0.457971 0.121721 0.271721
0.542508 0.129383 0.279383
0.627045 0.137045 0.287045
0.711582 0.144707 0.294707
0.796119 0.152369 0.302369
0.134866 0.182991 0.256116
0.219403 0.190653 0.263777
0.303939 0.198314 0.271439
0.388476 0.205976 0.279101
0.473013 0.213638 0.286763
0.557550 0.221300 0.294425
0.642087 0.228962 0.302087
0.726624 0.236624 0.309749
0.811161 0.244286 0.317411
0.149907 0.274907 0.271157
0.234444 0.282569 0.278819
0.318981 0.290231 0.286481
0.403518 0.297893 0.294143
0.488055 0.305555 0.301805
0.572592 0.313217 0.309467
0.657129 0.320879 0.317129
0.741666 0.328541 0.324791
0.826202 0.336202 0.332452
0.164949 0.366824 0.286199
0.249486 0.374486 0.293861
0.334023 0.382148 0.301523
0.418560 0.389810 0.309185
0.503097 0.397472 0.316847
0.587634 0.405134 0.324509
0.672171 0.412796 0.332171
0.756707 0.420457 0.339832
0.841244 0.428119 0.347494
0.179991 0.458741 0.301241
0.264528 0.466403 0.308903
0.349065 0.474065 0.316565
0.433602 0.481727 0.324227
0.518139 0.489389 0.331889
0.602676 0.497051 0.339551
0.687213 0.504713 0.347212
0.771749 0.512374 0.354874
0.856286 0.520036 0.362536
0.195033 0.550658 0.316283
0.279570 0.558320 0.323945
0.364107 0.565982 0.331607
0.448644 0.573644 0.339269
0.533181 0.581306 0.346931
0.617717 0.588967 0.354592
0.702254 0.596629 0.362254
0.786791 0.604291 0.369916
0.871328 0.611953 0.377578
0.210075 0.642575 0.331325
0.294612 0.650237 0.338987
0.379149 0.657899 0.346649
0.463686 0.665561 0.354311
0.548222 0.673222 0.361972
0.632759 0.680884 0.369634
0.717296 0.688546 0.377296
0.801833 0.696208 0.384958
0.886370 0.703870 0.392620
0.225117 0.734492 0.346367
0.309654 0.742154 0.354029
0.394191 0.749816 0.361691
0.478727 0.757477 0.369352
0.563264 0.765139 0.377014
0.647801 0.772801 0.384676
0.732338 0.780463 0.392338
0.816875 0.788125 0.400000
0.901412 0.795787 0.407662
0.240159 0.826409 0.361409
0.324696 0.834071 0.369071
0.409232 0.841732 0.376732
0.493769 0.849394 0.384394
0.578306 0.857056 0.392056
0.662843 0.864718 0.399718
0.747380 0.872380 0.407380
0.831917 0.880042 0.415042
0.916454 0.887704 0.422704
0.122745 0.093995 0.320870
0.207282 0.101657 0.328532
0.291819 0.109319 0.336194
0.376356 0.116981 0.343856
0.460893 0.124643 0.351518
0.545429 0.132304 0.359179
0.629966 0.139966 0.366841
0.714503 0.147628 0.374503
0.799040 0.155290 0.382165
0.137787 0.185912 0.335912
0.222324 0.193574 0.343574
0.306861 0.201236 0.351236
0.391398 0.208898 0.358897
0.475934 0.216559 0.366559
0.560471 0.224221 0.374221
0.645008 0.231883 0.381883
0.729545 0.239545 0.389545
0.814082 0.247207 0.397207
0.152829 0.277829 0.350954
0.237366 0.285491 0.358616
0.321902 0.293152 0.366278
0.406439 0.300814 0.373939
0.490976 0.308476 0.381601
0.575513 0.316138 0.389263
0.660050 0.323800 0.396925
0.744587 0.331462 0.404587
0.829124 0.339124 0.412249
0.167871 0.369746 0.365996
0.252408 0.377408 0.373658
0.336944 0.385069 0.381319
0.421481 0.392731 0.388981
0.506018 0.400393 0.396643
0.590555 0.408055 0.404305
0.675092 0.415717 0.411967
0.759629 0.423379 0.419629
0.844166 0.431041 0.427291
0.182913 0.461662 0.381038
0.267449 0.469324 0.388699
0.351986 0.476986 0.396361
0.436523 0.484648 0.404023
0.521060 0.492310 0.411685
0.605597 0.499972 0.419347
0.690134 0.507634 0.427009
0.774671 0.515296 0.434671
0.859207 0.522957 0.442332
0.197954 0.553579 0.396079
0.282491 0.561241 0.403741
0.367028 0.568903 0.411403
0.451565 0.576565 0.419065
0.536102 0.584227 0.426727
0.620639 0.591889 0.434389
0.705176 0.599551 0.442051
0.789712 0.607212 0.449712
0.874249 0.614874 0.457374
0.212996 0.645496 0.411121
0.297533 0.653158 0.418783
0.382070 0.660820 0.426445
0.466607 0.668482 0.434107
0.551144 0.676144 0.441769
0.635681 0.683806 0.449431
0.720217 0.691467 0.457092
0.804754 0.699129 0.464754
0.889291 0.706791 0.472416
0.228038 0.737413 0.426163
0.312575 0.745075 0.433825
0.397112 0.752737 0.441487
0.481649 0.760399 0.449149
0.566186 0.768061 0.456811
0.650722 0.775722 0.464472
0.735259 0.783384 0.472134
0.819796 0.791046 0.479796
0.904333 0.798708 0.487458
0.243080 0.829330 0.441205
0.327617 0.836992 0.448867
0.412154 0.844654 0.456529
0.496691 0.852316 0.464191
0.581228 0.859977 0.471852
0.665764 0.867639 0.479514
0.750301 0.875301 0.487176
0.834838 0.882963 0.494838
0.919375 0.890625 0.502500
0.125666 0.096916 0.400666
0.210203 0.104578 0.408328
0.294740 0.112240 0.415990
0.379277 0.119902 0.423652
0.463814 0.127564 0.431314
0.548351 0.135226 0.438976
0.632887 0.142888 0.446638
0.717424 0.150549 0.454299
0.801961 0.158211 0.461961
0.140708 0.188833 0.415708
0.225245 0.196495 0.423370
0.309782 0.204157 0.431032
0.394319 0.211819 0.438694
0.478856 0.219481 0.446356
0.563392 0.227142 0.454017
0.647929 0.234804 0.461679
0.732466 0.242466 0.469341
0.817003 0.250128 0.477003
0.155750 0.280750 0.430750
0.240287 0.288412 0.438412
0.324824 0.296074 0.446074
0.409361 0.303736 0.453736
0.493897 0.311397 0.461398
0.578434 0.319059 0.469059
0.662971 0.326721 0.476721
0.747508 0.334383 0.484383
0.832045 0.342045 0.492045
0.170792 0.372667 0.445792
0.255329 0.380329 0.453454
0.339866 0.387991 0.461116
0.424403 0.395653 0.468778
0.508939 0.403314 0.476439
0.593476 0.410976 0.484101
0.678013 0.418638 0.491763
0.762550 0.426300 0.499425
0.847087 0.433962 0.507087
0.185834 0.464584 0.460834
0.270371 0.472246 0.468496
0.354907 0.479907 0.476158
0.439444 0.487569 0.483819
0.523981 0.495231 0.491481
0.608518 0.502893 0.499143
0.693055 0.510555 0.506805
0.777592 0.518217 0.514467
0.862129 0.525879 0.522129
0.200876 0.556501 0.475876
0.285413 0.564162 0.483537
0.369949 0.571824 0.491199
0.454486 0.579486 0.498861
0.539023 0.587148 0.506523
0.623560 0.594810 0.514185
0.708097 0.602472 0.521847
0.792634 0.610134 0.529509
0.877171 0.617796 0.537171
0.215917 0.648417 0.490918
0.300454 0.656079 0.498579
0.384991 0.663741 0.506241
0.469528 0.671403 0.513903
0.554065 0.679065 0.521565
0.638602 0.686727 0.529227
0.723139 0.694389 0.536889
0.807676 0.702051 0.544551
0.892212 0.709712 0.552212
0.230959 0.740334 0.505959
0.315496 0.747996 0.513621
0.400033 0.755658 0.521283
0.484570 0.763320 0.528945
0.569107 0.770982 0.536607
0.653644 0.778644 0.544269
0.738181 0.786306 0.551931
0.822717 0.793967 0.559592
0.907254 0.801629 0.567254
0.246001 0.832251 0.521001
0.330538 0.839913 0.528663
0.415075 0.847575 0.536325
0.499612 0.855237 0.543987
0.584149 0.862899 0.551649
0.668686 0.870561 0.559311
0.753223 0.878222 0.566972
0.837759 0.885884 0.574634
0.922296 0.893546 0.582296
0.128587 0.099837 0.480462
0.213124 0.107499 0.488124
0.297661 0.115161 0.495786
0.382198 0.122823 0.503448
0.466735 0.130485 0.511110
0.551272 0.138147 0.518772
0.635809 0.145809 0.526434
0.720346 0.153471 0.534096
0.804882 0.161133 0.541757
0.143629 0.191754 0.495504
0.228166 0.199416 0.503166
0.312703 0.207078 0.510828
0.397240 0.214740 0.518490
0.481777 0.222402 0.526152
0.566314 0.230064 0.533814
0.650851 0.237726 0.541476
0.735387 0.245387 0.549137
0.819924 0.253049 0.556799
0.158671 0.283671 0.510546
0.243208 0.291333 0.518208
0.327745 0.298995 0.525870
0.412282 0.306657 0.533532
0.496819 0.314319 0.541194
0.581356 0.321981 0.548856
0.665892 0.329642 0.556517
0.750429 0.337304 0.564179
0.834966 0.344966 0.571841
0.173713 0.375588 0.525588
0.258250 0.383250 0.533250
0.342787 0.390912 0.540912
0.427324 0.398574 0.548574
0.511861 0.406236 0.556236
0.596397 0.413897 0.563897
0.680934 0.421559 0.571559
0.765471 0.429221 0.579221
0.850008 0.436883 0.586883
0.188755 0.467505 0.540630
0.273292 0.475167 0.548292
0.357829 0.482829 0.555954
0.442366 0.490491 0.563616
0.526902 0.498152 0.571277
0.611439 0.505814 0.578939
0.695976 0.513476 0.586601
0.780513 0.521138 0.594263
0.865050 0.528800 0.601925
0.203797 0.559422 0.555672
0.288334 0.567084 0.563334
0.372871 0.574746 0.570996
0.457407 0.582407 0.578657
0.541944 0.590069 0.586319
0.626481 0.597731 0.593981
0.711018 0.605393 0.601643
0.795555 0.613055 0.609305
0.880092 0.620717 0.616967
0.218839 0.651339 0.570714
0.303376 0.659001 0.578376
0.387912 0.666662 0.586037
0.472449 0.674324 0.593699
0.556986 0.681986 0.601361
0.641523 0.689648 0.609023
0.726060 0.697310 0.616685
0.810597 0.704972 0.624347
0.895134 0.712634 0.632009
0.233881 0.743256 0.585756
0.318418 0.750917 0.593417
0.402954 0.758579 0.601079
0.487491 0.766241 0.608741
0.572028 0.773903 0.616403
0.656565 0.781565 0.624065
0.741102 0.789227 0.631727
0.825639 0.796889 0.639389
0.910176 0.804551 0.647051
0.248922 0.835172 0.600797
0.333459 0.842834 0.608459
0.417996 0.850496 0.616121
0.502533 0.858158 0.623783
0.587070 0.865820 0.631445
0.671607 0.873482 0.639107
0.756144 0.881144 0.646769
0.840681 0.888806 0.654431
0.925217 0.896467 0.662092
0.131509 0.102759 0.560259
0.216046 0.110421 0.567921
0.300583 0.118082 0.575582
0.385119 0.125744 0.583244
0.469656 0.133406 0.590906
0.554193 0.141068 0.598568
0.638730 0.148730 0.606230
0.723267 0.156392 0.613892
0.807804 0.164054 0.621554
0.146551 0.194676 0.575301
0.231088 0.202338 0.582962
0.315624 0.209999 0.590624
0.400161 0.217661 0.598286
0.484698 0.225323 0.605948
0.569235 0.232985 0.613610
0.653772 0.240647 0.621272
0.738309 0.248309 0.628934
0.822846 0.255971 0.636596
0.161592 0.286592 0.590342
0.246129 0.294254 0.598004
0.330666 0.301916 0.605666
0.415203 0.309578 0.613328
0.499740 0.317240 0.620990
0.584277 0.324902 0.628652
0.668814 0.332564 0.636314
0.753351 0.340226 0.643976
0.837888 0.347887 0.651637
0.176634 0.378509 0.605384
0.261171 0.386171 0.613046
0.345708 0.393833 0.620708
0.430245 0.401495 0.628370
0.514782 0.409157 0.636032
0.599319 0.416819 0.643694
0.683856 0.424481 0.651356
0.768392 0.432142 0.659017
0.852929 0.439804 0.666679
0.191676 0.470426 0.620426
0.276213 0.478088 0.628088
0.360750 0.485750 0.635750
0.445287 0.493412 0.643412
0.529824 0.501074 0.651074
0.614361 0.508736 0.658736
0.698897 0.516397 0.666397
0.783434 0.524059 0.674059
0.867971 0.531721 0.681721
0.206718 0.562343 0.635468
0.291255 0.570005 0.643130
0.375792 0.577667 0.650792
0.460329 0.585329 0.658454
0.544866 0.592991 0.666116
0.629402 0.600652 0.673777
0.713939 0.608314 0.681439
0.798476 0.615976 0.689101
0.883013 0.623638 0.696763
0.221760 0.654260 0.650510
0.306297 0.661922 0.658172
0.390834 0.669584 0.665834
0.475371 0.677246 0.673496
0.559908 0.684908 0.681157
0.644444 0.692569 0.688819
0.728981 0.700231 0.696481
0.813518 0.707893 0.704143
0.898055 0.715555 0.711805
0.236802 0.746177 0.665552
0.321339 0.753839 0.673214
0.405876 0.761501 0.680876
0.490412 0.769162 0.688537
0.574949 0.776824 0.696199
0.659486 0.784486 0.703861
0.744023 0.792148 0.711523
0.828560 0.799810 0.719185
0.913097 0.807472 0.726847
0.251844 0.838094 0.680594
0.336381 0.845756 0.688256
0.420917 0.853417 0.695917
0.505454 0.861079 0.703579
0.589991 0.868741 0.711241
0.674528 0.876403 0.718903
0.759065 0.884065 0.726565
0.843602 0.891727 0.734227
0.928139 0.899389 0.741889
0.134430 0.105680 0.640055
0.218967 0.113342 0.647717
0.303504 0.121004 0.655379
0.388041 0.128666 0.663041
0.472577 0.136327 0.670702
0.557114 0.143989 0.678364
0.641651 0.151651 0.686026
0.726188 0.159313 0.693688
0.810725 0.166975 0.701350
0.149472 0.197597 0.655097
0.234009 0.205259 0.662759
0.318546 0.212921 0.670421
0.403083 0.220582 0.678082
0.487619 0.228244 0.685744
0.572156 0.235906 0.693406
0.656693 0.243568 0.701068
0.741230 0.251230 0.708730
0.825767 0.258892 0.716392
0.164514 0.289514 0.670139
0.249051 0.297176 0.677801
0.333587 0.304837 0.685462
0.418124 0.312499 0.693124
0.502661 0.320161 0.700786
0.587198 0.327823 0.708448
0.671735 0.335485 0.716110
0.756272 0.343147 0.723772
0.840809 0.350809 0.731434
0.179556 0.381431 0.685181
0.264093 0.389093 0.692842
0.348629 0.396754 0.700504
0.433166 0.404416 0.708166
0.517703 0.412078 0.715828
0.602240 0.419740 0.723490
0.686777 0.427402 0.731152
0.771314 0.435064 0.738814
0.855851 0.442726 0.746476
0.194597 0.473347 0.700222
0.279134 0.481009 0.707884
0.363671 0.488671 0.715546
0.448208 0.496333 0.723208
0.532745 0.503995 0.730870
0.617282 0.511657 0.738532
0.701819 0.519319 0.746194
0.786356 0.526981 0.753856
0.870892 0.534642 0.761517
0.209639 0.565264 0.715264
0.294176 0.572926 0.722926
0.378713 0.580588 0.730588
0.463250 0.588250 0.738250
0.547787 0.595912 0.745912
0.632324 0.603574 0.753574
0.716861 0.611236 0.761236
0.801397 0.618897 0.768897
0.885934 0.626559 0.776559
0.224681 0.657181 0.730306
0.309218 0.664843 0.737968
0.393755 0.672505 0.745630
0.478292 0.680167 0.753292
0.562829 0.687829 0.760954
0.647366 0.695491 0.768616
0.731903 0.703152 0.776277
0.816439 0.710814 0.783939
0.900976 0.718476 0.791601
0.239723 0.749098 0.745348
0.324260 0.756760 0.753010
0.408797 0.764422 0.760672
0.493334 0.772084 0.768334
0.577871 0.779746 0.775996
0.662407 0.787407 0.783657
0.746944 0.795069 0.791319
0.831481 0.802731 0.798981
0.916018 0.810393 0.806643
0.254765 0.841015 0.760390
0.339302 0.848677 0.768052
0.423839 0.856339 0.775714
0.508376 0.864001 0.783376
0.592912 0.871662 0.791037
0.677449 0.879324 0.798699
0.761986 0.886986 0.806361
0.846523 0.894648 0.814023
0.931060 0.902310 0.821685
0.137351 0.108601 0.719851
0.221888 0.116263 0.727513
0.306425 0.123925 0.735175
0.390962 0.131587 0.742837
0.475499 0.139249 0.750499
0.560036 0.146911 0.758161
0.644572 0.154573 0.765822
0.729109 0.162234 0.773484
0.813646 0.169896 0.781146
0.152393 0.200518 0.734893
0.236930 0.208180 0.742555
0.321467 0.215842 0.750217
0.406004 0.223504 0.757879
0.490541 0.231166 0.765541
0.575078 0.238827 0.773202
0.659614 0.246489 0.780864
0.744151 0.254151 0.788526
0.828688 0.261813 0.796188
0.167435 0.292435 0.749935
0.251972 0.300097 0.757597
0.336509 0.307759 0.765259
0.421046 0.315421 0.772921
0.505583 0.323082 0.780582
0.590119 0.330744 0.788244
0.674656 0.338406 0.795906
0.759193 0.346068 0.803568
0.843730 0.353730 0.811230
0.182477 0.384352 0.764977
0.267014 0.392014 0.772639
0.351551 0.399676 0.780301
0.436087 0.407338 0.787962
0.520624 0.414999 0.795624
0.605161 0.422661 0.803286
0.689698 0.430323 0.810948
0.774235 0.437985 0.818610
0.858772 0.445647 0.826272
0.197519 0.476269 0.780019
0.282056 0.483931 0.787681
0.366592 0.491592 0.795342
0.451129 0.499254 0.803004
0.535666 0.506916 0.810666
0.620203 0.514578 0.818328
0.704740 0.522240 0.825990
0.789277 0.529902 0.833652
0.873814 0.537564 0.841314
0.212561 0.568186 0.795061
0.297098 0.575847 0.802722
0.381634 0.583509 0.810384
0.466171 0.591171 0.818046
0.550708 0.598833 0.825708
0.635245 0.606495 0.833370
0.719782 0.614157 0.841032
0.804319 0.621819 0.848694
0.888856 0.629481 0.856356
0.227602 0.660102 0.810102
0.312139 0.667764 0.817764
0.396676 0.675426 0.825426
0.481213 0.683088 0.833088
0.565750 0.690750 0.840750
0.650287 0.698412 0.848412
0.734824 0.706074 0.856074
0.819361 0.713736 0.863736
0.903897 0.721397 0.871397
0.242644 0.752019 0.825144
0.327181 0.759681 0.832806
0.411718 0.767343 0.840468
0.496255 0.775005 0.848130
0.580792 0.782667 0.855792
0.665329 0.790329 0.863454
0.749866 0.797991 0.871116
0.834402 0.805652 0.878777
0.918939 0.813314 0.886439
0.257686 0.843936 0.840186
0.342223 0.851598 0.847848
0.426760 0.859260 0.855510
0.511297 0.866922 0.863172
0.595834 0.874584 0.870834
0.680371 0.882246 0.878496
0.764907 0.889907 0.886157
0.849444 0.897569 0.893819
0.933981 0.905231 0.901481
