Tools/LUT_Grading_MCP/src/lut_grading_mcp/luts/moody_green.cube
LUT_3D_SIZE 5
0.000000 0.038000 0.000000
0.195606 0.040243 0.000000
0.451212 0.042485 0.000000
0.706819 0.044728 0.000000
0.962425 0.046970 0.000000
0.000000 0.292403 0.000000
0.206613 0.294645 0.000000
0.462219 0.296887 0.000000
0.717825 0.299130 0.000000
0.970000 0.300000 0.000000
0.000000 0.546805 0.000000
0.217619 0.549048 0.000000
0.470000 0.550000 0.000000
0.720000 0.550000 0.000000
0.970000 0.550000 0.000000
0.000000 0.800000 0.000000
0.220000 0.800000 0.000000
0.470000 0.800000 0.000000
0.720000 0.800000 0.000000
0.970000 0.800000 0.000000
0.000000 1.000000 0.000000
0.220000 1.000000 0.000000
0.470000 1.000000 0.000000
0.720000 1.000000 0.000000
0.970000 1.000000 0.000000
0.000000 0.038855 0.202137
0.197744 0.041098 0.207744
0.453350 0.043340 0.213350
0.708956 0.045583 0.218956
0.964562 0.047825 0.224562
0.000000 0.293258 0.213144
0.208750 0.295500 0.218750
0.464356 0.297742 0.224356
0.719962 0.299985 0.229963
0.970000 0.300000 0.230000
0.000000 0.547660 0.224150
0.219756 0.549903 0.229756
0.470000 0.550000 0.230000
0.720000 0.550000 0.230000
0.970000 0.550000 0.230000
0.000000 0.800000 0.230000
0.220000 0.800000 0.230000
0.470000 0.800000 0.230000
0.720000 0.800000 0.230000
0.970000 0.800000 0.230000
0.000000 1.000000 0.230000
0.220000 1.000000 0.230000
0.470000 1.000000 0.230000
0.720000 1.000000 0.230000
0.970000 1.000000 0.230000
0.000000 0.039710 0.454275
0.199881 0.041953 0.459881
0.455487 0.044195 0.465487
0.711094 0.046437 0.471094
0.966700 0.048680 0.476700
0.000000 0.294112 0.465281
0.210888 0.296355 0.470887
0.466494 0.298598 0.476494
0.720000 0.300000 0.480000
0.970000 0.300000 0.480000
0.000000 0.548515 0.476287
0.220000 0.550000 0.480000
0.470000 0.550000 0.480000
0.720000 0.550000 0.480000
0.970000 0.550000 0.480000
0.000000 0.800000 0.480000
0.220000 0.800000 0.480000
0.470000 0.800000 0.480000
0.720000 0.800000 0.480000
0.970000 0.800000 0.480000
0.000000 1.000000 0.480000
0.220000 1.000000 0.480000
0.470000 1.000000 0.480000
0.720000 1.000000 0.480000
0.970000 1.000000 0.480000
0.000000 0.040565 0.706412
0.202019 0.042807 0.712019
0.457625 0.045050 0.717625
0.713231 0.047293 0.723231
0.968838 0.049535 0.728838
0.000000 0.294967 0.717419
0.213025 0.297210 0.723025
0.468631 0.299453 0.728631
0.720000 0.300000 0.730000
0.970000 0.300000 0.730000
0.000000 0.549370 0.728425
0.220000 0.550000 0.730000
0.470000 0.550000 0.730000
0.720000 0.550000 0.730000
0.970000 0.550000 0.730000
0.000000 0.800000 0.730000
0.220000 0.800000 0.730000
0.470000 0.800000 0.730000
0.720000 0.800000 0.730000
0.970000 0.800000 0.730000
0.000000 1.000000 0.730000
0.220000 1.000000 0.730000
0.470000 1.000000 0.730000
0.720000 1.000000 0.730000
0.970000 1.000000 0.730000
0.000000 0.041420 0.958550
0.204156 0.043662 0.964156
0.459762 0.045905 0.969762
0.715369 0.048148 0.975369
0.970000 0.050000 0.980000
0.000000 0.295822 0.969556
0.215163 0.298065 0.975162
0.470000 0.300000 0.980000
0.720000 0.300000 0.980000
0.970000 0.300000 0.980000
0.000000 0.550000 0.980000
0.220000 0.550000 0.980000
0.470000 0.550000 0.980000
0.720000 0.550000 0.980000
0.970000 0.550000 0.980000
0.000000 0.800000 0.980000
0.220000 0.800000 0.980000
0.470000 0.800000 0.980000
0.720000 0.800000 0.980000
0.970000 0.800000 0.980000
0.000000 1.000000 0.980000
0.220000 1.000000 0.980000
0.470000 1.000000 0.980000
0.720000 1.000000 0.980000
0.970000 1.000000 0.980000
