Tools/LUT_Grading_MCP/src/lut_grading_mcp/luts/moody_green.cube
LUT_3D_SIZE 17
0.000000 0.038000 0.000000
0.003902 0.038561 0.000000
0.067803 0.039121 0.000000
0.131705 0.039682 0.000000
0.195606 0.040243 0.000000
0.259508 0.040803 0.000000
0.323409 0.041364 0.000000
0.387311 0.041924 0.000000
0.451212 0.042485 0.000000
0.515114 0.043046 0.000000
0.579016 0.043606 0.000000
0.642917 0.044167 0.000000
0.706819 0.044728 0.000000
0.770720 0.045288 0.000000
0.834622 0.045849 0.000000
0.898523 0.046409 0.000000
0.962425 0.046970 0.000000
0.000000 0.101601 0.000000
0.006653 0.102161 0.000000
0.070555 0.102722 0.000000
0.134456 0.103282 0.000000
0.198358 0.103843 0.000000
0.262259 0.104404 0.000000
0.326161 0.104964 0.000000
0.390062 0.105525 0.000000
0.453964 0.106086 0.000000
0.517866 0.106646 0.000000
0.581767 0.107207 0.000000
0.645669 0.107768 0.000000
0.709570 0.108328 0.000000
0.773472 0.108889 0.000000
0.837373 0.109449 0.000000
0.901275 0.110010 0.000000
0.965177 0.110571 0.000000
0.000000 0.165201 0.000000
0.009405 0.165762 0.000000
0.073306 0.166322 0.000000
0.137208 0.166883 0.000000
0.201109 0.167444 0.000000
0.265011 0.168004 0.000000
0.328912 0.168565 0.000000
0.392814 0.169126 0.000000
0.456716 0.169686 0.000000
0.520617 0.170247 0.000000
0.584519 0.170808 0.000000
0.648420 0.171368 0.000000
0.712322 0.171929 0.000000
0.776223 0.172489 0.000000
0.840125 0.173050 0.000000
0.904027 0.173611 0.000000
0.967928 0.174171 0.000000
0.000000 0.228802 0.000000
0.012156 0.229362 0.000000
0.076058 0.229923 0.000000
0.139959 0.230484 0.000000
0.203861 0.231044 0.000000
0.267762 0.231605 0.000000
0.331664 0.232166 0.000000
0.395566 0.232726 0.000000
0.459467 0.233287 0.000000
0.523369 0.233847 0.000000
0.587270 0.234408 0.000000
0.651172 0.234969 0.000000
0.715073 0.235529 0.000000
0.778975 0.236090 0.000000
0.842877 0.236651 0.000000
0.906778 0.237211 0.000000
0.970000 0.237500 0.000000
0.000000 0.292403 0.000000
0.014908 0.292963 0.000000
0.078809 0.293524 0.000000
0.142711 0.294084 0.000000
0.206613 0.294645 0.000000
0.270514 0.295206 0.000000
0.334416 0.295766 0.000000
0.398317 0.296327 0.000000
0.462219 0.296887 0.000000
0.526120 0.297448 0.000000
0.590022 0.298009 0.000000
0.653923 0.298569 0.000000
0.717825 0.299130 0.000000
0.781727 0.299691 0.000000
0.845000 0.300000 0.000000
0.907500 0.300000 0.000000
0.970000 0.300000 0.000000
0.000000 0.356003 0.000000
0.017659 0.356564 0.000000
0.081561 0.357124 0.000000
0.145462 0.357685 0.000000
0.209364 0.358246 0.000000
0.273266 0.358806 0.000000
0.337167 0.359367 0.000000
0.401069 0.359928 0.000000
0.464970 0.360488 0.000000
0.528872 0.361049 0.000000
0.592773 0.361609 0.000000
0.656675 0.362170 0.000000
0.720000 0.362500 0.000000
0.782500 0.362500 0.000000
0.845000 0.362500 0.000000
0.907500 0.362500 0.000000
0.970000 0.362500 0.000000
0.000000 0.419604 0.000000
0.020411 0.420164 0.000000
0.084312 0.420725 0.000000
0.148214 0.421286 0.000000
0.212116 0.421846 0.000000
0.276017 0.422407 0.000000
0.339919 0.422967 0.000000
0.403820 0.423528 0.000000
0.467722 0.424089 0.000000
0.531623 0.424649 0.000000
0.595000 0.425000 0.000000
0.657500 0.425000 0.000000
0.720000 0.425000 0.000000
0.782500 0.425000 0.000000
0.845000 0.425000 0.000000
0.907500 0.425000 0.000000
0.970000 0.425000 0.000000
0.000000 0.483204 0.000000
0.023163 0.483765 0.000000
0.087064 0.484326 0.000000
0.150966 0.484886 0.000000
0.214867 0.485447 0.000000
0.278769 0.486007 0.000000
0.342670 0.486568 0.000000
0.406572 0.487129 0.000000
0.470000 0.487500 0.000000
0.532500 0.487500 0.000000
0.595000 0.487500 0.000000
0.657500 0.487500 0.000000
0.720000 0.487500 0.000000
0.782500 0.487500 0.000000
0.845000 0.487500 0.000000
0.907500 0.487500 0.000000
0.970000 0.487500 0.000000
0.000000 0.546805 0.000000
0.025914 0.547366 0.000000
0.089816 0.547926 0.000000
0.153717 0.548487 0.000000
0.217619 0.549048 0.000000
0.281520 0.549608 0.000000
0.345000 0.550000 0.000000
0.407500 0.550000 0.000000
0.470000 0.550000 0.000000
0.532500 0.550000 0.000000
0.595000 0.550000 0.000000
0.657500 0.550000 0.000000
0.720000 0.550000 0.000000
0.782500 0.550000 0.000000
0.845000 0.550000 0.000000
0.907500 0.550000 0.000000
0.970000 0.550000 0.000000
0.000000 0.610406 0.000000
0.028666 0.610966 0.000000
0.092567 0.611527 0.000000
0.156469 0.612088 0.000000
0.220000 0.612500 0.000000
0.282500 0.612500 0.000000
0.345000 0.612500 0.000000
0.407500 0.612500 0.000000
0.470000 0.612500 0.000000
0.532500 0.612500 0.000000
0.595000 0.612500 0.000000
0.657500 0.612500 0.000000
0.720000 0.612500 0.000000
0.782500 0.612500 0.000000
0.845000 0.612500 0.000000
0.907500 0.612500 0.000000
0.970000 0.612500 0.000000
0.000000 0.674006 0.000000
0.031417 0.674567 0.000000
0.095000 0.675000 0.000000
0.157500 0.675000 0.000000
0.220000 0.675000 0.000000
0.282500 0.675000 0.000000
0.345000 0.675000 0.000000
0.407500 0.675000 0.000000
0.470000 0.675000 0.000000
0.532500 0.675000 0.000000
0.595000 0.675000 0.000000
0.657500 0.675000 0.000000
0.720000 0.675000 0.000000
0.782500 0.675000 0.000000
0.845000 0.675000 0.000000
0.907500 0.675000 0.000000
0.970000 0.675000 0.000000
0.000000 0.737500 0.000000
0.032500 0.737500 0.000000
0.095000 0.737500 0.000000
0.157500 0.737500 0.000000
0.220000 0.737500 0.000000
0.282500 0.737500 0.000000
0.345000 0.737500 0.000000
0.407500 0.737500 0.000000
0.470000 0.737500 0.000000
0.532500 0.737500 0.000000
0.595000 0.737500 0.000000
0.657500 0.737500 0.000000
0.720000 0.737500 0.000000
0.782500 0.737500 0.000000
0.845000 0.737500 0.000000
0.907500 0.737500 0.000000
0.970000 0.737500 0.000000
0.000000 0.800000 0.000000
0.032500 0.800000 0.000000
0.095000 0.800000 0.000000
0.157500 0.800000 0.000000
0.220000 0.800000 0.000000
0.282500 0.800000 0.000000
0.345000 0.800000 0.000000
0.407500 0.800000 0.000000
0.470000 0.800000 0.000000
0.532500 0.800000 0.000000
0.595000 0.800000 0.000000
0.657500 0.800000 0.000000
0.720000 0.800000 0.000000
0.782500 0.800000 0.000000
0.845000 0.800000 0.000000
0.907500 0.800000 0.000000
0.970000 0.800000 0.000000
0.000000 0.862500 0.000000
0.032500 0.862500 0.000000
0.095000 0.862500 0.000000
0.157500 0.862500 0.000000
0.220000 0.862500 0.000000
0.282500 0.862500 0.000000
0.345000 0.862500 0.000000
0.407500 0.862500 0.000000
0.470000 0.862500 0.000000
0.532500 0.862500 0.000000
0.595000 0.862500 0.000000
0.657500 0.862500 0.000000
0.720000 0.862500 0.000000
0.782500 0.862500 0.000000
0.845000 0.862500 0.000000
0.907500 0.862500 0.000000
0.970000 0.862500 0.000000
0.000000 0.925000 0.000000
0.032500 0.925000 0.000000
0.095000 0.925000 0.000000
0.157500 0.925000 0.000000
0.220000 0.925000 0.000000
0.282500 0.925000 0.000000
0.345000 0.925000 0.000000
0.407500 0.925000 0.000000
0.470000 0.925000 0.000000
0.532500 0.925000 0.000000
0.595000 0.925000 0.000000
0.657500 0.925000 0.000000
0.720000 0.925000 0.000000
0.782500 0.925000 0.000000
0.845000 0.925000 0.000000
0.907500 0.925000 0.000000
0.970000 0.925000 0.000000
0.000000 0.987500 0.000000
0.032500 0.987500 0.000000
0.095000 0.987500 0.000000
0.157500 0.987500 0.000000
0.220000 0.987500 0.000000
0.282500 0.987500 0.000000
0.345000 0.987500 0.000000
0.407500 0.987500 0.000000
0.470000 0.987500 0.000000
0.532500 0.987500 0.000000
0.595000 0.987500 0.000000
0.657500 0.987500 0.000000
0.720000 0.987500 0.000000
0.782500 0.987500 0.000000
0.845000 0.987500 0.000000
0.907500 0.987500 0.000000
0.970000 0.987500 0.000000
0.000000 1.000000 0.000000
0.032500 1.000000 0.000000
0.095000 1.000000 0.000000
0.157500 1.000000 0.000000
0.220000 1.000000 0.000000
0.282500 1.000000 0.000000
0.345000 1.000000 0.000000
0.407500 1.000000 0.000000
0.470000 1.000000 0.000000
0.532500 1.000000 0.000000
0.595000 1.000000 0.000000
0.657500 1.000000 0.000000
0.720000 1.000000 0.000000
0.782500 1.000000 0.000000
0.845000 1.000000 0.000000
0.907500 1.000000 0.000000
0.970000 1.000000 0.000000
0.000000 0.038214 0.013034
0.004436 0.038774 0.014436
0.068337 0.039335 0.015837
0.132239 0.039896 0.017239
0.196141 0.040456 0.018641
0.260042 0.041017 0.020042
0.323944 0.041578 0.021444
0.387845 0.042138 0.022845
0.451747 0.042699 0.024247
0.515648 0.043259 0.025648
0.579550 0.043820 0.027050
0.643452 0.044381 0.028452
0.707353 0.044941 0.029853
0.771255 0.045502 0.031255
0.835156 0.046062 0.032656
0.899058 0.046623 0.034058
0.962959 0.047184 0.035459
0.000000 0.101814 0.015786
0.007187 0.102375 0.017187
0.071089 0.102936 0.018589
0.134991 0.103496 0.019991
0.198892 0.104057 0.021392
0.262794 0.104618 0.022794
0.326695 0.105178 0.024195
0.390597 0.105739 0.025597
0.454498 0.106299 0.026998
0.518400 0.106860 0.028400
0.582302 0.107421 0.029802
0.646203 0.107981 0.031203
0.710105 0.108542 0.032605
0.774006 0.109103 0.034006
0.837908 0.109663 0.035408
0.901809 0.110224 0.036809
0.965711 0.110784 0.038211
0.000000 0.165415 0.018537
0.009939 0.165976 0.019939
0.073841 0.166536 0.021341
0.137742 0.167097 0.022742
0.201644 0.167657 0.024144
0.265545 0.168218 0.025545
0.329447 0.168779 0.026947
0.393348 0.169339 0.028348
0.457250 0.169900 0.029750
0.521152 0.170461 0.031152
0.585053 0.171021 0.032553
0.648955 0.171582 0.033955
0.712856 0.172142 0.035356
0.776758 0.172703 0.036758
0.840659 0.173264 0.038159
0.904561 0.173824 0.039561
0.968463 0.174385 0.040962
0.000000 0.229016 0.021289
0.012691 0.229576 0.022691
0.076592 0.230137 0.024092
0.140494 0.230697 0.025494
0.204395 0.231258 0.026895
0.268297 0.231819 0.028297
0.332198 0.232379 0.029698
0.396100 0.232940 0.031100
0.460002 0.233501 0.032502
0.523903 0.234061 0.033903
0.587805 0.234622 0.035305
0.651706 0.235182 0.036706
0.715608 0.235743 0.038108
0.779509 0.236304 0.039509
0.843411 0.236864 0.040911
0.907312 0.237425 0.042312
0.970000 0.237500 0.042500
0.000000 0.292616 0.024041
0.015442 0.293177 0.025442
0.079344 0.293737 0.026844
0.143245 0.294298 0.028245
0.207147 0.294859 0.029647
0.271048 0.295419 0.031048
0.334950 0.295980 0.032450
0.398852 0.296541 0.033852
0.462753 0.297101 0.035253
0.526655 0.297662 0.036655
0.590556 0.298223 0.038056
0.654458 0.298783 0.039458
0.718359 0.299344 0.040859
0.782261 0.299904 0.042261
0.845000 0.300000 0.042500
0.907500 0.300000 0.042500
0.970000 0.300000 0.042500
0.000000 0.356217 0.026792
0.018194 0.356777 0.028194
0.082095 0.357338 0.029595
0.145997 0.357899 0.030997
0.209898 0.358459 0.032398
0.273800 0.359020 0.033800
0.337702 0.359581 0.035202
0.401603 0.360141 0.036603
0.465505 0.360702 0.038005
0.529406 0.361262 0.039406
0.593308 0.361823 0.040808
0.657209 0.362384 0.042209
0.720000 0.362500 0.042500
0.782500 0.362500 0.042500
0.845000 0.362500 0.042500
0.907500 0.362500 0.042500
0.970000 0.362500 0.042500
0.000000 0.419818 0.029544
0.020945 0.420378 0.030945
0.084847 0.420939 0.032347
0.148748 0.421499 0.033748
0.212650 0.422060 0.035150
0.276552 0.422621 0.036552
0.340453 0.423181 0.037953
0.404355 0.423742 0.039355
0.468256 0.424302 0.040756
0.532158 0.424863 0.042158
0.595000 0.425000 0.042500
0.657500 0.425000 0.042500
0.720000 0.425000 0.042500
0.782500 0.425000 0.042500
0.845000 0.425000 0.042500
0.907500 0.425000 0.042500
0.970000 0.425000 0.042500
0.000000 0.483418 0.032295
0.023697 0.483979 0.033697
0.087598 0.484539 0.035098
0.151500 0.485100 0.036500
0.215402 0.485661 0.037902
0.279303 0.486221 0.039303
0.343205 0.486782 0.040705
0.407106 0.487343 0.042106
0.470000 0.487500 0.042500
0.532500 0.487500 0.042500
0.595000 0.487500 0.042500
0.657500 0.487500 0.042500
0.720000 0.487500 0.042500
0.782500 0.487500 0.042500
0.845000 0.487500 0.042500
0.907500 0.487500 0.042500
0.970000 0.487500 0.042500
0.000000 0.547019 0.035047
0.026448 0.547579 0.036448
0.090350 0.548140 0.037850
0.154252 0.548701 0.039252
0.218153 0.549261 0.040653
0.282055 0.549822 0.042055
0.345000 0.550000 0.042500
0.407500 0.550000 0.042500
0.470000 0.550000 0.042500
0.532500 0.550000 0.042500
0.595000 0.550000 0.042500
0.657500 0.550000 0.042500
0.720000 0.550000 0.042500
0.782500 0.550000 0.042500
0.845000 0.550000 0.042500
0.907500 0.550000 0.042500
0.970000 0.550000 0.042500
0.000000 0.610619 0.037798
0.029200 0.611180 0.039200
0.093102 0.611741 0.040602
0.157003 0.612301 0.042003
0.220000 0.612500 0.042500
0.282500 0.612500 0.042500
0.345000 0.612500 0.042500
0.407500 0.612500 0.042500
0.470000 0.612500 0.042500
0.532500 0.612500 0.042500
0.595000 0.612500 0.042500
0.657500 0.612500 0.042500
0.720000 0.612500 0.042500
0.782500 0.612500 0.042500
0.845000 0.612500 0.042500
0.907500 0.612500 0.042500
0.970000 0.612500 0.042500
0.000000 0.674220 0.040550
0.031952 0.674781 0.041952
0.095000 0.675000 0.042500
0.157500 0.675000 0.042500
0.220000 0.675000 0.042500
0.282500 0.675000 0.042500
0.345000 0.675000 0.042500
0.407500 0.675000 0.042500
0.470000 0.675000 0.042500
0.532500 0.675000 0.042500
0.595000 0.675000 0.042500
0.657500 0.675000 0.042500
0.720000 0.675000 0.042500
0.782500 0.675000 0.042500
0.845000 0.675000 0.042500
0.907500 0.675000 0.042500
0.970000 0.675000 0.042500
0.000000 0.737500 0.042500
0.032500 0.737500 0.042500
0.095000 0.737500 0.042500
0.157500 0.737500 0.042500
0.220000 0.737500 0.042500
0.282500 0.737500 0.042500
0.345000 0.737500 0.042500
0.407500 0.737500 0.042500
0.470000 0.737500 0.042500
0.532500 0.737500 0.042500
0.595000 0.737500 0.042500
0.657500 0.737500 0.042500
0.720000 0.737500 0.042500
0.782500 0.737500 0.042500
0.845000 0.737500 0.042500
0.907500 0.737500 0.042500
0.970000 0.737500 0.042500
0.000000 0.800000 0.042500
0.032500 0.800000 0.042500
0.095000 0.800000 0.042500
0.157500 0.800000 0.042500
0.220000 0.800000 0.042500
0.282500 0.800000 0.042500
0.345000 0.800000 0.042500
0.407500 0.800000 0.042500
0.470000 0.800000 0.042500
0.532500 0.800000 0.042500
0.595000 0.800000 0.042500
0.657500 0.800000 0.042500
0.720000 0.800000 0.042500
0.782500 0.800000 0.042500
0.845000 0.800000 0.042500
0.907500 0.800000 0.042500
0.970000 0.800000 0.042500
0.000000 0.862500 0.042500
0.032500 0.862500 0.042500
0.095000 0.862500 0.042500
0.157500 0.862500 0.042500
0.220000 0.862500 0.042500
0.282500 0.862500 0.042500
0.345000 0.862500 0.042500
0.407500 0.862500 0.042500
0.470000 0.862500 0.042500
0.532500 0.862500 0.042500
0.595000 0.862500 0.042500
0.657500 0.862500 0.042500
0.720000 0.862500 0.042500
0.782500 0.862500 0.042500
0.845000 0.862500 0.042500
0.907500 0.862500 0.042500
0.970000 0.862500 0.042500
0.000000 0.925000 0.042500
0.032500 0.925000 0.042500
0.095000 0.925000 0.042500
0.157500 0.925000 0.042500
0.220000 0.925000 0.042500
0.282500 0.925000 0.042500
0.345000 0.925000 0.042500
0.407500 0.925000 0.042500
0.470000 0.925000 0.042500
0.532500 0.925000 0.042500
0.595000 0.925000 0.042500
0.657500 0.925000 0.042500
0.720000 0.925000 0.042500
0.782500 0.925000 0.042500
0.845000 0.925000 0.042500
0.907500 0.925000 0.042500
0.970000 0.925000 0.042500
0.000000 0.987500 0.042500
0.032500 0.987500 0.042500
0.095000 0.987500 0.042500
0.157500 0.987500 0.042500
0.220000 0.987500 0.042500
0.282500 0.987500 0.042500
0.345000 0.987500 0.042500
0.407500 0.987500 0.042500
0.470000 0.987500 0.042500
0.532500 0.987500 0.042500
0.595000 0.987500 0.042500
0.657500 0.987500 0.042500
0.720000 0.987500 0.042500
0.782500 0.987500 0.042500
0.845000 0.987500 0.042500
0.907500 0.987500 0.042500
0.970000 0.987500 0.042500
0.000000 1.000000 0.042500
0.032500 1.000000 0.042500
0.095000 1.000000 0.042500
0.157500 1.000000 0.042500
0.220000 1.000000 0.042500
0.282500 1.000000 0.042500
0.345000 1.000000 0.042500
0.407500 1.000000 0.042500
0.470000 1.000000 0.042500
0.532500 1.000000 0.042500
0.595000 1.000000 0.042500
0.657500 1.000000 0.042500
0.720000 1.000000 0.042500
0.782500 1.000000 0.042500
0.845000 1.000000 0.042500
0.907500 1.000000 0.042500
0.970000 1.000000 0.042500
0.000000 0.038428 0.076069
0.004970 0.038988 0.077470
0.068872 0.039549 0.078872
0.132773 0.040109 0.080273
0.196675 0.040670 0.081675
0.260577 0.041231 0.083077
0.324478 0.041791 0.084478
0.388380 0.042352 0.085880
0.452281 0.042913 0.087281
0.516183 0.043473 0.088683
0.580084 0.044034 0.090084
0.643986 0.044594 0.091486
0.707888 0.045155 0.092887
0.771789 0.045716 0.094289
0.835691 0.046276 0.095691
0.899592 0.046837 0.097092
0.963494 0.047398 0.098494
0.000000 0.102028 0.078820
0.007722 0.102589 0.080222
0.071623 0.103149 0.081623
0.135525 0.103710 0.083025
0.199427 0.104271 0.084427
0.263328 0.104831 0.085828
0.327230 0.105392 0.087230
0.391131 0.105953 0.088631
0.455033 0.106513 0.090033
0.518934 0.107074 0.091434
0.582836 0.107634 0.092836
0.646737 0.108195 0.094237
0.710639 0.108756 0.095639
0.774541 0.109316 0.097041
0.838442 0.109877 0.098442
0.902344 0.110437 0.099844
0.966245 0.110998 0.101245
0.000000 0.165629 0.081572
0.010473 0.166189 0.082973
0.074375 0.166750 0.084375
0.138277 0.167311 0.085777
0.202178 0.167871 0.087178
0.266080 0.168432 0.088580
0.329981 0.168992 0.089981
0.393883 0.169553 0.091383
0.457784 0.170114 0.092784
0.521686 0.170674 0.094186
0.585587 0.171235 0.095587
0.649489 0.171796 0.096989
0.713391 0.172356 0.098391
0.777292 0.172917 0.099792
0.841194 0.173477 0.101194
0.905095 0.174038 0.102595
0.968997 0.174599 0.103997
0.000000 0.229229 0.084323
0.013225 0.229790 0.085725
0.077127 0.230351 0.087127
0.141028 0.230911 0.088528
0.204930 0.231472 0.089930
0.268831 0.232032 0.091331
0.332733 0.232593 0.092733
0.396634 0.233154 0.094134
0.460536 0.233714 0.095536
0.524438 0.234275 0.096937
0.588339 0.234836 0.098339
0.652241 0.235396 0.099741
0.716142 0.235957 0.101142
0.780044 0.236517 0.102544
0.843945 0.237078 0.103945
0.907500 0.237500 0.105000
0.970000 0.237500 0.105000
0.000000 0.292830 0.087075
0.015977 0.293391 0.088477
0.079878 0.293951 0.089878
0.143780 0.294512 0.091280
0.207681 0.295072 0.092681
0.271583 0.295633 0.094083
0.335484 0.296194 0.095484
0.399386 0.296754 0.096886
0.463287 0.297315 0.098287
0.527189 0.297876 0.099689
0.591091 0.298436 0.101091
0.654992 0.298997 0.102492
0.718894 0.299557 0.103894
0.782500 0.300000 0.105000
0.845000 0.300000 0.105000
0.907500 0.300000 0.105000
0.970000 0.300000 0.105000
0.000000 0.356431 0.089827
0.018728 0.356991 0.091228
0.082630 0.357552 0.092630
0.146531 0.358113 0.094031
0.210433 0.358673 0.095433
0.274334 0.359234 0.096834
0.338236 0.359794 0.098236
0.402137 0.360355 0.099637
0.466039 0.360916 0.101039
0.529941 0.361476 0.102441
0.593842 0.362037 0.103842
0.657500 0.362500 0.105000
0.720000 0.362500 0.105000
0.782500 0.362500 0.105000
0.845000 0.362500 0.105000
0.907500 0.362500 0.105000
0.970000 0.362500 0.105000
0.000000 0.420031 0.092578
0.021480 0.420592 0.093980
0.085381 0.421152 0.095381
0.149283 0.421713 0.096783
0.213184 0.422274 0.098184
0.277086 0.422834 0.099586
0.340987 0.423395 0.100987
0.404889 0.423956 0.102389
0.468791 0.424516 0.103791
0.532500 0.425000 0.105000
0.595000 0.425000 0.105000
0.657500 0.425000 0.105000
0.720000 0.425000 0.105000
0.782500 0.425000 0.105000
0.845000 0.425000 0.105000
0.907500 0.425000 0.105000
0.970000 0.425000 0.105000
0.000000 0.483632 0.095330
0.024231 0.484192 0.096731
0.088133 0.484753 0.098133
0.152034 0.485314 0.099534
0.215936 0.485874 0.100936
0.279837 0.486435 0.102337
0.343739 0.486996 0.103739
0.407500 0.487500 0.105000
0.470000 0.487500 0.105000
0.532500 0.487500 0.105000
0.595000 0.487500 0.105000
0.657500 0.487500 0.105000
0.720000 0.487500 0.105000
0.782500 0.487500 0.105000
0.845000 0.487500 0.105000
0.907500 0.487500 0.105000
0.970000 0.487500 0.105000
0.000000 0.547233 0.098081
0.026983 0.547793 0.099483
0.090884 0.548354 0.100884
0.154786 0.548914 0.102286
0.218688 0.549475 0.103687
0.282500 0.550000 0.105000
0.345000 0.550000 0.105000
0.407500 0.550000 0.105000
0.470000 0.550000 0.105000
0.532500 0.550000 0.105000
0.595000 0.550000 0.105000
0.657500 0.550000 0.105000
0.720000 0.550000 0.105000
0.782500 0.550000 0.105000
0.845000 0.550000 0.105000
0.907500 0.550000 0.105000
0.970000 0.550000 0.105000
0.000000 0.610833 0.100833
0.029734 0.611394 0.102234
0.093636 0.611954 0.103636
0.157500 0.612500 0.105000
0.220000 0.612500 0.105000
0.282500 0.612500 0.105000
0.345000 0.612500 0.105000
0.407500 0.612500 0.105000
0.470000 0.612500 0.105000
0.532500 0.612500 0.105000
0.595000 0.612500 0.105000
0.657500 0.612500 0.105000
0.720000 0.612500 0.105000
0.782500 0.612500 0.105000
0.845000 0.612500 0.105000
0.907500 0.612500 0.105000
0.970000 0.612500 0.105000
0.000000 0.674434 0.103584
0.032486 0.674994 0.104986
0.095000 0.675000 0.105000
0.157500 0.675000 0.105000
0.220000 0.675000 0.105000
0.282500 0.675000 0.105000
0.345000 0.675000 0.105000
0.407500 0.675000 0.105000
0.470000 0.675000 0.105000
0.532500 0.675000 0.105000
0.595000 0.675000 0.105000
0.657500 0.675000 0.105000
0.720000 0.675000 0.105000
0.782500 0.675000 0.105000
0.845000 0.675000 0.105000
0.907500 0.675000 0.105000
0.970000 0.675000 0.105000
0.000000 0.737500 0.105000
0.032500 0.737500 0.105000
0.095000 0.737500 0.105000
0.157500 0.737500 0.105000
0.220000 0.737500 0.105000
0.282500 0.737500 0.105000
0.345000 0.737500 0.105000
0.407500 0.737500 0.105000
0.470000 0.737500 0.105000
0.532500 0.737500 0.105000
0.595000 0.737500 0.105000
0.657500 0.737500 0.105000
0.720000 0.737500 0.105000
0.782500 0.737500 0.105000
0.845000 0.737500 0.105000
0.907500 0.737500 0.105000
0.970000 0.737500 0.105000
0.000000 0.800000 0.105000
0.032500 0.800000 0.105000
0.095000 0.800000 0.105000
0.157500 0.800000 0.105000
0.220000 0.800000 0.105000
0.282500 0.800000 0.105000
0.345000 0.800000 0.105000
0.407500 0.800000 0.105000
0.470000 0.800000 0.105000
0.532500 0.800000 0.105000
0.595000 0.800000 0.105000
0.657500 0.800000 0.105000
0.720000 0.800000 0.105000
0.782500 0.800000 0.105000
0.845000 0.800000 0.105000
0.907500 0.800000 0.105000
0.970000 0.800000 0.105000
0.000000 0.862500 0.105000
0.032500 0.862500 0.105000
0.095000 0.862500 0.105000
0.157500 0.862500 0.105000
0.220000 0.862500 0.105000
0.282500 0.862500 0.105000
0.345000 0.862500 0.105000
0.407500 0.862500 0.105000
0.470000 0.862500 0.105000
0.532500 0.862500 0.105000
0.595000 0.862500 0.105000
0.657500 0.862500 0.105000
0.720000 0.862500 0.105000
0.782500 0.862500 0.105000
0.845000 0.862500 0.105000
0.907500 0.862500 0.105000
0.970000 0.862500 0.105000
0.000000 0.925000 0.105000
0.032500 0.925000 0.105000
0.095000 0.925000 0.105000
0.157500 0.925000 0.105000
0.220000 0.925000 0.105000
0.282500 0.925000 0.105000
0.345000 0.925000 0.105000
0.407500 0.925000 0.105000
0.470000 0.925000 0.105000
0.532500 0.925000 0.105000
0.595000 0.925000 0.105000
0.657500 0.925000 0.105000
0.720000 0.925000 0.105000
0.782500 0.925000 0.105000
0.845000 0.925000 0.105000
0.907500 0.925000 0.105000
0.970000 0.925000 0.105000
0.000000 0.987500 0.105000
0.032500 0.987500 0.105000
0.095000 0.987500 0.105000
0.157500 0.987500 0.105000
0.220000 0.987500 0.105000
0.282500 0.987500 0.105000
0.345000 0.987500 0.105000
0.407500 0.987500 0.105000
0.470000 0.987500 0.105000
0.532500 0.987500 0.105000
0.595000 0.987500 0.105000
0.657500 0.987500 0.105000
0.720000 0.987500 0.105000
0.782500 0.987500 0.105000
0.845000 0.987500 0.105000
0.907500 0.987500 0.105000
0.970000 0.987500 0.105000
0.000000 1.000000 0.105000
0.032500 1.000000 0.105000
0.095000 1.000000 0.105000
0.157500 1.000000 0.105000
0.220000 1.000000 0.105000
0.282500 1.000000 0.105000
0.345000 1.000000 0.105000
0.407500 1.000000 0.105000
0.470000 1.000000 0.105000
0.532500 1.000000 0.105000
0.595000 1.000000 0.105000
0.657500 1.000000 0.105000
0.720000 1.000000 0.105000
0.782500 1.000000 0.105000
0.845000 1.000000 0.105000
0.907500 1.000000 0.105000
0.970000 1.000000 0.105000
0.000000 0.038641 0.139103
0.005505 0.039202 0.140505
0.069406 0.039762 0.141906
0.133308 0.040323 0.143308
0.197209 0.040884 0.144709
0.261111 0.041444 0.146111
0.325012 0.042005 0.147512
0.388914 0.042566 0.148914
0.452816 0.043126 0.150316
0.516717 0.043687 0.151717
0.580619 0.044248 0.153119
0.644520 0.044808 0.154520
0.708422 0.045369 0.155922
0.772323 0.045929 0.157323
0.836225 0.046490 0.158725
0.900127 0.047051 0.160127
0.964028 0.047611 0.161528
0.000000 0.102242 0.141855
0.008256 0.102803 0.143256
0.072158 0.103363 0.144658
0.136059 0.103924 0.146059
