Tools/LUT_Grading_MCP/src/lut_grading_mcp/luts/moody_green.cube
LUT_3D_SIZE 9
0.000000 0.038000 0.000000
0.067803 0.039121 0.000000
0.195606 0.040243 0.000000
0.323409 0.041364 0.000000
0.451212 0.042485 0.000000
0.579016 0.043606 0.000000
0.706819 0.044728 0.000000
0.834622 0.045849 0.000000
0.962425 0.046970 0.000000
0.000000 0.165201 0.000000
0.073306 0.166322 0.000000
0.201109 0.167444 0.000000
0.328912 0.168565 0.000000
0.456716 0.169686 0.000000
0.584519 0.170808 0.000000
0.712322 0.171929 0.000000
0.840125 0.173050 0.000000
0.967928 0.174171 0.000000
0.000000 0.292403 0.000000
0.078809 0.293524 0.000000
0.206613 0.294645 0.000000
0.334416 0.295766 0.000000
0.462219 0.296887 0.000000
0.590022 0.298009 0.000000
0.717825 0.299130 0.000000
0.845000 0.300000 0.000000
0.970000 0.300000 0.000000
0.000000 0.419604 0.000000
0.084312 0.420725 0.000000
0.212116 0.421846 0.000000
0.339919 0.422967 0.000000
0.467722 0.424089 0.000000
0.595000 0.425000 0.000000
0.720000 0.425000 0.000000
0.845000 0.425000 0.000000
0.970000 0.425000 0.000000
0.000000 0.546805 0.000000
0.089816 0.547926 0.000000
0.217619 0.549048 0.000000
0.345000 0.550000 0.000000
0.470000 0.550000 0.000000
0.595000 0.550000 0.000000
0.720000 0.550000 0.000000
0.845000 0.550000 0.000000
0.970000 0.550000 0.000000
0.000000 0.674006 0.000000
0.095000 0.675000 0.000000
0.220000 0.675000 0.000000
0.345000 0.675000 0.000000
0.470000 0.675000 0.000000
0.595000 0.675000 0.000000
0.720000 0.675000 0.000000
0.845000 0.675000 0.000000
0.970000 0.675000 0.000000
0.000000 0.800000 0.000000
0.095000 0.800000 0.000000
0.220000 0.800000 0.000000
0.345000 0.800000 0.000000
0.470000 0.800000 0.000000
0.595000 0.800000 0.000000
0.720000 0.800000 0.000000
0.845000 0.800000 0.000000
0.970000 0.800000 0.000000
0.000000 0.925000 0.000000
0.095000 0.925000 0.000000
0.220000 0.925000 0.000000
0.345000 0.925000 0.000000
0.470000 0.925000 0.000000
0.595000 0.925000 0.000000
0.720000 0.925000 0.000000
0.845000 0.925000 0.000000
0.970000 0.925000 0.000000
0.000000 1.000000 0.000000
0.095000 1.000000 0.000000
0.220000 1.000000 0.000000
0.345000 1.000000 0.000000
0.470000 1.000000 0.000000
0.595000 1.000000 0.000000
0.720000 1.000000 0.000000
0.845000 1.000000 0.000000
0.970000 1.000000 0.000000
0.000000 0.038428 0.076069
0.068872 0.039549 0.078872
0.196675 0.040670 0.081675
0.324478 0.041791 0.084478
0.452281 0.042913 0.087281
0.580084 0.044034 0.090084
0.707888 0.045155 0.092887
0.835691 0.046276 0.095691
0.963494 0.047398 0.098494
0.000000 0.165629 0.081572
0.074375 0.166750 0.084375
0.202178 0.167871 0.087178
0.329981 0.168992 0.089981
0.457784 0.170114 0.092784
0.585587 0.171235 0.095587
0.713391 0.172356 0.098391
0.841194 0.173477 0.101194
0.968997 0.174599 0.103997
0.000000 0.292830 0.087075
0.079878 0.293951 0.089878
0.207681 0.295072 0.092681
0.335484 0.296194 0.095484
0.463287 0.297315 0.098287
0.591091 0.298436 0.101091
0.718894 0.299557 0.103894
0.845000 0.300000 0.105000
0.970000 0.300000 0.105000
0.000000 0.420031 0.092578
0.085381 0.421152 0.095381
0.213184 0.422274 0.098184
0.340987 0.423395 0.100987
0.468791 0.424516 0.103791
0.595000 0.425000 0.105000
0.720000 0.425000 0.105000
0.845000 0.425000 0.105000
0.970000 0.425000 0.105000
0.000000 0.547233 0.098081
0.090884 0.548354 0.100884
0.218688 0.549475 0.103687
0.345000 0.550000 0.105000
0.470000 0.550000 0.105000
0.595000 0.550000 0.105000
0.720000 0.550000 0.105000
0.845000 0.550000 0.105000
0.970000 0.550000 0.105000
0.000000 0.674434 0.103584
0.095000 0.675000 0.105000
0.220000 0.675000 0.105000
0.345000 0.675000 0.105000
0.470000 0.675000 0.105000
0.595000 0.675000 0.105000
0.720000 0.675000 0.105000
0.845000 0.675000 0.105000
0.970000 0.675000 0.105000
0.000000 0.800000 0.105000
0.095000 0.800000 0.105000
0.220000 0.800000 0.105000
0.345000 0.800000 0.105000
0.470000 0.800000 0.105000
0.595000 0.800000 0.105000
0.720000 0.800000 0.105000
0.845000 0.800000 0.105000
0.970000 0.800000 0.105000
0.000000 0.925000 0.105000
0.095000 0.925000 0.105000
0.220000 0.925000 0.105000
0.345000 0.925000 0.105000
0.470000 0.925000 0.105000
0.595000 0.925000 0.105000
0.720000 0.925000 0.105000
0.845000 0.925000 0.105000
0.970000 0.925000 0.105000
0.000000 1.000000 0.105000
0.095000 1.000000 0.105000
0.220000 1.000000 0.105000
0.345000 1.000000 0.105000
0.470000 1.000000 0.105000
0.595000 1.000000 0.105000
0.720000 1.000000 0.105000
0.845000 1.000000 0.105000
0.970000 1.000000 0.105000
0.000000 0.038855 0.202137
0.069941 0.039976 0.204941
0.197744 0.041098 0.207744
0.325547 0.042219 0.210547
0.453350 0.043340 0.213350
0.581153 0.044461 0.216153
0.708956 0.045583 0.218956
0.836759 0.046704 0.221759
0.964562 0.047825 0.224562
0.000000 0.166056 0.207641
0.075444 0.167177 0.210444
0.203247 0.168299 0.213247
0.331050 0.169420 0.216050
0.458853 0.170541 0.218853
0.586656 0.171662 0.221656
0.714459 0.172784 0.224459
0.842263 0.173905 0.227263
0.970000 0.175000 0.230000
0.000000 0.293258 0.213144
0.080947 0.294379 0.215947
0.208750 0.295500 0.218750
0.336553 0.296621 0.221553
0.464356 0.297742 0.224356
0.592159 0.298864 0.227159
0.719962 0.299985 0.229963
0.845000 0.300000 0.230000
0.970000 0.300000 0.230000
0.000000 0.420459 0.218647
0.086450 0.421580 0.221450
0.214253 0.422701 0.224253
0.342056 0.423822 0.227056
0.469859 0.424944 0.229859
0.595000 0.425000 0.230000
0.720000 0.425000 0.230000
0.845000 0.425000 0.230000
0.970000 0.425000 0.230000
0.000000 0.547660 0.224150
0.091953 0.548781 0.226953
0.219756 0.549903 0.229756
0.345000 0.550000 0.230000
0.470000 0.550000 0.230000
0.595000 0.550000 0.230000
0.720000 0.550000 0.230000
0.845000 0.550000 0.230000
0.970000 0.550000 0.230000
0.000000 0.674861 0.229653
0.095000 0.675000 0.230000
0.220000 0.675000 0.230000
0.345000 0.675000 0.230000
0.470000 0.675000 0.230000
0.595000 0.675000 0.230000
0.720000 0.675000 0.230000
0.845000 0.675000 0.230000
0.970000 0.675000 0.230000
0.000000 0.800000 0.230000
0.095000 0.800000 0.230000
0.220000 0.800000 0.230000
0.345000 0.800000 0.230000
0.470000 0.800000 0.230000
0.595000 0.800000 0.230000
0.720000 0.800000 0.230000
0.845000 0.800000 0.230000
0.970000 0.800000 0.230000
0.000000 0.925000 0.230000
0.095000 0.925000 0.230000
0.220000 0.925000 0.230000
0.345000 0.925000 0.230000
0.470000 0.925000 0.230000
0.595000 0.925000 0.230000
0.720000 0.925000 0.230000
0.845000 0.925000 0.230000
0.970000 0.925000 0.230000
0.000000 1.000000 0.230000
0.095000 1.000000 0.230000
0.220000 1.000000 0.230000
0.345000 1.000000 0.230000
0.470000 1.000000 0.230000
0.595000 1.000000 0.230000
0.720000 1.000000 0.230000
0.845000 1.000000 0.230000
0.970000 1.000000 0.230000
0.000000 0.039283 0.328206
0.071009 0.040404 0.331009
0.198813 0.041525 0.333812
0.326616 0.042646 0.336616
0.454419 0.043768 0.339419
0.582222 0.044889 0.342222
0.710025 0.046010 0.345025
0.837828 0.047131 0.347828
0.965631 0.048253 0.350631
0.000000 0.166484 0.333709
0.076512 0.167605 0.336512
0.204316 0.168726 0.339316
0.332119 0.169847 0.342119
0.459922 0.170969 0.344922
0.587725 0.172090 0.347725
0.715528 0.173211 0.350528
0.843331 0.174333 0.353331
0.970000 0.175000 0.355000
0.000000 0.293685 0.339212
0.082016 0.294806 0.342016
0.209819 0.295928 0.344819
0.337622 0.297049 0.347622
0.465425 0.298170 0.350425
0.593228 0.299291 0.353228
0.720000 0.300000 0.355000
0.845000 0.300000 0.355000
0.970000 0.300000 0.355000
0.000000 0.420886 0.344716
0.087519 0.422007 0.347519
0.215322 0.423129 0.350322
0.343125 0.424250 0.353125
0.470000 0.425000 0.355000
0.595000 0.425000 0.355000
0.720000 0.425000 0.355000
0.845000 0.425000 0.355000
0.970000 0.425000 0.355000
0.000000 0.548088 0.350219
0.093022 0.549209 0.353022
0.220000 0.550000 0.355000
0.345000 0.550000 0.355000
0.470000 0.550000 0.355000
0.595000 0.550000 0.355000
0.720000 0.550000 0.355000
0.845000 0.550000 0.355000
0.970000 0.550000 0.355000
0.000000 0.675000 0.355000
0.095000 0.675000 0.355000
0.220000 0.675000 0.355000
0.345000 0.675000 0.355000
0.470000 0.675000 0.355000
0.595000 0.675000 0.355000
0.720000 0.675000 0.355000
0.845000 0.675000 0.355000
0.970000 0.675000 0.355000
0.000000 0.800000 0.355000
0.095000 0.800000 0.355000
0.220000 0.800000 0.355000
0.345000 0.800000 0.355000
0.470000 0.800000 0.355000
0.595000 0.800000 0.355000
0.720000 0.800000 0.355000
0.845000 0.800000 0.355000
0.970000 0.800000 0.355000
0.000000 0.925000 0.355000
0.095000 0.925000 0.355000
0.220000 0.925000 0.355000
0.345000 0.925000 0.355000
0.470000 0.925000 0.355000
0.595000 0.925000 0.355000
0.720000 0.925000 0.355000
0.845000 0.925000 0.355000
0.970000 0.925000 0.355000
0.000000 1.000000 0.355000
0.095000 1.000000 0.355000
0.220000 1.000000 0.355000
0.345000 1.000000 0.355000
0.470000 1.000000 0.355000
0.595000 1.000000 0.355000
0.720000 1.000000 0.355000
0.845000 1.000000 0.355000
0.970000 1.000000 0.355000
0.000000 0.039710 0.454275
0.072078 0.040831 0.457078
0.199881 0.041953 0.459881
0.327684 0.043074 0.462684
0.455487 0.044195 0.465487
0.583291 0.045316 0.468291
0.711094 0.046437 0.471094
0.838897 0.047559 0.473897
0.966700 0.048680 0.476700
0.000000 0.166911 0.459778
0.077581 0.168032 0.462581
0.205384 0.169154 0.465384
0.333187 0.170275 0.468187
0.460991 0.171396 0.470991
0.588794 0.172517 0.473794
0.716597 0.173639 0.476597
0.844400 0.174760 0.479400
0.970000 0.175000 0.480000
0.000000 0.294112 0.465281
0.083084 0.295234 0.468084
0.210888 0.296355 0.470887
0.338691 0.297476 0.473691
0.466494 0.298598 0.476494
0.594297 0.299719 0.479297
0.720000 0.300000 0.480000
0.845000 0.300000 0.480000
0.970000 0.300000 0.480000
0.000000 0.421314 0.470784
0.088587 0.422435 0.473587
0.216391 0.423556 0.476391
0.344194 0.424677 0.479194
0.470000 0.425000 0.480000
0.595000 0.425000 0.480000
0.720000 0.425000 0.480000
0.845000 0.425000 0.480000
0.970000 0.425000 0.480000
0.000000 0.548515 0.476287
0.094091 0.549636 0.479091
0.220000 0.550000 0.480000
0.345000 0.550000 0.480000
0.470000 0.550000 0.480000
0.595000 0.550000 0.480000
0.720000 0.550000 0.480000
0.845000 0.550000 0.480000
0.970000 0.550000 0.480000
0.000000 0.675000 0.480000
0.095000 0.675000 0.480000
0.220000 0.675000 0.480000
0.345000 0.675000 0.480000
0.470000 0.675000 0.480000
0.595000 0.675000 0.480000
0.720000 0.675000 0.480000
0.845000 0.675000 0.480000
0.970000 0.675000 0.480000
0.000000 0.800000 0.480000
0.095000 0.800000 0.480000
0.220000 0.800000 0.480000
0.345000 0.800000 0.480000
0.470000 0.800000 0.480000
0.595000 0.800000 0.480000
0.720000 0.800000 0.480000
0.845000 0.800000 0.480000
0.970000 0.800000 0.480000
0.000000 0.925000 0.480000
0.095000 0.925000 0.480000
0.220000 0.925000 0.480000
0.345000 0.925000 0.480000
0.470000 0.925000 0.480000
0.595000 0.925000 0.480000
0.720000 0.925000 0.480000
0.845000 0.925000 0.480000
0.970000 0.925000 0.480000
0.000000 1.000000 0.480000
0.095000 1.000000 0.480000
0.220000 1.000000 0.480000
0.345000 1.000000 0.480000
0.470000 1.000000 0.480000
0.595000 1.000000 0.480000
0.720000 1.000000 0.480000
0.845000 1.000000 0.480000
0.970000 1.000000 0.480000
0.000000 0.040138 0.580344
0.073147 0.041259 0.583147
0.200950 0.042380 0.585950
0.328753 0.043501 0.588753
0.456556 0.044623 0.591556
0.584359 0.045744 0.594359
0.712162 0.046865 0.597162
0.839966 0.047986 0.599966
0.967769 0.049107 0.602769
0.000000 0.167339 0.585847
0.078650 0.168460 0.588650
0.206453 0.169581 0.591453
0.334256 0.170702 0.594256
0.462059 0.171824 0.597059
0.589862 0.172945 0.599862
0.717666 0.174066 0.602666
0.845000 0.175000 0.605000
0.970000 0.175000 0.605000
0.000000 0.294540 0.591350
0.084153 0.295661 0.594153
0.211956 0.296783 0.596956
0.339759 0.297904 0.599759
0.467562 0.299025 0.602563
0.595000 0.300000 0.605000
0.720000 0.300000 0.605000
0.845000 0.300000 0.605000
0.970000 0.300000 0.605000
0.000000 0.421741 0.596853
0.089656 0.422862 0.599656
0.217459 0.423984 0.602459
0.345000 0.425000 0.605000
0.470000 0.425000 0.605000
0.595000 0.425000 0.605000
0.720000 0.425000 0.605000
0.845000 0.425000 0.605000
0.970000 0.425000 0.605000
0.000000 0.548942 0.602356
0.095000 0.550000 0.605000
0.220000 0.550000 0.605000
0.345000 0.550000 0.605000
0.470000 0.550000 0.605000
0.595000 0.550000 0.605000
0.720000 0.550000 0.605000
0.845000 0.550000 0.605000
0.970000 0.550000 0.605000
0.000000 0.675000 0.605000
0.095000 0.675000 0.605000
0.220000 0.675000 0.605000
0.345000 0.675000 0.605000
0.470000 0.675000 0.605000
0.595000 0.675000 0.605000
0.720000 0.675000 0.605000
0.845000 0.675000 0.605000
0.970000 0.675000 0.605000
0.000000 0.800000 0.605000
0.095000 0.800000 0.605000
0.220000 0.800000 0.605000
0.345000 0.800000 0.605000
0.470000 0.800000 0.605000
0.595000 0.800000 0.605000
0.720000 0.800000 0.605000
0.845000 0.800000 0.605000
0.970000 0.800000 0.605000
0.000000 0.925000 0.605000
0.095000 0.925000 0.605000
0.220000 0.925000 0.605000
0.345000 0.925000 0.605000
0.470000 0.925000 0.605000
0.595000 0.925000 0.605000
0.720000 0.925000 0.605000
0.845000 0.925000 0.605000
0.970000 0.925000 0.605000
0.000000 1.000000 0.605000
0.095000 1.000000 0.605000
0.220000 1.000000 0.605000
0.345000 1.000000 0.605000
0.470000 1.000000 0.605000
0.595000 1.000000 0.605000
0.720000 1.000000 0.605000
0.845000 1.000000 0.605000
0.970000 1.000000 0.605000
0.000000 0.040565 0.706412
0.074216 0.041686 0.709216
0.202019 0.042807 0.712019
0.329822 0.043929 0.714822
0.457625 0.045050 0.717625
0.585428 0.046171 0.720428
0.713231 0.047293 0.723231
0.841034 0.048414 0.726034
0.968838 0.049535 0.728838
0.000000 0.167766 0.711916
0.079719 0.168887 0.714719
0.207522 0.170009 0.717522
0.335325 0.171130 0.720325
0.463128 0.172251 0.723128
0.590931 0.173372 0.725931
0.718734 0.174494 0.728734
0.845000 0.175000 0.730000
0.970000 0.175000 0.730000
0.000000 0.294967 0.717419
0.085222 0.296089 0.720222
0.213025 0.297210 0.723025
0.340828 0.298331 0.725828
0.468631 0.299453 0.728631
0.595000 0.300000 0.730000
0.720000 0.300000 0.730000
0.845000 0.300000 0.730000
0.970000 0.300000 0.730000
0.000000 0.422169 0.722922
0.090725 0.423290 0.725725
0.218528 0.424411 0.728528
0.345000 0.425000 0.730000
0.470000 0.425000 0.730000
0.595000 0.425000 0.730000
0.720000 0.425000 0.730000
0.845000 0.425000 0.730000
0.970000 0.425000 0.730000
0.000000 0.549370 0.728425
0.095000 0.550000 0.730000
0.220000 0.550000 0.730000
0.345000 0.550000 0.730000
0.470000 0.550000 0.730000
0.595000 0.550000 0.730000
0.720000 0.550000 0.730000
0.845000 0.550000 0.730000
0.970000 0.550000 0.730000
0.000000 0.675000 0.730000
0.095000 0.675000 0.730000
0.220000 0.675000 0.730000
0.345000 0.675000 0.730000
0.470000 0.675000 0.730000
0.595000 0.675000 0.730000
0.720000 0.675000 0.730000
0.845000 0.675000 0.730000
0.970000 0.675000 0.730000
0.000000 0.800000 0.730000
0.095000 0.800000 0.730000
0.220000 0.800000 0.730000
0.345000 0.800000 0.730000
0.470000 0.800000 0.730000
0.595000 0.800000 0.730000
0.720000 0.800000 0.730000
0.845000 0.800000 0.730000
0.970000 0.800000 0.730000
0.000000 0.925000 0.730000
0.095000 0.925000 0.730000
0.220000 0.925000 0.730000
0.345000 0.925000 0.730000
0.470000 0.925000 0.730000
0.595000 0.925000 0.730000
0.720000 0.925000 0.730000
0.845000 0.925000 0.730000
0.970000 0.925000 0.730000
0.000000 1.000000 0.730000
0.095000 1.000000 0.730000
0.220000 1.000000 0.730000
0.345000 1.000000 0.730000
0.470000 1.000000 0.730000
0.595000 1.000000 0.730000
0.720000 1.000000 0.730000
0.845000 1.000000 0.730000
0.970000 1.000000 0.730000
0.000000 0.040993 0.832481
0.075284 0.042114 0.835284
0.203088 0.043235 0.838087
0.330891 0.044356 0.840891
0.458694 0.045478 0.843694
0.586497 0.046599 0.846497
0.714300 0.047720 0.849300
0.842103 0.048841 0.852103
0.969906 0.049962 0.854906
0.000000 0.168194 0.837984
0.080787 0.169315 0.840788
0.208591 0.170436 0.843591
0.336394 0.171558 0.846394
0.464197 0.172679 0.849197
0.592000 0.173800 0.852000
0.719803 0.174921 0.854803
0.845000 0.175000 0.855000
0.970000 0.175000 0.855000
0.000000 0.295395 0.843487
0.086291 0.296516 0.846291
0.214094 0.297637 0.849094
0.341897 0.298759 0.851897
0.469700 0.299880 0.854700
0.595000 0.300000 0.855000
0.720000 0.300000 0.855000
0.845000 0.300000 0.855000
0.970000 0.300000 0.855000
0.000000 0.422596 0.848991
0.091794 0.423717 0.851794
0.219597 0.424839 0.854597
0.345000 0.425000 0.855000
0.470000 0.425000 0.855000
0.595000 0.425000 0.855000
0.720000 0.425000 0.855000
0.845000 0.425000 0.855000
0.970000 0.425000 0.855000
0.000000 0.549798 0.854494
0.095000 0.550000 0.855000
0.220000 0.550000 0.855000
0.345000 0.550000 0.855000
0.470000 0.550000 0.855000
0.595000 0.550000 0.855000
0.720000 0.550000 0.855000
0.845000 0.550000 0.855000
0.970000 0.550000 0.855000
0.000000 0.675000 0.855000
0.095000 0.675000 0.855000
0.220000 0.675000 0.855000
0.345000 0.675000 0.855000
0.470000 0.675000 0.855000
0.595000 0.675000 0.855000
0.720000 0.675000 0.855000
0.845000 0.675000 0.855000
0.970000 0.675000 0.855000
0.000000 0.800000 0.855000
0.095000 0.800000 0.855000
0.220000 0.800000 0.855000
0.345000 0.800000 0.855000
0.470000 0.800000 0.855000
0.595000 0.800000 0.855000
0.720000 0.800000 0.855000
0.845000 0.800000 0.855000
0.970000 0.800000 0.855000
0.000000 0.925000 0.855000
0.095000 0.925000 0.855000
0.220000 0.925000 0.855000
0.345000 0.925000 0.855000
0.470000 0.925000 0.855000
0.595000 0.925000 0.855000
0.720000 0.925000 0.855000
0.845000 0.925000 0.855000
0.970000 0.925000 0.855000
0.000000 1.000000 0.855000
0.095000 1.000000 0.855000
0.220000 1.000000 0.855000
0.345000 1.000000 0.855000
0.470000 1.000000 0.855000
0.595000 1.000000 0.855000
0.720000 1.000000 0.855000
0.845000 1.000000 0.855000
0.970000 1.000000 0.855000
0.000000 0.041420 0.958550
0.076353 0.042541 0.961353
0.204156 0.043662 0.964156
0.331959 0.044784 0.966959
0.459762 0.045905 0.969762
0.587566 0.047026 0.972566
0.715369 0.048148 0.975369
0.843172 0.049269 0.978172
0.970000 0.050000 0.980000
0.000000 0.168621 0.964053
0.081856 0.169742 0.966856
0.209659 0.170864 0.969659
0.337462 0.171985 0.972463
0.465266 0.173106 0.975266
0.593069 0.174227 0.978069
0.720000 0.175000 0.980000
0.845000 0.175000 0.980000
0.970000 0.175000 0.980000
0.000000 0.295822 0.969556
0.087359 0.296944 0.972359
0.215163 0.298065 0.975162
0.342966 0.299186 0.977966
0.470000 0.300000 0.980000
0.595000 0.300000 0.980000
0.720000 0.300000 0.980000
0.845000 0.300000 0.980000
0.970000 0.300000 0.980000
0.000000 0.423024 0.975059
0.092863 0.424145 0.977862
0.220000 0.425000 0.980000
0.345000 0.425000 0.980000
0.470000 0.425000 0.980000
0.595000 0.425000 0.980000
0.720000 0.425000 0.980000
0.845000 0.425000 0.980000
0.970000 0.425000 0.980000
0.000000 0.550000 0.980000
0.095000 0.550000 0.980000
0.220000 0.550000 0.980000
0.345000 0.550000 0.980000
0.470000 0.550000 0.980000
0.595000 0.550000 0.980000
0.720000 0.550000 0.980000
0.845000 0.550000 0.980000
0.970000 0.550000 0.980000
0.000000 0.675000 0.980000
0.095000 0.675000 0.980000
0.220000 0.675000 0.980000
0.345000 0.675000 0.980000
0.470000 0.675000 0.980000
0.595000 0.675000 0.980000
0.720000 0.675000 0.980000
0.845000 0.675000 0.980000
0.970000 0.675000 0.980000
0.000000 0.800000 0.980000
0.095000 0.800000 0.980000
0.220000 0.800000 0.980000
0.345000 0.800000 0.980000
0.470000 0.800000 0.980000
0.595000 0.800000 0.980000
0.720000 0.800000 0.980000
0.845000 0.800000 0.980000
0.970000 0.800000 0.980000
0.000000 0.925000 0.980000
0.095000 0.925000 0.980000
0.220000 0.925000 0.980000
0.345000 0.925000 0.980000
0.470000 0.925000 0.980000
0.595000 0.925000 0.980000
0.720000 0.925000 0.980000
0.845000 0.925000 0.980000
0.970000 0.925000 0.980000
0.000000 1.000000 0.980000
0.095000 1.000000 0.980000
0.220000 1.000000 0.980000
0.345000 1.000000 0.980000
0.470000 1.000000 0.980000
0.595000 1.000000 0.980000
0.720000 1.000000 0.980000
0.845000 1.000000 0.980000
0.970000 1.000000 0.980000
