Tools/LUT_Grading_MCP/src/lut_grading_mcp/luts/warm_vintage.cube
LUT_3D_SIZE 9
0.120562 0.052562 0.001562
0.221233 0.057608 0.006608
0.321903 0.062653 0.011653
0.422574 0.067699 0.016699
0.523245 0.072745 0.021744
0.623915 0.077790 0.026790
0.724586 0.082836 0.031836
0.825256 0.087881 0.036881
0.925927 0.092927 0.041927
0.130468 0.158093 0.011468
0.231138 0.163138 0.016513
0.331809 0.168184 0.021559
0.432480 0.173230 0.026605
0.533150 0.178275 0.031650
0.633821 0.183321 0.036696
0.734491 0.188366 0.041741
0.835162 0.193412 0.046787
0.935833 0.198458 0.051833
0.140373 0.263623 0.021373
0.241044 0.268669 0.026419
0.341715 0.273715 0.031465
0.442385 0.278760 0.036510
0.543056 0.283806 0.041556
0.643726 0.288851 0.046601
0.744397 0.293897 0.051647
0.845068 0.298943 0.056693
0.945738 0.303988 0.061738
0.150279 0.369154 0.031279
0.250949 0.374200 0.036324
0.351620 0.379245 0.041370
0.452291 0.384291 0.046416
0.552961 0.389336 0.051461
0.653632 0.394382 0.056507
0.754303 0.399428 0.061553
0.854973 0.404473 0.066598
0.955644 0.409519 0.071644
0.160185 0.474685 0.041185
0.260855 0.479730 0.046230
0.361526 0.484776 0.051276
0.462196 0.489821 0.056321
0.562867 0.494867 0.061367
0.663538 0.499913 0.066413
0.764208 0.504958 0.071458
0.864879 0.510004 0.076504
0.965550 0.515049 0.081549
0.170090 0.580215 0.051090
0.270761 0.585261 0.056136
0.371431 0.590306 0.061181
0.472102 0.595352 0.066227
0.572773 0.600398 0.071273
0.673443 0.605443 0.076318
0.774114 0.610489 0.081364
0.874784 0.615534 0.086410
0.975455 0.620580 0.091455
0.179996 0.685746 0.060996
0.280666 0.690791 0.066041
0.381337 0.695837 0.071087
0.482008 0.700883 0.076133
0.582678 0.705928 0.081178
0.683349 0.710974 0.086224
0.784020 0.716020 0.091270
0.884690 0.721065 0.096315
0.985361 0.726111 0.101361
0.189901 0.791276 0.070901
0.290572 0.796322 0.075947
0.391243 0.801368 0.080993
0.491913 0.806413 0.086038
0.592584 0.811459 0.091084
0.693255 0.816504 0.096129
0.793925 0.821550 0.101175
0.894596 0.826596 0.106221
0.995266 0.831641 0.111266
0.199807 0.896807 0.080807
0.300478 0.901853 0.085853
0.401148 0.906898 0.090898
0.501819 0.911944 0.095944
0.602490 0.916990 0.100989
0.703160 0.922035 0.106035
0.803831 0.927081 0.111081
0.904501 0.932126 0.116126
1.000000 0.937172 0.121172
0.122486 0.054486 0.099111
0.223156 0.059531 0.104156
0.323827 0.064577 0.109202
0.424498 0.069623 0.114248
0.525168 0.074668 0.119293
0.625839 0.079714 0.124339
0.726510 0.084759 0.129384
0.827180 0.089805 0.134430
0.927851 0.094851 0.139476
0.132391 0.160016 0.109016
0.233062 0.165062 0.114062
0.333733 0.170108 0.119108
0.434403 0.175153 0.124153
0.535074 0.180199 0.129199
0.635745 0.185245 0.134244
0.736415 0.190290 0.139290
0.837086 0.195336 0.144336
0.937756 0.200381 0.149381
0.142297 0.265547 0.118922
0.242968 0.270593 0.123968
0.343638 0.275638 0.129013
0.444309 0.280684 0.134059
0.544980 0.285730 0.139104
0.645650 0.290775 0.144150
0.746321 0.295821 0.149196
0.846991 0.300866 0.154241
0.947662 0.305912 0.159287
0.152203 0.371078 0.128828
0.252873 0.376123 0.133873
0.353544 0.381169 0.138919
0.454215 0.386215 0.143964
0.554885 0.391260 0.149010
0.655556 0.396306 0.154056
0.756226 0.401351 0.159101
0.856897 0.406397 0.164147
0.957568 0.411443 0.169193
0.162108 0.476608 0.138733
0.262779 0.481654 0.143779
0.363450 0.486700 0.148824
0.464120 0.491745 0.153870
0.564791 0.496791 0.158916
0.665461 0.501836 0.163961
0.766132 0.506882 0.169007
0.866803 0.511928 0.174053
0.967473 0.516973 0.179098
0.172014 0.582139 0.148639
0.272684 0.587184 0.153685
0.373355 0.592230 0.158730
0.474026 0.597276 0.163776
0.574696 0.602321 0.168821
0.675367 0.607367 0.173867
0.776038 0.612413 0.178913
0.876708 0.617458 0.183958
0.977379 0.622504 0.189004
0.181920 0.687670 0.158544
0.282590 0.692715 0.163590
0.383261 0.697761 0.168636
0.483931 0.702806 0.173681
0.584602 0.707852 0.178727
0.685273 0.712898 0.183773
0.785943 0.717943 0.188818
0.886614 0.722989 0.193864
0.987285 0.728035 0.198910
0.191825 0.793200 0.168450
0.292496 0.798246 0.173496
0.393166 0.803291 0.178541
0.493837 0.808337 0.183587
0.594508 0.813383 0.188633
0.695178 0.818428 0.193678
0.795849 0.823474 0.198724
0.896519 0.828519 0.203770
0.997190 0.833565 0.208815
0.201731 0.898731 0.178356
0.302401 0.903776 0.183401
0.403072 0.908822 0.188447
0.503743 0.913868 0.193493
0.604413 0.918913 0.198538
0.705084 0.923959 0.203584
0.805755 0.929005 0.208630
0.906425 0.934050 0.213675
1.000000 0.939096 0.218721
0.124410 0.056410 0.196660
0.225080 0.061455 0.201705
0.325751 0.066501 0.206751
0.426421 0.071546 0.211796
0.527092 0.076592 0.216842
0.627763 0.081638 0.221888
0.728433 0.086683 0.226933
0.829104 0.091729 0.231979
0.929775 0.096774 0.237025
0.134315 0.161940 0.206565
0.234986 0.166986 0.211611
0.335656 0.172031 0.216656
0.436327 0.177077 0.221702
0.536998 0.182123 0.226748
0.637668 0.187168 0.231793
0.738339 0.192214 0.236839
0.839009 0.197260 0.241885
0.939680 0.202305 0.246930
0.144221 0.267471 0.216471
0.244891 0.272516 0.221516
0.345562 0.277562 0.226562
0.446233 0.282608 0.231608
0.546903 0.287653 0.236653
0.647574 0.292699 0.241699
0.748245 0.297745 0.246745
0.848915 0.302790 0.251790
0.949586 0.307836 0.256836
0.154126 0.373001 0.226376
0.254797 0.378047 0.231422
0.355468 0.383093 0.236468
0.456138 0.388138 0.241513
0.556809 0.393184 0.246559
0.657480 0.398230 0.251605
0.758150 0.403275 0.256650
0.858821 0.408321 0.261696
0.959491 0.413366 0.266741
0.164032 0.478532 0.236282
0.264703 0.483578 0.241328
0.365373 0.488623 0.246373
0.466044 0.493669 0.251419
0.566715 0.498715 0.256465
0.667385 0.503760 0.261510
0.768056 0.508806 0.266556
0.868726 0.513851 0.271601
0.969397 0.518897 0.276647
0.173938 0.584063 0.246188
0.274608 0.589108 0.251233
0.375279 0.594154 0.256279
0.475950 0.599199 0.261325
0.576620 0.604245 0.266370
0.677291 0.609291 0.271416
0.777961 0.614336 0.276461
0.878632 0.619382 0.281507
0.979303 0.624428 0.286553
0.183843 0.689593 0.256093
0.284514 0.694639 0.261139
0.385185 0.699685 0.266185
0.485855 0.704730 0.271230
0.586526 0.709776 0.276276
0.687196 0.714821 0.281321
0.787867 0.719867 0.286367
0.888538 0.724913 0.291413
0.989208 0.729958 0.296458
0.193749 0.795124 0.265999
0.294420 0.800169 0.271045
0.395090 0.805215 0.276090
0.495761 0.810261 0.281136
0.596431 0.815306 0.286181
0.697102 0.820352 0.291227
0.797773 0.825398 0.296273
0.898443 0.830443 0.301318
0.999114 0.835489 0.306364
0.203655 0.900655 0.275905
0.304325 0.905700 0.280950
0.404996 0.910746 0.285996
0.505666 0.915791 0.291041
0.606337 0.920837 0.296087
0.707008 0.925883 0.301133
0.807678 0.930928 0.306178
0.908349 0.935974 0.311224
1.000000 0.941020 0.316270
0.126333 0.058333 0.294208
0.227004 0.063379 0.299254
0.327675 0.068425 0.304300
0.428345 0.073470 0.309345
0.529016 0.078516 0.314391
0.629686 0.083561 0.319436
0.730357 0.088607 0.324482
0.831028 0.093653 0.329528
0.931698 0.098698 0.334573
0.136239 0.163864 0.304114
0.236909 0.168909 0.309160
0.337580 0.173955 0.314205
0.438251 0.179001 0.319251
0.538921 0.184046 0.324296
0.639592 0.189092 0.329342
0.740263 0.194138 0.334388
0.840933 0.199183 0.339433
0.941604 0.204229 0.344479
0.146145 0.269395 0.314020
0.246815 0.274440 0.319065
0.347486 0.279486 0.324111
0.448156 0.284531 0.329156
0.548827 0.289577 0.334202
0.649498 0.294623 0.339248
0.750168 0.299668 0.344293
0.850839 0.304714 0.349339
0.951510 0.309760 0.354384
0.156050 0.374925 0.323925
0.256721 0.379971 0.328971
0.357391 0.385016 0.334016
0.458062 0.390062 0.339062
0.558733 0.395108 0.344108
0.659403 0.400153 0.349153
0.760074 0.405199 0.354199
0.860745 0.410245 0.359245
0.961415 0.415290 0.364290
0.165956 0.480456 0.333831
0.266626 0.485501 0.338876
0.367297 0.490547 0.343922
0.467968 0.495593 0.348968
0.568638 0.500638 0.354013
0.669309 0.505684 0.359059
0.769980 0.510729 0.364105
0.870650 0.515775 0.369150
0.971321 0.520821 0.374196
0.175861 0.585986 0.343736
0.276532 0.591032 0.348782
0.377203 0.596078 0.353828
0.477873 0.601123 0.358873
0.578544 0.606169 0.363919
0.679215 0.611214 0.368965
0.779885 0.616260 0.374010
0.880556 0.621306 0.379056
0.981226 0.626351 0.384101
0.185767 0.691517 0.353642
0.286438 0.696563 0.358688
0.387108 0.701608 0.363733
0.487779 0.706654 0.368779
0.588450 0.711700 0.373825
0.689120 0.716745 0.378870
0.789791 0.721791 0.383916
0.890461 0.726836 0.388961
0.991132 0.731882 0.394007
0.195673 0.797048 0.363548
0.296343 0.802093 0.368593
0.397014 0.807139 0.373639
0.497685 0.812185 0.378685
0.598355 0.817230 0.383730
0.699026 0.822276 0.388776
0.799696 0.827321 0.393821
0.900367 0.832367 0.398867
1.000000 0.837413 0.403913
0.205578 0.902578 0.373453
0.306249 0.907624 0.378499
0.406920 0.912670 0.383545
0.507590 0.917715 0.388590
0.608261 0.922761 0.393636
0.708931 0.927806 0.398681
0.809602 0.932852 0.403727
0.910273 0.937898 0.408773
1.000000 0.942943 0.413818
0.128257 0.060257 0.391757
0.228928 0.065303 0.396803
0.329598 0.070348 0.401848
0.430269 0.075394 0.406894
0.530940 0.080439 0.411940
0.631610 0.085485 0.416985
0.732281 0.090531 0.422031
0.832951 0.095576 0.427076
0.933622 0.100622 0.432122
0.138163 0.165788 0.401663
0.238833 0.170833 0.406708
0.339504 0.175879 0.411754
0.440175 0.180924 0.416799
0.540845 0.185970 0.421845
0.641516 0.191016 0.426891
0.742186 0.196061 0.431936
0.842857 0.201107 0.436982
0.943528 0.206153 0.442028
0.148068 0.271318 0.411568
0.248739 0.276364 0.416614
0.349410 0.281410 0.421660
0.450080 0.286455 0.426705
0.550751 0.291501 0.431751
0.651421 0.296546 0.436796
0.752092 0.301592 0.441842
0.852763 0.306638 0.446888
0.953433 0.311683 0.451933
0.157974 0.376849 0.421474
0.258644 0.381895 0.426519
0.359315 0.386940 0.431565
0.459986 0.391986 0.436611
0.560656 0.397031 0.441656
0.661327 0.402077 0.446702
0.761998 0.407123 0.451748
0.862668 0.412168 0.456793
0.963339 0.417214 0.461839
0.167880 0.482379 0.431380
0.268550 0.487425 0.436425
0.369221 0.492471 0.441471
0.469891 0.497516 0.446516
0.570562 0.502562 0.451562
0.671233 0.507608 0.456608
0.771903 0.512653 0.461653
0.872574 0.517699 0.466699
0.973245 0.522744 0.471745
0.177785 0.587910 0.441285
0.278456 0.592956 0.446331
0.379126 0.598001 0.451376
0.479797 0.603047 0.456422
0.580468 0.608093 0.461468
0.681138 0.613138 0.466513
0.781809 0.618184 0.471559
0.882479 0.623229 0.476604
0.983150 0.628275 0.481650
0.187691 0.693441 0.451191
0.288361 0.698486 0.456236
0.389032 0.703532 0.461282
0.489703 0.708578 0.466328
0.590373 0.713623 0.471373
0.691044 0.718669 0.476419
0.791715 0.723715 0.481465
0.892385 0.728760 0.486510
0.993056 0.733806 0.491556
0.197596 0.798971 0.461096
0.298267 0.804017 0.466142
0.398938 0.809063 0.471188
0.499608 0.814108 0.476233
0.600279 0.819154 0.481279
0.700950 0.824199 0.486324
0.801620 0.829245 0.491370
0.902291 0.834291 0.496416
1.000000 0.839336 0.501461
0.207502 0.904502 0.471002
0.308173 0.909548 0.476048
0.408843 0.914593 0.481093
0.509514 0.919639 0.486139
0.610185 0.924685 0.491185
0.710855 0.929730 0.496230
0.811526 0.934776 0.501276
0.912196 0.939821 0.506321
1.000000 0.944867 0.511367
0.130181 0.062181 0.489306
0.230851 0.067226 0.494351
0.331522 0.072272 0.499397
0.432193 0.077318 0.504443
0.532863 0.082363 0.509488
0.633534 0.087409 0.514534
0.734205 0.092454 0.519579
0.834875 0.097500 0.524625
0.935546 0.102546 0.529671
0.140086 0.167711 0.499211
0.240757 0.172757 0.504257
0.341428 0.177803 0.509303
0.442098 0.182848 0.514348
0.542769 0.187894 0.519394
0.643440 0.192940 0.524439
0.744110 0.197985 0.529485
0.844781 0.203031 0.534531
0.945451 0.208076 0.539576
0.149992 0.273242 0.509117
0.250663 0.278288 0.514163
0.351333 0.283333 0.519208
0.452004 0.288379 0.524254
0.552675 0.293425 0.529300
0.653345 0.298470 0.534345
0.754016 0.303516 0.539391
0.854686 0.308561 0.544436
0.955357 0.313607 0.549482
0.159898 0.378773 0.519023
0.260568 0.383818 0.524068
0.361239 0.388864 0.529114
0.461910 0.393910 0.534160
0.562580 0.398955 0.539205
0.663251 0.404001 0.544251
0.763921 0.409046 0.549296
0.864592 0.414092 0.554342
0.965263 0.419138 0.559388
0.169803 0.484303 0.528928
0.270474 0.489349 0.533974
0.371145 0.494395 0.539019
0.471815 0.499440 0.544065
0.572486 0.504486 0.549111
0.673156 0.509531 0.554156
0.773827 0.514577 0.559202
0.874498 0.519623 0.564248
0.975168 0.524668 0.569293
0.179709 0.589834 0.538834
0.280380 0.594880 0.543879
0.381050 0.599925 0.548925
0.481721 0.604971 0.553971
0.582391 0.610016 0.559016
0.683062 0.615062 0.564062
0.783733 0.620108 0.569108
0.884403 0.625153 0.574153
0.985074 0.630199 0.579199
0.189615 0.695365 0.548740
0.290285 0.700410 0.553785
0.390956 0.705456 0.558831
0.491626 0.710501 0.563876
0.592297 0.715547 0.568922
0.692968 0.720593 0.573968
0.793638 0.725638 0.579013
0.894309 0.730684 0.584059
0.994980 0.735730 0.589105
0.199520 0.800895 0.558645
0.300191 0.805941 0.563691
0.400861 0.810986 0.568736
0.501532 0.816032 0.573782
0.602203 0.821078 0.578828
0.702873 0.826123 0.583873
0.803544 0.831169 0.588919
0.904214 0.836214 0.593965
1.000000 0.841260 0.599010
0.209426 0.906426 0.568551
0.310096 0.911471 0.573596
0.410767 0.916517 0.578642
0.511438 0.921563 0.583688
0.612108 0.926608 0.588733
0.712779 0.931654 0.593779
0.813450 0.936700 0.598824
0.914120 0.941745 0.603870
1.000000 0.946791 0.608916
0.132105 0.064105 0.586855
0.232775 0.069150 0.591900
0.333446 0.074196 0.596946
0.434116 0.079241 0.601991
0.534787 0.084287 0.607037
0.635458 0.089333 0.612083
0.736128 0.094378 0.617128
0.836799 0.099424 0.622174
0.937469 0.104469 0.627220
0.142010 0.169635 0.596760
0.242681 0.174681 0.601806
0.343351 0.179726 0.606851
0.444022 0.184772 0.611897
0.544693 0.189818 0.616943
0.645363 0.194863 0.621988
0.746034 0.199909 0.627034
0.846704 0.204954 0.632080
0.947375 0.210000 0.637125
0.151916 0.275166 0.606666
0.252586 0.280211 0.611711
0.353257 0.285257 0.616757
0.453928 0.290303 0.621803
0.554598 0.295348 0.626848
0.655269 0.300394 0.631894
0.755940 0.305440 0.636939
0.856610 0.310485 0.641985
0.957281 0.315531 0.647031
0.161821 0.380696 0.616571
0.262492 0.385742 0.621617
0.363163 0.390788 0.626663
0.463833 0.395833 0.631708
0.564504 0.400879 0.636754
0.665175 0.405925 0.641800
0.765845 0.410970 0.646845
0.866516 0.416016 0.651891
0.967186 0.421061 0.656936
0.171727 0.486227 0.626477
0.272398 0.491273 0.631523
0.373068 0.496318 0.636568
0.473739 0.501364 0.641614
0.574410 0.506409 0.646660
0.675080 0.511455 0.651705
0.775751 0.516501 0.656751
0.876421 0.521546 0.661796
0.977092 0.526592 0.666842
0.181633 0.591758 0.636383
0.282303 0.596803 0.641428
0.382974 0.601849 0.646474
0.483645 0.606895 0.651520
0.584315 0.611940 0.656565
0.684986 0.616986 0.661611
0.785656 0.622031 0.666656
0.886327 0.627077 0.671702
0.986998 0.632123 0.676748
0.191538 0.697288 0.646288
0.292209 0.702334 0.651334
0.392880 0.707380 0.656380
0.493550 0.712425 0.661425
0.594221 0.717471 0.666471
0.694891 0.722516 0.671516
0.795562 0.727562 0.676562
0.896233 0.732608 0.681608
0.996903 0.737653 0.686653
0.201444 0.802819 0.656194
0.302115 0.807864 0.661239
0.402785 0.812910 0.666285
0.503456 0.817956 0.671331
0.604126 0.823001 0.676376
0.704797 0.828047 0.681422
0.805468 0.833093 0.686468
0.906138 0.838138 0.691513
1.000000 0.843184 0.696559
0.211350 0.908350 0.666100
0.312020 0.913395 0.671145
0.412691 0.918441 0.676191
0.513361 0.923486 0.681236
0.614032 0.928532 0.686282
0.714703 0.933578 0.691328
0.815373 0.938623 0.696373
0.916044 0.943669 0.701419
1.000000 0.948715 0.706465
0.134028 0.066028 0.684403
0.234699 0.071074 0.689449
0.335370 0.076120 0.694494
0.436040 0.081165 0.699540
0.536711 0.086211 0.704586
0.637381 0.091256 0.709631
0.738052 0.096302 0.714677
0.838723 0.101348 0.719723
0.939393 0.106393 0.724768
0.143934 0.171559 0.694309
0.244605 0.176604 0.699354
0.345275 0.181650 0.704400
0.445946 0.186696 0.709446
0.546616 0.191741 0.714491
0.647287 0.196787 0.719537
0.747958 0.201833 0.724583
0.848628 0.206878 0.729628
0.949299 0.211924 0.734674
0.153840 0.277090 0.704214
0.254510 0.282135 0.709260
0.355181 0.287181 0.714306
0.455851 0.292226 0.719351
0.556522 0.297272 0.724397
0.657193 0.302318 0.729443
0.757863 0.307363 0.734488
0.858534 0.312409 0.739534
0.959205 0.317455 0.744579
0.163745 0.382620 0.714120
0.264416 0.387666 0.719166
0.365086 0.392711 0.724211
0.465757 0.397757 0.729257
0.566428 0.402803 0.734303
0.667098 0.407848 0.739348
0.767769 0.412894 0.744394
0.868440 0.417940 0.749440
0.969110 0.422985 0.754485
0.173651 0.488151 0.724026
0.274321 0.493196 0.729071
0.374992 0.498242 0.734117
0.475663 0.503288 0.739163
0.576333 0.508333 0.744208
0.677004 0.513379 0.749254
0.777675 0.518424 0.754299
0.878345 0.523470 0.759345
0.979016 0.528516 0.764391
0.183556 0.593681 0.733931
0.284227 0.598727 0.738977
0.384898 0.603773 0.744023
0.485568 0.608818 0.749068
0.586239 0.613864 0.754114
0.686910 0.618910 0.759159
0.787580 0.623955 0.764205
0.888251 0.629001 0.769251
0.988921 0.634046 0.774296
0.193462 0.699212 0.743837
0.294133 0.704258 0.748883
0.394803 0.709303 0.753928
0.495474 0.714349 0.758974
0.596145 0.719395 0.764019
0.696815 0.724440 0.769065
0.797486 0.729486 0.774111
0.898156 0.734531 0.779156
0.998827 0.739577 0.784202
0.203368 0.804743 0.753743
0.304038 0.809788 0.758788
0.404709 0.814834 0.763834
0.505380 0.819879 0.768879
0.606050 0.824925 0.773925
0.706721 0.829971 0.778971
0.807391 0.835016 0.784016
0.908062 0.840062 0.789062
1.000000 0.845108 0.794108
0.213273 0.910273 0.763648
0.313944 0.915319 0.768694
0.414615 0.920365 0.773740
0.515285 0.925410 0.778785
0.615956 0.930456 0.783831
0.716626 0.935501 0.788876
0.817297 0.940547 0.793922
0.917968 0.945593 0.798968
1.000000 0.950638 0.804013
0.135952 0.067952 0.781952
0.236623 0.072998 0.786998
0.337293 0.078043 0.792043
0.437964 0.083089 0.797089
0.538635 0.088135 0.802134
0.639305 0.093180 0.807180
0.739976 0.098226 0.812226
0.840646 0.103271 0.817271
0.941317 0.108317 0.822317
0.145858 0.173483 0.791858
0.246528 0.178528 0.796903
0.347199 0.183574 0.801949
0.447870 0.188619 0.806995
0.548540 0.193665 0.812040
0.649211 0.198711 0.817086
0.749881 0.203756 0.822131
0.850552 0.208802 0.827177
0.951223 0.213848 0.832223
0.155763 0.279013 0.801763
0.256434 0.284059 0.806809
0.357105 0.289105 0.811854
0.457775 0.294150 0.816900
0.558446 0.299196 0.821946
0.659116 0.304241 0.826991
0.759787 0.309287 0.832037
0.860458 0.314333 0.837083
0.961128 0.319378 0.842128
0.165669 0.384544 0.811669
0.266339 0.389589 0.816715
0.367010 0.394635 0.821760
0.467681 0.399681 0.826806
0.568351 0.404726 0.831851
0.669022 0.409772 0.836897
0.769693 0.414818 0.841943
0.870363 0.419863 0.846988
0.971034 0.424909 0.852034
0.175575 0.490074 0.821574
0.276245 0.495120 0.826620
0.376916 0.500166 0.831666
0.477586 0.505211 0.836711
0.578257 0.510257 0.841757
0.678928 0.515303 0.846803
0.779598 0.520348 0.851848
0.880269 0.525394 0.856894
0.980940 0.530439 0.861939
0.185480 0.595605 0.831480
0.286151 0.600651 0.836526
0.386821 0.605696 0.841571
0.487492 0.610742 0.846617
0.588163 0.615788 0.851663
0.688833 0.620833 0.856708
0.789504 0.625879 0.861754
0.890174 0.630924 0.866799
0.990845 0.635970 0.871845
0.195386 0.701136 0.841386
0.296056 0.706181 0.846431
0.396727 0.711227 0.851477
0.497398 0.716273 0.856523
0.598068 0.721318 0.861568
0.698739 0.726364 0.866614
0.799410 0.731410 0.871660
0.900080 0.736455 0.876705
1.000000 0.741501 0.881751
0.205291 0.806666 0.851291
0.305962 0.811712 0.856337
0.406633 0.816758 0.861383
0.507303 0.821803 0.866428
0.607974 0.826849 0.871474
0.708645 0.831894 0.876520
0.809315 0.836940 0.881565
0.909986 0.841986 0.886611
1.000000 0.847031 0.891656
0.215197 0.912197 0.861197
0.315868 0.917243 0.866243
0.416538 0.922288 0.871288
0.517209 0.927334 0.876334
0.617880 0.932380 0.881379
0.718550 0.937425 0.886425
0.819221 0.942471 0.891471
0.919891 0.947516 0.896516
1.000000 0.952562 0.901562
