Tools/LUT_Grading_MCP/src/lut_grading_mcp/luts/warm_vintage.cube
LUT_3D_SIZE 5
0.120562 0.052562 0.001562
0.321903 0.062653 0.011653
0.523245 0.072745 0.021744
0.724586 0.082836 0.031836
0.925927 0.092927 0.041927
0.140373 0.263623 0.021373
0.341715 0.273715 0.031465
0.543056 0.283806 0.041556
0.744397 0.293897 0.051647
0.945738 0.303988 0.061738
0.160185 0.474685 0.041185
0.361526 0.484776 0.051276
0.562867 0.494867 0.061367
0.764208 0.504958 0.071458
0.965550 0.515049 0.081549
0.179996 0.685746 0.060996
0.381337 0.695837 0.071087
0.582678 0.705928 0.081178
0.784020 0.716020 0.091270
0.985361 0.726111 0.101361
0.199807 0.896807 0.080807
0.401148 0.906898 0.090898
0.602490 0.916990 0.100989
0.803831 0.927081 0.111081
1.000000 0.937172 0.121172
0.124410 0.056410 0.196660
0.325751 0.066501 0.206751
0.527092 0.076592 0.216842
0.728433 0.086683 0.226933
0.929775 0.096774 0.237025
0.144221 0.267471 0.216471
0.345562 0.277562 0.226562
0.546903 0.287653 0.236653
0.748245 0.297745 0.246745
0.949586 0.307836 0.256836
0.164032 0.478532 0.236282
0.365373 0.488623 0.246373
0.566715 0.498715 0.256465
0.768056 0.508806 0.266556
0.969397 0.518897 0.276647
0.183843 0.689593 0.256093
0.385185 0.699685 0.266185
0.586526 0.709776 0.276276
0.787867 0.719867 0.286367
0.989208 0.729958 0.296458
0.203655 0.900655 0.275905
0.404996 0.910746 0.285996
0.606337 0.920837 0.296087
0.807678 0.930928 0.306178
1.000000 0.941020 0.316270
0.128257 0.060257 0.391757
0.329598 0.070348 0.401848
0.530940 0.080439 0.411940
0.732281 0.090531 0.422031
0.933622 0.100622 0.432122
0.148068 0.271318 0.411568
0.349410 0.281410 0.421660
0.550751 0.291501 0.431751
0.752092 0.301592 0.441842
0.953433 0.311683 0.451933
0.167880 0.482379 0.431380
0.369221 0.492471 0.441471
0.570562 0.502562 0.451562
0.771903 0.512653 0.461653
0.973245 0.522744 0.471745
0.187691 0.693441 0.451191
0.389032 0.703532 0.461282
0.590373 0.713623 0.471373
0.791715 0.723715 0.481465
0.993056 0.733806 0.491556
0.207502 0.904502 0.471002
0.408843 0.914593 0.481093
0.610185 0.924685 0.491185
0.811526 0.934776 0.501276
1.000000 0.944867 0.511367
0.132105 0.064105 0.586855
0.333446 0.074196 0.596946
0.534787 0.084287 0.607037
0.736128 0.094378 0.617128
0.937469 0.104469 0.627220
0.151916 0.275166 0.606666
0.353257 0.285257 0.616757
0.554598 0.295348 0.626848
0.755940 0.305440 0.636939
0.957281 0.315531 0.647031
0.171727 0.486227 0.626477
0.373068 0.496318 0.636568
0.574410 0.506409 0.646660
0.775751 0.516501 0.656751
0.977092 0.526592 0.666842
0.191538 0.697288 0.646288
0.392880 0.707380 0.656380
0.594221 0.717471 0.666471
0.795562 0.727562 0.676562
0.996903 0.737653 0.686653
0.211350 0.908350 0.666100
0.412691 0.918441 0.676191
0.614032 0.928532 0.686282
0.815373 0.938623 0.696373
1.000000 0.948715 0.706465
0.135952 0.067952 0.781952
0.337293 0.078043 0.792043
0.538635 0.088135 0.802134
0.739976 0.098226 0.812226
0.941317 0.108317 0.822317
0.155763 0.279013 0.801763
0.357105 0.289105 0.811854
0.558446 0.299196 0.821946
0.759787 0.309287 0.832037
0.961128 0.319378 0.842128
0.175575 0.490074 0.821574
0.376916 0.500166 0.831666
0.578257 0.510257 0.841757
0.779598 0.520348 0.851848
0.980940 0.530439 0.861939
0.195386 0.701136 0.841386
0.396727 0.711227 0.851477
0.598068 0.721318 0.861568
0.799410 0.731410 0.871660
1.000000 0.741501 0.881751
0.215197 0.912197 0.861197
0.416538 0.922288 0.871288
0.617880 0.932380 0.881379
0.819221 0.942471 0.891471
1.000000 0.952562 0.901562
