Tools/LUT_Grading_MCP/src/lut_grading_mcp/luts/warm_vintage.cube
LUT_3D_SIZE 17
0.120562 0.052562 0.001562
0.170897 0.055085 0.004085
0.221233 0.057608 0.006608
0.271568 0.060130 0.009130
0.321903 0.062653 0.011653
0.372239 0.065176 0.014176
0.422574 0.067699 0.016699
0.472909 0.070222 0.019222
0.523245 0.072745 0.021744
0.573580 0.075267 0.024267
0.623915 0.077790 0.026790
0.674250 0.080313 0.029313
0.724586 0.082836 0.031836
0.774921 0.085359 0.034359
0.825256 0.087881 0.036881
0.875592 0.090404 0.039404
0.925927 0.092927 0.041927
0.125515 0.105327 0.006515
0.175850 0.107850 0.009038
0.226185 0.110373 0.011560
0.276521 0.112896 0.014083
0.326856 0.115419 0.016606
0.377191 0.117941 0.019129
0.427527 0.120464 0.021652
0.477862 0.122987 0.024174
0.528197 0.125510 0.026697
0.578533 0.128033 0.029220
0.628868 0.130555 0.031743
0.679203 0.133078 0.034266
0.729539 0.135601 0.036789
0.779874 0.138124 0.039311
0.830209 0.140647 0.041834
0.880545 0.143170 0.044357
0.930880 0.145692 0.046880
0.130468 0.158093 0.011468
0.180803 0.160615 0.013990
0.231138 0.163138 0.016513
0.281474 0.165661 0.019036
0.331809 0.168184 0.021559
0.382144 0.170707 0.024082
0.432480 0.173230 0.026605
0.482815 0.175752 0.029127
0.533150 0.178275 0.031650
0.583485 0.180798 0.034173
0.633821 0.183321 0.036696
0.684156 0.185844 0.039219
0.734491 0.188366 0.041741
0.784827 0.190889 0.044264
0.835162 0.193412 0.046787
0.885497 0.195935 0.049310
0.935833 0.198458 0.051833
0.135420 0.210858 0.016420
0.185756 0.213381 0.018943
0.236091 0.215904 0.021466
0.286426 0.218426 0.023989
0.336762 0.220949 0.026512
0.387097 0.223472 0.029034
0.437432 0.225995 0.031557
0.487768 0.228518 0.034080
0.538103 0.231040 0.036603
0.588438 0.233563 0.039126
0.638774 0.236086 0.041649
0.689109 0.238609 0.044171
0.739444 0.241132 0.046694
0.789780 0.243654 0.049217
0.840115 0.246177 0.051740
0.890450 0.248700 0.054263
0.940785 0.251223 0.056785
0.140373 0.263623 0.021373
0.190709 0.266146 0.023896
0.241044 0.268669 0.026419
0.291379 0.271192 0.028942
0.341715 0.273715 0.031465
0.392050 0.276237 0.033987
0.442385 0.278760 0.036510
0.492720 0.281283 0.039033
0.543056 0.283806 0.041556
0.593391 0.286329 0.044079
0.643726 0.288851 0.046601
0.694062 0.291374 0.049124
0.744397 0.293897 0.051647
0.794732 0.296420 0.054170
0.845068 0.298943 0.056693
0.895403 0.301465 0.059215
0.945738 0.303988 0.061738
0.145326 0.316389 0.026326
0.195661 0.318911 0.028849
0.245997 0.321434 0.031372
0.296332 0.323957 0.033894
0.346667 0.326480 0.036417
0.397003 0.329003 0.038940
0.447338 0.331525 0.041463
0.497673 0.334048 0.043986
0.548009 0.336571 0.046509
0.598344 0.339094 0.049031
0.648679 0.341617 0.051554
0.699015 0.344139 0.054077
0.749350 0.346662 0.056600
0.799685 0.349185 0.059123
0.850020 0.351708 0.061645
0.900356 0.354231 0.064168
0.950691 0.356754 0.066691
0.150279 0.369154 0.031279
0.200614 0.371677 0.033802
0.250949 0.374200 0.036324
0.301285 0.376722 0.038847
0.351620 0.379245 0.041370
0.401955 0.381768 0.043893
0.452291 0.384291 0.046416
0.502626 0.386814 0.048939
0.552961 0.389336 0.051461
0.603297 0.391859 0.053984
0.653632 0.394382 0.056507
0.703967 0.396905 0.059030
0.754303 0.399428 0.061553
0.804638 0.401950 0.064075
0.854973 0.404473 0.066598
0.905309 0.406996 0.069121
0.955644 0.409519 0.071644
0.155232 0.421919 0.036232
0.205567 0.424442 0.038755
0.255902 0.426965 0.041277
0.306238 0.429488 0.043800
0.356573 0.432010 0.046323
0.406908 0.434533 0.048846
0.457244 0.437056 0.051369
0.507579 0.439579 0.053891
0.557914 0.442102 0.056414
0.608249 0.444624 0.058937
0.658585 0.447147 0.061460
0.708920 0.449670 0.063983
0.759255 0.452193 0.066505
0.809591 0.454716 0.069028
0.859926 0.457239 0.071551
0.910261 0.459761 0.074074
0.960597 0.462284 0.076597
0.160185 0.474685 0.041185
0.210520 0.477207 0.043707
0.260855 0.479730 0.046230
0.311190 0.482253 0.048753
0.361526 0.484776 0.051276
0.411861 0.487299 0.053799
0.462196 0.489821 0.056321
0.512532 0.492344 0.058844
0.562867 0.494867 0.061367
0.613202 0.497390 0.063890
0.663538 0.499913 0.066413
0.713873 0.502435 0.068935
0.764208 0.504958 0.071458
0.814544 0.507481 0.073981
0.864879 0.510004 0.076504
0.915214 0.512527 0.079027
0.965550 0.515049 0.081549
0.165137 0.527450 0.046137
0.215473 0.529973 0.048660
0.265808 0.532495 0.051183
0.316143 0.535018 0.053706
0.366479 0.537541 0.056229
0.416814 0.540064 0.058751
0.467149 0.542587 0.061274
0.517484 0.545110 0.063797
0.567820 0.547632 0.066320
0.618155 0.550155 0.068843
0.668490 0.552678 0.071365
0.718826 0.555201 0.073888
0.769161 0.557724 0.076411
0.819496 0.560246 0.078934
0.869832 0.562769 0.081457
0.920167 0.565292 0.083979
0.970502 0.567815 0.086502
0.170090 0.580215 0.051090
0.220425 0.582738 0.053613
0.270761 0.585261 0.056136
0.321096 0.587784 0.058659
0.371431 0.590306 0.061181
0.421767 0.592829 0.063704
0.472102 0.595352 0.066227
0.522437 0.597875 0.068750
0.572773 0.600398 0.071273
0.623108 0.602920 0.073795
0.673443 0.605443 0.076318
0.723779 0.607966 0.078841
0.774114 0.610489 0.081364
0.824449 0.613012 0.083887
0.874784 0.615534 0.086410
0.925120 0.618057 0.088932
0.975455 0.620580 0.091455
0.175043 0.632980 0.056043
0.225378 0.635503 0.058566
0.275714 0.638026 0.061089
0.326049 0.640549 0.063611
0.376384 0.643072 0.066134
0.426720 0.645595 0.068657
0.477055 0.648117 0.071180
0.527390 0.650640 0.073703
0.577725 0.653163 0.076225
0.628061 0.655686 0.078748
0.678396 0.658209 0.081271
0.728731 0.660731 0.083794
0.779067 0.663254 0.086317
0.829402 0.665777 0.088839
0.879737 0.668300 0.091362
0.930073 0.670823 0.093885
0.980408 0.673345 0.096408
0.179996 0.685746 0.060996
0.230331 0.688269 0.063519
0.280666 0.690791 0.066041
0.331002 0.693314 0.068564
0.381337 0.695837 0.071087
0.431672 0.698360 0.073610
0.482008 0.700883 0.076133
0.532343 0.703405 0.078655
0.582678 0.705928 0.081178
0.633014 0.708451 0.083701
0.683349 0.710974 0.086224
0.733684 0.713497 0.088747
0.784020 0.716020 0.091270
0.834355 0.718542 0.093792
0.884690 0.721065 0.096315
0.935025 0.723588 0.098838
0.985361 0.726111 0.101361
0.184949 0.738511 0.065949
0.235284 0.741034 0.068471
0.285619 0.743557 0.070994
0.335955 0.746080 0.073517
0.386290 0.748602 0.076040
0.436625 0.751125 0.078563
0.486960 0.753648 0.081085
0.537296 0.756171 0.083608
0.587631 0.758694 0.086131
0.637966 0.761216 0.088654
0.688302 0.763739 0.091177
0.738637 0.766262 0.093700
0.788972 0.768785 0.096222
0.839308 0.771308 0.098745
0.889643 0.773830 0.101268
0.939978 0.776353 0.103791
0.990314 0.778876 0.106314
0.189901 0.791276 0.070901
0.240237 0.793799 0.073424
0.290572 0.796322 0.075947
0.340907 0.798845 0.078470
0.391243 0.801368 0.080993
0.441578 0.803890 0.083515
0.491913 0.806413 0.086038
0.542249 0.808936 0.088561
0.592584 0.811459 0.091084
0.642919 0.813982 0.093607
0.693255 0.816504 0.096129
0.743590 0.819027 0.098652
0.793925 0.821550 0.101175
0.844260 0.824073 0.103698
0.894596 0.826596 0.106221
0.944931 0.829119 0.108744
0.995266 0.831641 0.111266
0.194854 0.844042 0.075854
0.245190 0.846564 0.078377
0.295525 0.849087 0.080900
0.345860 0.851610 0.083423
0.396195 0.854133 0.085945
0.446531 0.856656 0.088468
0.496866 0.859179 0.090991
0.547201 0.861701 0.093514
0.597537 0.864224 0.096037
0.647872 0.866747 0.098560
0.698207 0.869270 0.101082
0.748543 0.871793 0.103605
0.798878 0.874315 0.106128
0.849213 0.876838 0.108651
0.899549 0.879361 0.111174
0.949884 0.881884 0.113696
1.000000 0.884407 0.116219
0.199807 0.896807 0.080807
0.250142 0.899330 0.083330
0.300478 0.901853 0.085853
0.350813 0.904375 0.088375
0.401148 0.906898 0.090898
0.451484 0.909421 0.093421
0.501819 0.911944 0.095944
0.552154 0.914467 0.098467
0.602490 0.916990 0.100989
0.652825 0.919512 0.103512
0.703160 0.922035 0.106035
0.753495 0.924558 0.108558
0.803831 0.927081 0.111081
0.854166 0.929604 0.113604
0.904501 0.932126 0.116126
0.954837 0.934649 0.118649
1.000000 0.937172 0.121172
0.121524 0.053524 0.050336
0.171859 0.056047 0.052859
0.222194 0.058570 0.055382
0.272530 0.061092 0.057905
0.322865 0.063615 0.060428
0.373200 0.066138 0.062950
0.423536 0.068661 0.065473
0.473871 0.071184 0.067996
0.524206 0.073706 0.070519
0.574542 0.076229 0.073042
0.624877 0.078752 0.075565
0.675212 0.081275 0.078087
0.725548 0.083798 0.080610
0.775883 0.086320 0.083133
0.826218 0.088843 0.085656
0.876554 0.091366 0.088179
0.926889 0.093889 0.090701
0.126477 0.106289 0.055289
0.176812 0.108812 0.057812
0.227147 0.111335 0.060335
0.277483 0.113858 0.062858
0.327818 0.116380 0.065380
0.378153 0.118903 0.067903
0.428489 0.121426 0.070426
0.478824 0.123949 0.072949
0.529159 0.126472 0.075472
0.579495 0.128995 0.077995
0.629830 0.131517 0.080517
0.680165 0.134040 0.083040
0.730500 0.136563 0.085563
0.780836 0.139086 0.088086
0.831171 0.141609 0.090609
0.881506 0.144131 0.093131
0.931842 0.146654 0.095654
0.131430 0.159055 0.060242
0.181765 0.161577 0.062765
0.232100 0.164100 0.065288
0.282435 0.166623 0.067810
0.332771 0.169146 0.070333
0.383106 0.171669 0.072856
0.433441 0.174191 0.075379
0.483777 0.176714 0.077902
0.534112 0.179237 0.080425
0.584447 0.181760 0.082947
0.634783 0.184283 0.085470
0.685118 0.186805 0.087993
0.735453 0.189328 0.090516
0.785789 0.191851 0.093039
0.836124 0.194374 0.095561
0.886459 0.196897 0.098084
0.936794 0.199420 0.100607
0.136382 0.211820 0.065195
0.186718 0.214343 0.067718
0.237053 0.216865 0.070240
0.287388 0.219388 0.072763
0.337724 0.221911 0.075286
0.388059 0.224434 0.077809
0.438394 0.226957 0.080332
0.488729 0.229480 0.082855
0.539065 0.232002 0.085377
0.589400 0.234525 0.087900
0.639735 0.237048 0.090423
0.690071 0.239571 0.092946
0.740406 0.242094 0.095469
0.790741 0.244616 0.097991
0.841077 0.247139 0.100514
0.891412 0.249662 0.103037
0.941747 0.252185 0.105560
0.141335 0.264585 0.070148
0.191670 0.267108 0.072670
0.242006 0.269631 0.075193
0.292341 0.272154 0.077716
0.342676 0.274676 0.080239
0.393012 0.277199 0.082762
0.443347 0.279722 0.085285
0.493682 0.282245 0.087807
0.544018 0.284768 0.090330
0.594353 0.287290 0.092853
0.644688 0.289813 0.095376
0.695024 0.292336 0.097899
0.745359 0.294859 0.100421
0.795694 0.297382 0.102944
0.846029 0.299905 0.105467
0.896365 0.302427 0.107990
0.946700 0.304950 0.110513
0.146288 0.317350 0.075100
0.196623 0.319873 0.077623
0.246959 0.322396 0.080146
0.297294 0.324919 0.082669
0.347629 0.327442 0.085192
0.397964 0.329964 0.087715
0.448300 0.332487 0.090237
0.498635 0.335010 0.092760
0.548970 0.337533 0.095283
0.599306 0.340056 0.097806
0.649641 0.342579 0.100329
0.699976 0.345101 0.102851
0.750312 0.347624 0.105374
0.800647 0.350147 0.107897
0.850982 0.352670 0.110420
0.901318 0.355193 0.112943
0.951653 0.357715 0.115465
0.151241 0.370116 0.080053
0.201576 0.372639 0.082576
0.251911 0.375161 0.085099
0.302247 0.377684 0.087622
0.352582 0.380207 0.090145
0.402917 0.382730 0.092667
0.453253 0.385253 0.095190
0.503588 0.387775 0.097713
0.553923 0.390298 0.100236
0.604259 0.392821 0.102759
0.654594 0.395344 0.105281
0.704929 0.397867 0.107804
0.755265 0.400390 0.110327
0.805600 0.402912 0.112850
0.855935 0.405435 0.115373
0.906270 0.407958 0.117895
0.956606 0.410481 0.120418
0.156194 0.422881 0.085006
0.206529 0.425404 0.087529
0.256864 0.427927 0.090052
0.307200 0.430449 0.092575
0.357535 0.432972 0.095097
0.407870 0.435495 0.097620
0.458205 0.438018 0.100143
0.508541 0.440541 0.102666
0.558876 0.443064 0.105189
0.609211 0.445586 0.107711
0.659547 0.448109 0.110234
0.709882 0.450632 0.112757
0.760217 0.453155 0.115280
0.810553 0.455678 0.117803
0.860888 0.458200 0.120325
0.911223 0.460723 0.122848
0.961559 0.463246 0.125371
0.161146 0.475646 0.089959
0.211482 0.478169 0.092482
0.261817 0.480692 0.095004
0.312152 0.483215 0.097527
0.362488 0.485738 0.100050
0.412823 0.488260 0.102573
0.463158 0.490783 0.105096
0.513494 0.493306 0.107619
0.563829 0.495829 0.110141
0.614164 0.498352 0.112664
0.664500 0.500875 0.115187
0.714835 0.503397 0.117710
0.765170 0.505920 0.120233
0.815505 0.508443 0.122755
0.865841 0.510966 0.125278
0.916176 0.513489 0.127801
0.966511 0.516011 0.130324
0.166099 0.528412 0.094912
0.216435 0.530934 0.097435
0.266770 0.533457 0.099957
0.317105 0.535980 0.102480
0.367440 0.538503 0.105003
0.417776 0.541026 0.107526
0.468111 0.543549 0.110049
0.518446 0.546071 0.112571
0.568782 0.548594 0.115094
0.619117 0.551117 0.117617
0.669452 0.553640 0.120140
0.719788 0.556163 0.122663
0.770123 0.558685 0.125185
0.820458 0.561208 0.127708
0.870794 0.563731 0.130231
0.921129 0.566254 0.132754
0.971464 0.568777 0.135277
0.171052 0.581177 0.099865
0.221387 0.583700 0.102387
0.271723 0.586223 0.104910
0.322058 0.588745 0.107433
0.372393 0.591268 0.109956
0.422729 0.593791 0.112479
0.473064 0.596314 0.115001
0.523399 0.598837 0.117524
0.573735 0.601360 0.120047
0.624070 0.603882 0.122570
0.674405 0.606405 0.125093
0.724740 0.608928 0.127615
0.775076 0.611451 0.130138
0.825411 0.613974 0.132661
0.875746 0.616496 0.135184
0.926082 0.619019 0.137707
0.976417 0.621542 0.140230
0.176005 0.633942 0.104817
0.226340 0.636465 0.107340
0.276675 0.638988 0.109863
0.327011 0.641511 0.112386
0.377346 0.644034 0.114909
0.427681 0.646556 0.117431
0.478017 0.649079 0.119954
0.528352 0.651602 0.122477
0.578687 0.654125 0.125000
0.629023 0.656648 0.127523
0.679358 0.659170 0.130045
0.729693 0.661693 0.132568
0.780029 0.664216 0.135091
0.830364 0.666739 0.137614
0.880699 0.669262 0.140137
0.931035 0.671785 0.142660
0.981370 0.674307 0.145182
0.180958 0.686708 0.109770
0.231293 0.689230 0.112293
0.281628 0.691753 0.114816
0.331964 0.694276 0.117339
0.382299 0.696799 0.119861
0.432634 0.699322 0.122384
0.482970 0.701845 0.124907
0.533305 0.704367 0.127430
0.583640 0.706890 0.129953
0.633975 0.709413 0.132475
0.684311 0.711936 0.134998
0.734646 0.714459 0.137521
0.784981 0.716981 0.140044
0.835317 0.719504 0.142567
0.885652 0.722027 0.145089
0.935987 0.724550 0.147612
0.986323 0.727073 0.150135
0.185910 0.739473 0.114723
0.236246 0.741996 0.117246
0.286581 0.744519 0.119769
0.336916 0.747041 0.122291
0.387252 0.749564 0.124814
0.437587 0.752087 0.127337
0.487922 0.754610 0.129860
0.538258 0.757133 0.132383
0.588593 0.759655 0.134905
0.638928 0.762178 0.137428
0.689264 0.764701 0.139951
0.739599 0.767224 0.142474
0.789934 0.769747 0.144997
0.840270 0.772270 0.147520
0.890605 0.774792 0.150042
0.940940 0.777315 0.152565
0.991275 0.779838 0.155088
0.190863 0.792238 0.119676
0.241199 0.794761 0.122199
0.291534 0.797284 0.124721
0.341869 0.799807 0.127244
0.392205 0.802330 0.129767
0.442540 0.804852 0.132290
0.492875 0.807375 0.134813
0.543210 0.809898 0.137335
0.593546 0.812421 0.139858
0.643881 0.814944 0.142381
0.694216 0.817466 0.144904
0.744552 0.819989 0.147427
0.794887 0.822512 0.149950
0.845222 0.825035 0.152472
0.895558 0.827558 0.154995
0.945893 0.830080 0.157518
0.996228 0.832603 0.160041
0.195816 0.845004 0.124629
0.246151 0.847526 0.127151
0.296487 0.850049 0.129674
0.346822 0.852572 0.132197
0.397157 0.855095 0.134720
0.447493 0.857618 0.137243
0.497828 0.860140 0.139765
0.548163 0.862663 0.142288
0.598499 0.865186 0.144811
0.648834 0.867709 0.147334
0.699169 0.870232 0.149857
0.749505 0.872754 0.152380
0.799840 0.875277 0.154902
0.850175 0.877800 0.157425
0.900510 0.880323 0.159948
0.950846 0.882846 0.162471
1.000000 0.885369 0.164994
0.200769 0.897769 0.129581
0.251104 0.900292 0.132104
0.301439 0.902815 0.134627
0.351775 0.905337 0.137150
0.402110 0.907860 0.139673
0.452445 0.910383 0.142195
0.502781 0.912906 0.144718
0.553116 0.915429 0.147241
0.603451 0.917951 0.149764
0.653787 0.920474 0.152287
0.704122 0.922997 0.154810
0.754457 0.925520 0.157332
0.804793 0.928043 0.159855
0.855128 0.930565 0.162378
0.905463 0.933088 0.164901
0.955799 0.935611 0.167424
1.000000 0.938134 0.169946
0.122486 0.054486 0.099111
0.172821 0.057009 0.101634
0.223156 0.059531 0.104156
0.273492 0.062054 0.106679
0.323827 0.064577 0.109202
0.374162 0.067100 0.111725
0.424498 0.069623 0.114248
0.474833 0.072145 0.116770
0.525168 0.074668 0.119293
0.575504 0.077191 0.121816
0.625839 0.079714 0.124339
0.676174 0.082237 0.126862
0.726510 0.084759 0.129384
0.776845 0.087282 0.131907
0.827180 0.089805 0.134430
0.877515 0.092328 0.136953
0.927851 0.094851 0.139476
0.127439 0.107251 0.104064
0.177774 0.109774 0.106586
0.228109 0.112297 0.109109
0.278444 0.114820 0.111632
0.328780 0.117342 0.114155
0.379115 0.119865 0.116678
0.429450 0.122388 0.119200
0.479786 0.124911 0.121723
0.530121 0.127434 0.124246
0.580456 0.129956 0.126769
0.630792 0.132479 0.129292
0.681127 0.135002 0.131814
0.731462 0.137525 0.134337
0.781798 0.140048 0.136860
0.832133 0.142570 0.139383
0.882468 0.145093 0.141906
0.932804 0.147616 0.144429
0.132391 0.160016 0.109016
0.182727 0.162539 0.111539
0.233062 0.165062 0.114062
0.283397 0.167585 0.116585
0.333733 0.170108 0.119108
0.384068 0.172630 0.121630
0.434403 0.175153 0.124153
0.484739 0.177676 0.126676
0.535074 0.180199 0.129199
0.585409 0.182722 0.131722
0.635745 0.185245 0.134244
0.686080 0.187767 0.136767
0.736415 0.190290 0.139290
0.786750 0.192813 0.141813
0.837086 0.195336 0.144336
0.887421 0.197859 0.146859
0.937756 0.200381 0.149381
0.137344 0.212782 0.113969
0.187679 0.215305 0.116492
0.238015 0.217827 0.119015
0.288350 0.220350 0.121538
0.338685 0.222873 0.124060
0.389021 0.225396 0.126583
0.439356 0.227919 0.129106
0.489691 0.230441 0.131629
0.540027 0.232964 0.134152
0.590362 0.235487 0.136674
0.640697 0.238010 0.139197
0.691033 0.240533 0.141720
0.741368 0.243055 0.144243
0.791703 0.245578 0.146766
0.842039 0.248101 0.149289
0.892374 0.250624 0.151811
0.942709 0.253147 0.154334
0.142297 0.265547 0.118922
0.192632 0.268070 0.121445
0.242968 0.270593 0.123968
0.293303 0.273115 0.126490
0.343638 0.275638 0.129013
0.393974 0.278161 0.131536
0.444309 0.280684 0.134059
0.494644 0.283207 0.136582
0.544980 0.285730 0.139104
0.595315 0.288252 0.141627
0.645650 0.290775 0.144150
0.695985 0.293298 0.146673
0.746321 0.295821 0.149196
0.796656 0.298344 0.151719
0.846991 0.300866 0.154241
0.897327 0.303389 0.156764
0.947662 0.305912 0.159287
0.147250 0.318312 0.123875
0.197585 0.320835 0.126398
0.247920 0.323358 0.128920
0.298256 0.325881 0.131443
0.348591 0.328404 0.133966
0.398926 0.330926 0.136489
0.449262 0.333449 0.139012
0.499597 0.335972 0.141534
0.549932 0.338495 0.144057
0.600268 0.341018 0.146580
0.650603 0.343540 0.149103
0.700938 0.346063 0.151626
0.751274 0.348586 0.154149
0.801609 0.351109 0.156671
0.851944 0.353632 0.159194
0.902280 0.356154 0.161717
0.952615 0.358677 0.164240
0.152203 0.371078 0.128828
0.202538 0.373600 0.131350
0.252873 0.376123 0.133873
0.303209 0.378646 0.136396
0.353544 0.381169 0.138919
0.403879 0.383692 0.141442
0.454215 0.386215 0.143964
0.504550 0.388737 0.146487
0.554885 0.391260 0.149010
0.605220 0.393783 0.151533
0.655556 0.396306 0.154056
0.705891 0.398829 0.156579
0.756226 0.401351 0.159101
0.806562 0.403874 0.161624
0.856897 0.406397 0.164147
0.907232 0.408920 0.166670
0.957568 0.411443 0.169193
0.157155 0.423843 0.133780
0.207491 0.426366 0.136303
0.257826 0.428889 0.138826
0.308161 0.431411 0.141349
0.358497 0.433934 0.143872
0.408832 0.436457 0.146394
0.459167 0.438980 0.148917
0.509503 0.441503 0.151440
0.559838 0.444025 0.153963
0.610173 0.446548 0.156486
0.660509 0.449071 0.159009
0.710844 0.451594 0.161531
0.761179 0.454117 0.164054
0.811515 0.456639 0.166577
0.861850 0.459162 0.169100
0.912185 0.461685 0.171623
0.962520 0.464208 0.174145
0.162108 0.476608 0.138733
0.212444 0.479131 0.141256
0.262779 0.481654 0.143779
0.313114 0.484177 0.146302
0.363450 0.486700 0.148824
0.413785 0.489222 0.151347
0.464120 0.491745 0.153870
0.514455 0.494268 0.156393
0.564791 0.496791 0.158916
0.615126 0.499314 0.161439
0.665461 0.501836 0.163961
0.715797 0.504359 0.166484
0.766132 0.506882 0.169007
0.816467 0.509405 0.171530
0.866803 0.511928 0.174053
0.917138 0.514450 0.176575
0.967473 0.516973 0.179098
0.167061 0.529374 0.143686
0.217396 0.531896 0.146209
0.267732 0.534419 0.148732
0.318067 0.536942 0.151254
0.368402 0.539465 0.153777
0.418738 0.541988 0.156300
0.469073 0.544510 0.158823
0.519408 0.547033 0.161346
0.569744 0.549556 0.163869
0.620079 0.552079 0.166391
0.670414 0.554602 0.168914
0.720750 0.557125 0.171437
0.771085 0.559647 0.173960
0.821420 0.562170 0.176483
0.871755 0.564693 0.179005
0.922091 0.567216 0.181528
0.972426 0.569739 0.184051
0.172014 0.582139 0.148639
0.222349 0.584662 0.151162
0.272684 0.587184 0.153685
0.323020 0.589707 0.156207
0.373355 0.592230 0.158730
0.423690 0.594753 0.161253
0.474026 0.597276 0.163776
0.524361 0.599799 0.166299
0.574696 0.602321 0.168821
0.625032 0.604844 0.171344
0.675367 0.607367 0.173867
0.725702 0.609890 0.176390
0.776038 0.612413 0.178913
0.826373 0.614935 0.181435
0.876708 0.617458 0.183958
0.927044 0.619981 0.186481
0.977379 0.622504 0.189004
0.176967 0.634904 0.153592
0.227302 0.637427 0.156114
0.277637 0.639950 0.158637
0.327973 0.642473 0.161160
0.378308 0.644995 0.163683
0.428643 0.647518 0.166206
0.478979 0.650041 0.168729
0.529314 0.652564 0.171251
0.579649 0.655087 0.173774
0.629984 0.657610 0.176297
0.680320 0.660132 0.178820
0.730655 0.662655 0.181343
0.780990 0.665178 0.183865
0.831326 0.667701 0.186388
0.881661 0.670224 0.188911
0.931996 0.672746 0.191434
0.982332 0.675269 0.193957
0.181920 0.687670 0.158544
0.232255 0.690192 0.161067
0.282590 0.692715 0.163590
0.332925 0.695238 0.166113
0.383261 0.697761 0.168636
0.433596 0.700284 0.171159
0.483931 0.702806 0.173681
0.534267 0.705329 0.176204
0.584602 0.707852 0.178727
0.634937 0.710375 0.181250
0.685273 0.712898 0.183773
0.735608 0.715420 0.186295
0.785943 0.717943 0.188818
0.836279 0.720466 0.191341
0.886614 0.722989 0.193864
0.936949 0.725512 0.196387
0.987285 0.728035 0.198910
0.186872 0.740435 0.163497
0.237208 0.742958 0.166020
0.287543 0.745480 0.168543
0.337878 0.748003 0.171066
0.388214 0.750526 0.173589
0.438549 0.753049 0.176111
0.488884 0.755572 0.178634
0.539219 0.758095 0.181157
0.589555 0.760617 0.183680
0.639890 0.763140 0.186203
0.690225 0.765663 0.188725
0.740561 0.768186 0.191248
0.790896 0.770709 0.193771
0.841231 0.773231 0.196294
0.891567 0.775754 0.198817
0.941902 0.778277 0.201340
0.992237 0.780800 0.203862
0.191825 0.793200 0.168450
0.242160 0.795723 0.170973
0.292496 0.798246 0.173496
0.342831 0.800769 0.176019
0.393166 0.803291 0.178541
0.443502 0.805814 0.181064
0.493837 0.808337 0.183587
0.544172 0.810860 0.186110
0.594508 0.813383 0.188633
0.644843 0.815905 0.191155
0.695178 0.818428 0.193678
0.745514 0.820951 0.196201
0.795849 0.823474 0.198724
0.846184 0.825997 0.201247
0.896519 0.828519 0.203770
0.946855 0.831042 0.206292
0.997190 0.833565 0.208815
0.196778 0.845965 0.173403
0.247113 0.848488 0.175926
0.297449 0.851011 0.178449
0.347784 0.853534 0.180971
0.398119 0.856057 0.183494
0.448454 0.858580 0.186017
0.498790 0.861102 0.188540
0.549125 0.863625 0.191063
0.599460 0.866148 0.193585
0.649796 0.868671 0.196108
0.700131 0.871194 0.198631
0.750466 0.873716 0.201154
0.800802 0.876239 0.203677
0.851137 0.878762 0.206199
0.901472 0.881285 0.208722
0.951808 0.883808 0.211245
1.000000 0.886330 0.213768
0.201731 0.898731 0.178356
0.252066 0.901254 0.180879
0.302401 0.903776 0.183401
0.352737 0.906299 0.185924
0.403072 0.908822 0.188447
0.453407 0.911345 0.190970
0.503743 0.913868 0.193493
0.554078 0.916390 0.196015
0.604413 0.918913 0.198538
0.654749 0.921436 0.201061
0.705084 0.923959 0.203584
0.755419 0.926482 0.206107
0.805755 0.929005 0.208630
0.856090 0.931527 0.211152
0.906425 0.934050 0.213675
0.956760 0.936573 0.216198
1.000000 0.939096 0.218721
0.123448 0.055448 0.147885
0.173783 0.057970 0.150408
0.224118 0.060493 0.152931
0.274454 0.063016 0.155454
0.324789 0.065539 0.157976
0.375124 0.068062 0.160499
0.425459 0.070584 0.163022
0.475795 0.073107 0.165545
0.526130 0.075630 0.168068
0.576465 0.078153 0.170590
0.626801 0.080676 0.173113
0.677136 0.083199 0.175636
0.727471 0.085721 0.178159
0.777807 0.088244 0.180682
0.828142 0.090767 0.183204
0.878477 0.093290 0.185727
0.928813 0.095813 0.188250
0.128400 0.108213 0.152838
0.178736 0.110736 0.155361
0.229071 0.113259 0.157884
0.279406 0.115781 0.160406
